ocio/LUTs/baba.spi1d
Version 1
From 0.000000 1.125000
Length 4101
Components 1
{
        0.000000
        0.000021
        0.000042
        0.000064
        0.000085
        0.000106
        0.000127
        0.000149
        0.000170
        0.000191
        0.000212
        0.000234
        0.000255
        0.000276
        0.000297
        0.000319
        0.000340
        0.000361
        0.000382
        0.000404
        0.000425
        0.000446
        0.000467
        0.000488
        0.000510
        0.000531
        0.000552
        0.000573
        0.000595
        0.000616
        0.000637
        0.000658
        0.000680
        0.000701
        0.000722
        0.000743
        0.000765
        0.000786
        0.000807
        0.000828
        0.000850
        0.000871
        0.000892
        0.000913
        0.000934
        0.000956
        0.000977
        0.000998
        0.001019
        0.001041
        0.001062
        0.001083
        0.001104
        0.001126
        0.001147
        0.001168
        0.001189
        0.001211
        0.001232
        0.001253
        0.001274
        0.001295
        0.001317
        0.001338
        0.001359
        0.001380
        0.001402
        0.001423
        0.001444
        0.001465
        0.001487
        0.001508
        0.001529
        0.001550
        0.001572
        0.001593
        0.001614
        0.001635
        0.001657
        0.001678
        0.001699
        0.001720
        0.001741
        0.001763
        0.001784
        0.001805
        0.001826
        0.001848
        0.001869
        0.001890
        0.001911
        0.001933
        0.001954
        0.001975
        0.001996
        0.002018
        0.002039
        0.002060
        0.002081
        0.002103
        0.002124
        0.002145
        0.002166
        0.002187
        0.002209
        0.002230
        0.002251
        0.002272
        0.002294
        0.002315
        0.002336
        0.002357
        0.002379
        0.002400
        0.002421
        0.002442
        0.002464
        0.002485
        0.002506
        0.002527
        0.002549
        0.002570
        0.002591
        0.002612
        0.002633
        0.002655
        0.002676
        0.002697
        0.002718
        0.002740
        0.002761
        0.002782
        0.002803
        0.002825
        0.002846
        0.002867
        0.002888
        0.002910
        0.002931
        0.002952
        0.002973
        0.002995
        0.003016
        0.003037
        0.003058
        0.003079
        0.003101
        0.003122
        0.003143
        0.003165
        0.003187
        0.003209
        0.003231
        0.003253
        0.003275
        0.003297
        0.003319
        0.003342
        0.003364
        0.003387
        0.003410
        0.003432
        0.003455
        0.003478
        0.003501
        0.003524
        0.003547
        0.003571
        0.003594
        0.003617
        0.003641
        0.003665
        0.003688
        0.003712
        0.003736
        0.003760
        0.003784
        0.003808
        0.003833
        0.003857
        0.003881
        0.003906
        0.003930
        0.003955
        0.003980
        0.004005
        0.004030
        0.004055
        0.004080
        0.004105
        0.004131
        0.004156
        0.004182
        0.004207
        0.004233
        0.004259
        0.004285
        0.004311
        0.004337
        0.004363
        0.004389
        0.004416
        0.004442
        0.004468
        0.004495
        0.004522
        0.004549
        0.004576
        0.004603
        0.004630
        0.004657
        0.004684
        0.004711
        0.004739
        0.004766
        0.004794
        0.004822
        0.004850
        0.004878
        0.004906
        0.004934
        0.004962
        0.004990
        0.005019
        0.005047
        0.005076
        0.005104
        0.005133
        0.005162
        0.005191
        0.005220
        0.005249
        0.005279
        0.005308
        0.005337
        0.005367
        0.005396
        0.005426
        0.005456
        0.005486
        0.005516
        0.005546
        0.005576
        0.005607
        0.005637
        0.005667
        0.005698
        0.005729
        0.005759
        0.005790
        0.005821
        0.005852
        0.005883
        0.005915
        0.005946
        0.005978
        0.006009
        0.006041
        0.006072
        0.006104
        0.006136
        0.006168
        0.006200
        0.006233
        0.006265
        0.006297
        0.006330
        0.006363
        0.006395
        0.006428
        0.006461
        0.006494
        0.006527
        0.006560
        0.006594
        0.006627
        0.006661
        0.006694
        0.006728
        0.006762
        0.006796
        0.006830
        0.006864
        0.006898
        0.006932
        0.006966
        0.007001
        0.007036
        0.007070
        0.007105
        0.007140
        0.007175
        0.007210
        0.007245
        0.007280
        0.007316
        0.007351
        0.007387
        0.007423
        0.007458
        0.007494
        0.007530
        0.007566
        0.007603
        0.007639
        0.007675
        0.007712
        0.007748
        0.007785
        0.007822
        0.007859
        0.007896
        0.007933
        0.007970
        0.008007
        0.008045
        0.008082
        0.008120
        0.008158
        0.008195
        0.008233
        0.008271
        0.008310
        0.008348
        0.008386
        0.008424
        0.008463
        0.008502
        0.008540
        0.008579
        0.008618
        0.008657
        0.008696
        0.008736
        0.008775
        0.008814
        0.008854
        0.008894
        0.008933
        0.008973
        0.009013
        0.009053
        0.009094
        0.009134
        0.009174
        0.009215
        0.009255
        0.009296
        0.009337
        0.009378
        0.009419
        0.009460
        0.009501
        0.009542
        0.009584
        0.009625
        0.009667
        0.009709
        0.009751
        0.009793
        0.009835
        0.009877
        0.009919
        0.009961
        0.010004
        0.010046
        0.010089
        0.010132
        0.010175
        0.010218
        0.010261
        0.010304
        0.010348
        0.010391
        0.010435
        0.010478
        0.010522
        0.010566
        0.010610
        0.010654
        0.010698
        0.010742
        0.010787
        0.010831
        0.010876
        0.010921
        0.010965
        0.011010
        0.011055
        0.011100
        0.011146
        0.011191
        0.011237
        0.011282
        0.011328
        0.011374
        0.011419
        0.011465
        0.011512
        0.011558
        0.011604
        0.011651
        0.011697
        0.011744
        0.011791
        0.011837
        0.011884
        0.011931
        0.011979
        0.012026
        0.012073
        0.012121
        0.012169
        0.012216
        0.012264
        0.012312
        0.012360
        0.012408
        0.012457
        0.012505
        0.012554
        0.012602
        0.012651
        0.012700
        0.012749
        0.012798
        0.012847
        0.012896
        0.012946
        0.012995
        0.013045
        0.013094
        0.013144
        0.013194
        0.013244
        0.013294
        0.013345
        0.013395
        0.013445
        0.013496
        0.013547
        0.013598
        0.013648
        0.013700
        0.013751
        0.013802
        0.013853
        0.013905
        0.013956
        0.014008
        0.014060
        0.014112
        0.014164
        0.014216
        0.014268
        0.014321
        0.014373
        0.014426
        0.014479
        0.014531
        0.014584
        0.014637
        0.014691
        0.014744
        0.014797
        0.014851
        0.014904
        0.014958
        0.015012
        0.015066
        0.015120
        0.015174
        0.015228
        0.015283
        0.015337
        0.015392
        0.015447
        0.015502
        0.015557
        0.015612
        0.015667
        0.015722
        0.015778
        0.015833
        0.015889
        0.015945
        0.016000
        0.016056
        0.016113
        0.016169
        0.016225
        0.016282
        0.016338
        0.016395
        0.016452
        0.016509
        0.016566
        0.016623
        0.016680
        0.016737
        0.016795
        0.016852
        0.016910
        0.016968
        0.017026
        0.017084
        0.017142
        0.017200
        0.017259
        0.017317
        0.017376
        0.017435
        0.017494
        0.017553
        0.017612
        0.017671
        0.017730
        0.017790
        0.017849
        0.017909
        0.017969
        0.018029
        0.018089
        0.018149
        0.018209
        0.018270
        0.018330
        0.018391
        0.018451
        0.018512
        0.018573
        0.018634
        0.018696
        0.018757
        0.018818
        0.018880
        0.018942
        0.019003
        0.019065
        0.019127
        0.019189
        0.019252
        0.019314
        0.019377
        0.019439
        0.019502
        0.019565
        0.019628
        0.019691
        0.019754
        0.019817
        0.019881
        0.019944
        0.020008
        0.020072
        0.020136
        0.020200
        0.020264
        0.020328
        0.020392
        0.020457
        0.020522
        0.020586
        0.020651
        0.020716
        0.020781
        0.020846
        0.020912
        0.020977
        0.021043
        0.021109
        0.021174
        0.021240
        0.021306
        0.021373
        0.021439
        0.021505
        0.021572
        0.021638
        0.021705
        0.021772
        0.021839
        0.021906
        0.021973
        0.022041
        0.022108
        0.022176
        0.022244
        0.022312
        0.022380
        0.022448
        0.022516
        0.022584
        0.022653
        0.022721
        0.022790
        0.022859
        0.022928
        0.022997
        0.023066
        0.023135
        0.023205
        0.023274
        0.023344
        0.023414
        0.023484
        0.023554
        0.023624
        0.023694
        0.023764
        0.023835
        0.023906
        0.023976
        0.024047
        0.024118
        0.024189
        0.024261
        0.024332
        0.024404
        0.024475
        0.024547
        0.024619
        0.024691
        0.024763
        0.024835
        0.024907
        0.024980
        0.025053
        0.025125
        0.025198
        0.025271
        0.025344
        0.025417
        0.025491
        0.025564
        0.025638
        0.025712
        0.025785
        0.025859
        0.025933
        0.026008
        0.026082
        0.026156
        0.026231
        0.026306
        0.026381
        0.026455
        0.026531
        0.026606
        0.026681
        0.026756
        0.026832
        0.026908
        0.026984
        0.027060
        0.027136
        0.027212
        0.027288
        0.027365
        0.027441
        0.027518
        0.027595
        0.027672
        0.027749
        0.027826
        0.027903
        0.027981
        0.028058
        0.028136
        0.028214
        0.028292
        0.028370
        0.028448
        0.028526
        0.028605
        0.028683
        0.028762
        0.028841
        0.028920
        0.028999
        0.029078
        0.029157
        0.029237
        0.029316
        0.029396
        0.029476
        0.029556
        0.029636
        0.029716
        0.029796
        0.029877
        0.029957
        0.030038
        0.030119
        0.030200
        0.030281
        0.030362
        0.030444
        0.030525
        0.030607
        0.030688
        0.030770
        0.030852
        0.030934
        0.031017
        0.031099
        0.031182
        0.031264
        0.031347
        0.031430
        0.031513
        0.031596
        0.031679
        0.031763
        0.031846
        0.031930
        0.032014
        0.032097
        0.032181
        0.032266
        0.032350
        0.032434
        0.032519
        0.032604
        0.032688
        0.032773
        0.032858
        0.032944
        0.033029
        0.033114
        0.033200
        0.033286
        0.033371
        0.033457
        0.033543
        0.033630
        0.033716
        0.033802
        0.033889
        0.033976
        0.034063
        0.034150
        0.034237
        0.034324
        0.034411
        0.034499
        0.034587
        0.034674
        0.034762
        0.034850
        0.034938
        0.035027
        0.035115
        0.035204
        0.035292
        0.035381
        0.035470
        0.035559
        0.035648
        0.035738
        0.035827
        0.035917
        0.036006
        0.036096
        0.036186
        0.036276
        0.036367
        0.036457
        0.036548
        0.036638
        0.036729
        0.036820
        0.036911
        0.037002
        0.037093
        0.037185
        0.037276
        0.037368
        0.037460
        0.037552
        0.037644
        0.037736
        0.037828
        0.037921
        0.038013
        0.038106
        0.038199
        0.038292
        0.038385
        0.038479
        0.038572
        0.038665
        0.038759
        0.038853
        0.038947
        0.039041
        0.039135
        0.039229
        0.039324
        0.039418
        0.039513
        0.039608
        0.039703
        0.039798
        0.039893
        0.039989
        0.040084
        0.040180
        0.040276
        0.040372
        0.040468
        0.040564
        0.040660
        0.040757
        0.040853
        0.040950
        0.041047
        0.041144
        0.041241
        0.041338
        0.041436
        0.041533
        0.041631
        0.041729
        0.041826
        0.041925
        0.042023
        0.042121
        0.042219
        0.042318
        0.042417
        0.042516
        0.042615
        0.042714
        0.042813
        0.042912
        0.043012
        0.043112
        0.043211
        0.043311
        0.043411
        0.043512
        0.043612
        0.043712
        0.043813
        0.043914
        0.044015
        0.044116
        0.044217
        0.044318
        0.044420
        0.044521
        0.044623
        0.044725
        0.044827
        0.044929
        0.045031
        0.045133
        0.045236
        0.045338
        0.045441
        0.045544
        0.045647
        0.045750
        0.045854
        0.045957
        0.046061
        0.046164
        0.046268
        0.046372
        0.046476
        0.046581
        0.046685
        0.046790
        0.046894
        0.046999
        0.047104
        0.047209
        0.047314
        0.047420
        0.047525
        0.047631
        0.047737
        0.047843
        0.047949
        0.048055
        0.048161
        0.048268
        0.048374
        0.048481
        0.048588
        0.048695
        0.048802
        0.048909
        0.049017
        0.049124
        0.049232
        0.049340
        0.049448
        0.049556
        0.049664
        0.049772
        0.049881
        0.049990
        0.050098
        0.050207
        0.050316
        0.050426
        0.050535
        0.050644
        0.050754
        0.050864
        0.050974
        0.051084
        0.051194
        0.051304
        0.051415
        0.051525
        0.051636
        0.051747
        0.051858
        0.051969
        0.052080
        0.052192
        0.052303
        0.052415
        0.052527
        0.052639
        0.052751
        0.052863
        0.052976
        0.053088
        0.053201
        0.053314
        0.053427
        0.053540
        0.053653
        0.053766
        0.053880
        0.053994
        0.054107
        0.054221
        0.054335
        0.054450
        0.054564
        0.054678
        0.054793
        0.054908
        0.055023
        0.055138
        0.055253
        0.055368
        0.055484
        0.055600
        0.055715
        0.055831
        0.055947
        0.056063
        0.056180
        0.056296
        0.056413
        0.056530
        0.056646
        0.056763
        0.056881
        0.056998
        0.057115
        0.057233
        0.057351
        0.057469
        0.057587
        0.057705
        0.057823
        0.057941
        0.058060
        0.058179
        0.058298
        0.058417
        0.058536
        0.058655
        0.058774
        0.058894
        0.059014
        0.059134
        0.059254
        0.059374
        0.059494
        0.059614
        0.059735
        0.059856
        0.059976
        0.060097
        0.060219
        0.060340
        0.060461
        0.060583
        0.060705
        0.060826
        0.060948
        0.061070
        0.061193
        0.061315
        0.061438
        0.061560
        0.061683
        0.061806
        0.061929
        0.062053
        0.062176
        0.062300
        0.062423
        0.062547
        0.062671
        0.062795
        0.062919
        0.063044
        0.063168
        0.063293
        0.063418
        0.063543
        0.063668
        0.063793
        0.063919
        0.064044
        0.064170
        0.064296
        0.064422
        0.064548
        0.064674
        0.064801
        0.064927
        0.065054
        0.065181
        0.065308
        0.065435
        0.065562
        0.065690
        0.065817
        0.065945
        0.066073
        0.066201
        0.066329
        0.066457
        0.066586
        0.066714
        0.066843
        0.066972
        0.067101
        0.067230
        0.067360
        0.067489
        0.067619
        0.067748
        0.067878
        0.068008
        0.068139
        0.068269
        0.068399
        0.068530
        0.068661
        0.068792
        0.068923
        0.069054
        0.069185
        0.069317
        0.069448
        0.069580
        0.069712
        0.069844
        0.069976
        0.070109
        0.070241
        0.070374
        0.070507
        0.070640
        0.070773
        0.070906
        0.071039
        0.071173
        0.071307
        0.071441
        0.071575
        0.071709
        0.071843
        0.071977
        0.072112
        0.072247
        0.072381
        0.072516
        0.072652
        0.072787
        0.072922
        0.073058
        0.073194
        0.073330
        0.073466
        0.073602
        0.073738
        0.073875
        0.074011
        0.074148
        0.074285
        0.074422
        0.074559
        0.074697
        0.074834
        0.074972
        0.075109
        0.075247
        0.075386
        0.075524
        0.075662
        0.075801
        0.075939
        0.076078
        0.076217
        0.076356
        0.076496
        0.076635
        0.076775
        0.076914
        0.077054
        0.077194
        0.077334
        0.077475
        0.077615
        0.077756
        0.077897
        0.078037
        0.078179
        0.078320
        0.078461
        0.078603
        0.078744
        0.078886
        0.079028
        0.079170
        0.079312
        0.079455
        0.079597
        0.079740
        0.079883
        0.080026
        0.080169
        0.080312
        0.080456
        0.080599
        0.080743
        0.080887
        0.081031
        0.081175
        0.081319
        0.081464
        0.081609
        0.081753
        0.081898
        0.082043
        0.082189
        0.082334
        0.082480
        0.082625
        0.082771
        0.082917
        0.083063
        0.083210
        0.083356
        0.083503
        0.083649
        0.083796
        0.083943
        0.084090
        0.084238
        0.084385
        0.084533
        0.084681
        0.084829
        0.084977
        0.085125
        0.085273
        0.085422
        0.085571
        0.085719
        0.085868
        0.086018
        0.086167
        0.086316
        0.086466
        0.086616
        0.086766
        0.086916
        0.087066
        0.087216
        0.087367
        0.087517
        0.087668
        0.087819
        0.087970
        0.088121
        0.088273
        0.088424
        0.088576
        0.088728
        0.088880
        0.089032
        0.089185
        0.089337
        0.089490
        0.089642
        0.089795
        0.089949
        0.090102
        0.090255
        0.090409
        0.090562
        0.090716
        0.090870
        0.091024
        0.091179
        0.091333
        0.091488
        0.091643
        0.091797
        0.091953
        0.092108
        0.092263
        0.092419
        0.092574
        0.092730
        0.092886
        0.093042
        0.093199
        0.093355
        0.093512
        0.093668
        0.093825
        0.093982
        0.094140
        0.094297
        0.094454
        0.094612
        0.094770
        0.094928
        0.095086
        0.095244
        0.095403
        0.095561
        0.095720
        0.095879
        0.096038
        0.096197
        0.096357
        0.096516
        0.096676
        0.096836
        0.096996
        0.097156
        0.097316
        0.097476
        0.097637
        0.097798
        0.097959
        0.098120
        0.098281
        0.098442
        0.098604
        0.098766
        0.098927
        0.099089
        0.099251
        0.099414
        0.099576
        0.099739
        0.099902
        0.100064
        0.100228
        0.100391
        0.100554
        0.100718
        0.100881
        0.101045
        0.101209
        0.101373
        0.101538
        0.101702
        0.101867
        0.102032
        0.102196
        0.102362
        0.102527
        0.102692
        0.102858
        0.103023
        0.103189
        0.103355
        0.103521
        0.103688
        0.103854
        0.104021
        0.104188
        0.104355
        0.104522
        0.104689
        0.104856
        0.105024
        0.105192
        0.105360
        0.105528
        0.105696
        0.105864
        0.106033
        0.106201
        0.106370
        0.106539
        0.106708
        0.106878
        0.107047
        0.107217
        0.107386
        0.107556
        0.107726
        0.107897
        0.108067
        0.108238
        0.108408
        0.108579
        0.108750
        0.108921
        0.109093
        0.109264
        0.109436
        0.109608
        0.109780
        0.109952
        0.110124
        0.110296
        0.110469
        0.110642
        0.110815
        0.110988
        0.111161
        0.111334
        0.111508
        0.111682
        0.111855
        0.112029
        0.112204
        0.112378
        0.112552
        0.112727
        0.112902
        0.113077
        0.113252
        0.113427
        0.113603
        0.113778
        0.113954
        0.114130
        0.114306
        0.114482
        0.114659
        0.114835
        0.115012
        0.115189
        0.115366
        0.115543
        0.115720
        0.115898
        0.116075
        0.116253
        0.116431
        0.116609
        0.116788
        0.116966
        0.117145
        0.117323
        0.117502
        0.117681
        0.117861
        0.118040
        0.118220
        0.118399
        0.118579
        0.118759
        0.118939
        0.119120
        0.119300
        0.119481
        0.119662
        0.119843
        0.120024
        0.120205
        0.120387
        0.120568
        0.120750
        0.120932
        0.121114
        0.121296
        0.121479
        0.121661
        0.121844
        0.122027
        0.122210
        0.122393
        0.122577
        0.122760
        0.122944
        0.123128
        0.123312
