ocio/LUTs/sRGB-EOTF-inverse.spi1d
Version 1
From 0.0000000 1.0000000
Length 4096
Components 1
{
 0.0000000
 0.0000189
 0.0000378
 0.0000567
 0.0000756
 0.0000945
 0.0001134
 0.0001323
 0.0001512
 0.0001701
 0.0001890
 0.0002079
 0.0002268
 0.0002457
 0.0002646
 0.0002835
 0.0003024
 0.0003213
 0.0003402
 0.0003591
 0.0003780
 0.0003969
 0.0004158
 0.0004347
 0.0004536
 0.0004725
 0.0004914
 0.0005103
 0.0005292
 0.0005481
 0.0005670
 0.0005859
 0.0006048
 0.0006237
 0.0006426
 0.0006615
 0.0006804
 0.0006993
 0.0007182
 0.0007371
 0.0007560
 0.0007749
 0.0007938
 0.0008127
 0.0008316
 0.0008505
 0.0008694
 0.0008883
 0.0009072
 0.0009261
 0.0009450
 0.0009639
 0.0009828
 0.0010018
 0.0010207
 0.0010396
 0.0010585
 0.0010774
 0.0010963
 0.0011152
 0.0011341
 0.0011530
 0.0011719
 0.0011908
 0.0012097
 0.0012286
 0.0012475
 0.0012664
 0.0012853
 0.0013042
 0.0013231
 0.0013420
 0.0013609
 0.0013798
 0.0013987
 0.0014176
 0.0014365
 0.0014554
 0.0014743
 0.0014932
 0.0015121
 0.0015310
 0.0015499
 0.0015688
 0.0015877
 0.0016066
 0.0016255
 0.0016444
 0.0016633
 0.0016822
 0.0017011
 0.0017200
 0.0017389
 0.0017578
 0.0017767
 0.0017956
 0.0018145
 0.0018334
 0.0018523
 0.0018712
 0.0018901
 0.0019090
 0.0019279
 0.0019468
 0.0019657
 0.0019846
 0.0020035
 0.0020224
 0.0020413
 0.0020602
 0.0020791
 0.0020980
 0.0021169
 0.0021358
 0.0021547
 0.0021736
 0.0021925
 0.0022114
 0.0022303
 0.0022492
 0.0022681
 0.0022870
 0.0023059
 0.0023248
 0.0023437
 0.0023626
 0.0023815
 0.0024004
 0.0024193
 0.0024382
 0.0024571
 0.0024760
 0.0024949
 0.0025138
 0.0025327
 0.0025516
 0.0025705
 0.0025894
 0.0026083
 0.0026272
 0.0026461
 0.0026650
 0.0026839
 0.0027028
 0.0027217
 0.0027406
 0.0027595
 0.0027784
 0.0027973
 0.0028162
 0.0028351
 0.0028540
 0.0028729
 0.0028918
 0.0029107
 0.0029296
 0.0029485
 0.0029674
 0.0029863
 0.0030053
 0.0030242
 0.0030431
 0.0030620
 0.0030809
 0.0030998
 0.0031187
 0.0031377
 0.0031570
 0.0031763
 0.0031957
 0.0032152
 0.0032348
 0.0032544
 0.0032741
 0.0032939
 0.0033137
 0.0033336
 0.0033536
 0.0033736
 0.0033938
 0.0034139
 0.0034342
 0.0034545
 0.0034749
 0.0034954
 0.0035159
 0.0035365
 0.0035572
 0.0035779
 0.0035988
 0.0036196
 0.0036406
 0.0036616
 0.0036827
 0.0037039
 0.0037251
 0.0037464
 0.0037678
 0.0037893
 0.0038108
 0.0038324
 0.0038541
 0.0038758
 0.0038976
 0.0039195
 0.0039414
 0.0039635
 0.0039856
 0.0040077
 0.0040300
 0.0040523
 0.0040746
 0.0040971
 0.0041196
 0.0041422
 0.0041649
 0.0041876
 0.0042105
 0.0042333
 0.0042563
 0.0042793
 0.0043024
 0.0043256
 0.0043489
 0.0043722
 0.0043956
 0.0044190
 0.0044426
 0.0044662
 0.0044899
 0.0045136
 0.0045375
 0.0045614
 0.0045854
 0.0046094
 0.0046335
 0.0046577
 0.0046820
 0.0047064
 0.0047308
 0.0047553
 0.0047798
 0.0048045
 0.0048292
 0.0048540
 0.0048789
 0.0049038
 0.0049288
 0.0049539
 0.0049791
 0.0050043
 0.0050296
 0.0050550
 0.0050805
 0.0051060
 0.0051316
 0.0051573
 0.0051830
 0.0052089
 0.0052348
 0.0052608
 0.0052868
 0.0053129
 0.0053392
 0.0053654
 0.0053918
 0.0054182
 0.0054447
 0.0054713
 0.0054980
 0.0055247
 0.0055515
 0.0055784
 0.0056054
 0.0056324
 0.0056595
 0.0056867
 0.0057140
 0.0057413
 0.0057688
 0.0057963
 0.0058238
 0.0058515
 0.0058792
 0.0059070
 0.0059349
 0.0059628
 0.0059909
 0.0060190
 0.0060472
 0.0060754
 0.0061038
 0.0061322
 0.0061607
 0.0061893
 0.0062179
 0.0062466
 0.0062754
 0.0063043
 0.0063333
 0.0063623
 0.0063914
 0.0064206
 0.0064499
 0.0064792
 0.0065086
 0.0065381
 0.0065677
 0.0065974
 0.0066271
 0.0066569
 0.0066868
 0.0067168
 0.0067468
 0.0067769
 0.0068071
 0.0068374
 0.0068678
 0.0068982
 0.0069287
 0.0069593
 0.0069900
 0.0070207
 0.0070516
 0.0070825
 0.0071135
 0.0071445
 0.0071757
 0.0072069
 0.0072382
 0.0072696
 0.0073011
 0.0073326
 0.0073642
 0.0073959
 0.0074277
 0.0074596
 0.0074915
 0.0075235
 0.0075556
 0.0075878
 0.0076201
 0.0076524
 0.0076848
 0.0077173
 0.0077499
 0.0077826
 0.0078153
 0.0078481
 0.0078810
 0.0079140
 0.0079470
 0.0079802
 0.0080134
 0.0080467
 0.0080801
 0.0081136
 0.0081471
 0.0081807
 0.0082144
 0.0082482
 0.0082821
 0.0083160
 0.0083500
 0.0083842
 0.0084183
 0.0084526
 0.0084870
 0.0085214
 0.0085559
 0.0085905
 0.0086252
 0.0086600
 0.0086948
 0.0087297
 0.0087647
 0.0087998
 0.0088350
 0.0088702
 0.0089056
 0.0089410
 0.0089765
 0.0090121
 0.0090477
 0.0090835
 0.0091193
 0.0091552
 0.0091912
 0.0092273
 0.0092634
 0.0092996
 0.0093360
 0.0093724
 0.0094088
 0.0094454
 0.0094821
 0.0095188
 0.0095556
 0.0095925
 0.0096295
 0.0096666
 0.0097037
 0.0097409
 0.0097783
 0.0098156
 0.0098531
 0.0098907
 0.0099283
 0.0099661
 0.0100039
 0.0100418
 0.0100798
 0.0101178
 0.0101560
 0.0101942
 0.0102325
 0.0102709
 0.0103094
 0.0103480
 0.0103866
 0.0104254
 0.0104642
 0.0105031
 0.0105421
 0.0105812
 0.0106203
 0.0106596
 0.0106989
 0.0107383
 0.0107778
 0.0108174
 0.0108570
 0.0108968
 0.0109366
 0.0109765
 0.0110165
 0.0110566
 0.0110968
 0.0111371
 0.0111774
 0.0112178
 0.0112584
 0.0112990
 0.0113396
 0.0113804
 0.0114213
 0.0114622
 0.0115032
 0.0115443
 0.0115855
 0.0116268
 0.0116682
 0.0117096
 0.0117512
 0.0117928
 0.0118345
 0.0118763
 0.0119182
 0.0119602
 0.0120022
 0.0120444
 0.0120866
 0.0121289
 0.0121713
 0.0122138
 0.0122564
 0.0122990
 0.0123418
 0.0123846
 0.0124275
 0.0124706
 0.0125136
 0.0125568
 0.0126001
 0.0126434
 0.0126869
 0.0127304
 0.0127740
 0.0128177
 0.0128615
 0.0129054
 0.0129494
 0.0129934
 0.0130375
 0.0130818
 0.0131261
 0.0131705
 0.0132150
 0.0132595
 0.0133042
 0.0133490
 0.0133938
 0.0134387
 0.0134837
 0.0135288
 0.0135740
 0.0136193
 0.0136647
 0.0137101
 0.0137557
 0.0138013
 0.0138470
 0.0138928
 0.0139387
 0.0139847
 0.0140307
 0.0140769
 0.0141232
 0.0141695
 0.0142159
 0.0142624
 0.0143090
 0.0143557
 0.0144025
 0.0144494
 0.0144963
 0.0145434
 0.0145905
 0.0146377
 0.0146850
 0.0147324
 0.0147799
 0.0148275
 0.0148752
 0.0149229
 0.0149708
 0.0150187
 0.0150667
 0.0151149
 0.0151631
 0.0152114
 0.0152597
 0.0153082
 0.0153568
 0.0154054
 0.0154542
 0.0155030
 0.0155519
 0.0156009
 0.0156500
 0.0156992
 0.0157485
 0.0157979
 0.0158474
 0.0158969
 0.0159466
 0.0159963
 0.0160461
 0.0160960
 0.0161460
 0.0161961
 0.0162463
 0.0162966
 0.0163470
 0.0163974
 0.0164480
 0.0164986
 0.0165493
 0.0166002
 0.0166511
 0.0167021
 0.0167532
 0.0168044
 0.0168556
 0.0169070
 0.0169585
 0.0170100
 0.0170617
 0.0171134
 0.0171652
 0.0172171
 0.0172691
 0.0173212
 0.0173734
 0.0174257
 0.0174781
 0.0175305
 0.0175831
 0.0176358
 0.0176885
 0.0177413
 0.0177943
 0.0178473
 0.0179004
 0.0179536
 0.0180069
 0.0180603
 0.0181137
 0.0181673
 0.0182210
 0.0182747
 0.0183286
 0.0183825
 0.0184365
 0.0184907
 0.0185449
 0.0185992
 0.0186536
 0.0187081
 0.0187627
 0.0188173
 0.0188721
 0.0189270
 0.0189819
 0.0190370
 0.0190921
 0.0191474
 0.0192027
 0.0192581
 0.0193137
 0.0193693
 0.0194250
 0.0194808
 0.0195367
 0.0195926
 0.0196487
 0.0197049
 0.0197612
 0.0198175
 0.0198740
 0.0199305
 0.0199871
 0.0200439
 0.0201007
 0.0201576
 0.0202146
 0.0202717
 0.0203290
 0.0203862
 0.0204436
 0.0205011
 0.0205587
 0.0206164
 0.0206741
 0.0207320
 0.0207900
 0.0208480
 0.0209062
 0.0209644
 0.0210227
 0.0210812
 0.0211397
 0.0211983
 0.0212570
 0.0213158
 0.0213747
 0.0214337
 0.0214928
 0.0215520
 0.0216113
 0.0216707
 0.0217301
 0.0217897
 0.0218494
 0.0219091
 0.0219690
 0.0220289
 0.0220890
 0.0221491
 0.0222093
 0.0222697
 0.0223301
 0.0223906
 0.0224512
 0.0225119
 0.0225727
 0.0226336
 0.0226946
 0.0227557
 0.0228169
 0.0228782
 0.0229396
 0.0230011
 0.0230626
 0.0231243
 0.0231861
 0.0232479
 0.0233099
 0.0233720
 0.0234341
 0.0234964
 0.0235587
 0.0236211
 0.0236837
 0.0237463
 0.0238090
 0.0238719
 0.0239348
 0.0239978
 0.0240609
 0.0241241
 0.0241874
 0.0242508
 0.0243143
 0.0243779
 0.0244416
 0.0245054
 0.0245693
 0.0246333
 0.0246974
 0.0247616
 0.0248259
 0.0248902
 0.0249547
 0.0250193
 0.0250840
 0.0251487
 0.0252136
 0.0252785
 0.0253436
 0.0254088
 0.0254740
 0.0255394
 0.0256048
 0.0256704
 0.0257360
 0.0258017
 0.0258676
 0.0259335
 0.0259996
 0.0260657
 0.0261319
 0.0261983
 0.0262647
 0.0263312
 0.0263978
 0.0264646
 0.0265314
 0.0265983
 0.0266653
 0.0267324
 0.0267996
 0.0268670
 0.0269344
 0.0270019
 0.0270695
 0.0271372
 0.0272050
 0.0272729
 0.0273409
 0.0274090
 0.0274772
 0.0275455
 0.0276139
 0.0276824
 0.0277510
 0.0278197
 0.0278885
 0.0279574
 0.0280264
 0.0280955
 0.0281647
 0.0282340
 0.0283033
 0.0283728
 0.0284424
 0.0285121
 0.0285819
 0.0286518
 0.0287218
 0.0287919
 0.0288620
 0.0289323
 0.0290027
 0.0290732
 0.0291438
 0.0292145
 0.0292853
 0.0293561
 0.0294271
 0.0294982
 0.0295694
 0.0296407
 0.0297121
 0.0297836
 0.0298551
 0.0299268
 0.0299986
 0.0300705
 0.0301425
 0.0302146
 0.0302868
 0.0303591
 0.0304314
 0.0305039
 0.0305765
 0.0306492
 0.0307220
 0.0307949
 0.0308679
 0.0309410
 0.0310142
 0.0310875
 0.0311609
 0.0312344
 0.0313080
 0.0313817
 0.0314555
 0.0315294
 0.0316034
 0.0316775
 0.0317517
 0.0318260
 0.0319004
 0.0319749
 0.0320495
 0.0321242
 0.0321991
 0.0322740
 0.0323490
 0.0324241
 0.0324993
 0.0325747
 0.0326501
 0.0327256
 0.0328012
 0.0328770
 0.0329528
 0.0330287
 0.0331048
 0.0331809
 0.0332571
 0.0333335
 0.0334099
 0.0334865
 0.0335631
 0.0336399
 0.0337167
 0.0337937
 0.0338707
 0.0339479
 0.0340252
 0.0341025
 0.0341800
 0.0342576
 0.0343352
 0.0344130
 0.0344909
 0.0345689
 0.0346470
 0.0347251
 0.0348034
 0.0348818
 0.0349603
 0.0350389
 0.0351176
 0.0351964
 0.0352753
 0.0353543
 0.0354334
 0.0355127
 0.0355920
 0.0356714
 0.0357509
 0.0358306
 0.0359103
 0.0359901
 0.0360701
 0.0361501
 0.0362302
 0.0363105
 0.0363909
 0.0364713
 0.0365519
 0.0366325
 0.0367133
 0.0367942
 0.0368751
 0.0369562
 0.0370374
 0.0371187
 0.0372001
 0.0372816
 0.0373632
 0.0374449
 0.0375267
 0.0376086
 0.0376906
 0.0377727
 0.0378550
 0.0379373
 0.0380197
 0.0381023
 0.0381849
 0.0382677
 0.0383505
 0.0384335
 0.0385165
 0.0385997
 0.0386830
 0.0387663
 0.0388498
 0.0389334
 0.0390171
 0.0391009
 0.0391848
 0.0392688
 0.0393529
 0.0394371
 0.0395214
 0.0396058
 0.0396904
 0.0397750
 0.0398597
 0.0399446
 0.0400295
 0.0401146
 0.0401997
 0.0402850
 0.0403704
 0.0404559
 0.0405414
 0.0406271
 0.0407129
 0.0407988
 0.0408848
 0.0409709
 0.0410571
 0.0411435
 0.0412299
 0.0413164
 0.0414031
 0.0414898
 0.0415767
 0.0416636
 0.0417507
 0.0418378
 0.0419251
 0.0420125
 0.0421000
 0.0421876
 0.0422753
 0.0423631
 0.0424510
 0.0425390
 0.0426271
 0.0427154
 0.0428037
 0.0428921
 0.0429807
 0.0430693
 0.0431581
 0.0432470
 0.0433359
 0.0434250
 0.0435142
 0.0436035
 0.0436929
 0.0437824
 0.0438720
 0.0439618
 0.0440516
 0.0441415
 0.0442316
 0.0443217
 0.0444120
 0.0445024
 0.0445928
 0.0446834
 0.0447741
 0.0448649
 0.0449558
 0.0450468
 0.0451379
 0.0452291
 0.0453205
 0.0454119
 0.0455035
 0.0455951
 0.0456869
 0.0457787
 0.0458707
 0.0459628
 0.0460550
 0.0461473
 0.0462397
 0.0463322
 0.0464249
 0.0465176
 0.0466104
 0.0467034
 0.0467964
 0.0468896
 0.0469829
 0.0470762
 0.0471697
 0.0472633
 0.0473570
 0.0474508
 0.0475448
 0.0476388
 0.0477329
 0.0478272
 0.0479215
 0.0480160
 0.0481106
 0.0482053
 0.0483000
 0.0483949
 0.0484899
 0.0485851
 0.0486803
 0.0487756
 0.0488711
 0.0489666
 0.0490623
 0.0491580
 0.0492539
 0.0493499
 0.0494460
 0.0495422
 0.0496385
 0.0497349
 0.0498315
 0.0499281
 0.0500249
 0.0501217
 0.0502187
 0.0503158
 0.0504130
 0.0505102
 0.0506077
 0.0507052
 0.0508028
 0.0509005
 0.0509984
 0.0510963
 0.0511944
 0.0512926
 0.0513909
 0.0514892
 0.0515877
 0.0516864
 0.0517851
 0.0518839
 0.0519829
 0.0520819
 0.0521811
 0.0522803
 0.0523797
 0.0524792
 0.0525788
 0.0526785
 0.0527784
 0.0528783
 0.0529783
 0.0530785
 0.0531788
 0.0532791
 0.0533796
 0.0534802
 0.0535809
 0.0536817
 0.0537827
 0.0538837
 0.0539848
 0.0540861
 0.0541875
 0.0542890
 0.0543905
 0.0544922
 0.0545941
 0.0546960
 0.0547980
 0.0549002
 0.0550024
 0.0551048
 0.0552073
 0.0553099
 0.0554126
 0.0555154
 0.0556183
 0.0557213
 0.0558245
 0.0559277
 0.0560311
 0.0561346
 0.0562382
 0.0563419
 0.0564457
 0.0565496
 0.0566537
 0.0567578
 0.0568621
 0.0569664
 0.0570709
 0.0571755
 0.0572802
 0.0573850
 0.0574900
 0.0575950
 0.0577002
 0.0578054
 0.0579108
 0.0580163
 0.0581219
 0.0582276
 0.0583334
 0.0584394
 0.0585454
 0.0586516
 0.0587579
 0.0588643
 0.0589708
 0.0590774
 0.0591841
 0.0592909
 0.0593979
 0.0595049
 0.0596121
 0.0597194
 0.0598268
 0.0599343
 0.0600419
 0.0601497
 0.0602575
 0.0603655
 0.0604736
 0.0605817
 0.0606900
 0.0607985
 0.0609070
 0.0610156
 0.0611244
 0.0612332
 0.0613422
 0.0614513
 0.0615605
 0.0616698
 0.0617793
 0.0618888
 0.0619985
 0.0621082
 0.0622181
 0.0623281
 0.0624382
 0.0625484
 0.0626588
 0.0627692
 0.0628798
 0.0629905
 0.0631013
 0.0632122
 0.0633232
 0.0634343
 0.0635456
 0.0636569
 0.0637684
 0.0638800
 0.0639917
 0.0641035
 0.0642154
 0.0643275
 0.0644396
 0.0645519
 0.0646643
 0.0647768
 0.0648894
 0.0650021
 0.0651150
 0.0652279
 0.0653410
 0.0654542
 0.0655675
 0.0656809
 0.0657944
 0.0659080
 0.0660218
 0.0661357
 0.0662497
 0.0663638
 0.0664780
 0.0665923
 0.0667067
 0.0668213
 0.0669360
 0.0670507
 0.0671656
 0.0672807
 0.0673958
 0.0675110
 0.0676264
 0.0677419
 0.0678575
 0.0679732
 0.0680890
 0.0682049
 0.0683210
 0.0684371
 0.0685534
 0.0686698
 0.0687863
 0.0689030
 0.0690197
 0.0691366
 0.0692535
 0.0693706
 0.0694878
 0.0696051
 0.0697226
 0.0698401
 0.0699578
 0.0700756
 0.0701935
 0.0703115
 0.0704296
 0.0705478
 0.0706662
 0.0707847
 0.0709033
 0.0710220
 0.0711408
 0.0712597
 0.0713788
 0.0714979
 0.0716172
 0.0717366
 0.0718562
 0.0719758
 0.0720955
 0.0722154
 0.0723354
 0.0724555
 0.0725757
 0.0726960
 0.0728165
 0.0729370
 0.0730577
 0.0731785
 0.0732994
 0.0734205
 0.0735416
 0.0736629
 0.0737842
 0.0739057
 0.0740273
 0.0741491
 0.0742709
 0.0743929
 0.0745150
 0.0746372
 0.0747595
 0.0748819
 0.0750044
 0.0751271
 0.0752499
 0.0753728
 0.0754958
 0.0756189
 0.0757422
 0.0758655
 0.0759890
 0.0761126
 0.0762363
 0.0763602
 0.0764841
 0.0766082
 0.0767324
 0.0768567
 0.0769811
 0.0771056
 0.0772303
 0.0773551
 0.0774800
 0.0776050
 0.0777301
 0.0778553
 0.0779807
 0.0781062
 0.0782318
 0.0783575
 0.0784833
 0.0786093
 0.0787353
 0.0788615
 0.0789878
 0.0791142
 0.0792408
 0.0793674
 0.0794942
 0.0796211
 0.0797481
 0.0798752
 0.0800025
 0.0801298
 0.0802573
 0.0803849
 0.0805126
 0.0806405
 0.0807684
 0.0808965
 0.0810247
 0.0811530
 0.0812815
 0.0814100
 0.0815387
 0.0816675
 0.0817964
 0.0819254
 0.0820545
 0.0821838
 0.0823132
 0.0824427
 0.0825723
 0.0827020
 0.0828319
 0.0829618
 0.0830919
 0.0832221
 0.0833525
 0.0834829
 0.0836135
 0.0837442
 0.0838750
 0.0840059
 0.0841369
 0.0842681
 0.0843994
 0.0845308
 0.0846623
 0.0847939
 0.0849257
 0.0850576
 0.0851896
 0.0853217
 0.0854539
 0.0855863
 0.0857188
 0.0858514
 0.0859841
 0.0861169
 0.0862499
 0.0863829
 0.0865161
 0.0866495
 0.0867829
 0.0869164
 0.0870501
 0.0871839
 0.0873178
 0.0874518
 0.0875860
 0.0877203
 0.0878547
 0.0879892
 0.0881238
 0.0882586
 0.0883934
 0.0885284
 0.0886635
 0.0887988
 0.0889341
 0.0890696
 0.0892052
 0.0893409
 0.0894767
 0.0896127
 0.0897488
 0.0898850
 0.0900213
 0.0901577
 0.0902943
 0.0904310
 0.0905678
 0.0907047
 0.0908417
 0.0909789
 0.0911162
 0.0912536
 0.0913911
 0.0915287
 0.0916665
 0.0918044
 0.0919424
 0.0920805
 0.0922188
 0.0923571
 0.0924956
 0.0926342
 0.0927730
 0.0929118
 0.0930508
 0.0931899
 0.0933291
 0.0934684
 0.0936079
 0.0937475
 0.0938872
 0.0940270
 0.0941669
 0.0943070
 0.0944472
 0.0945875
 0.0947279
 0.0948685
 0.0950092
 0.0951500
 0.0952909
 0.0954319
 0.0955731
 0.0957144
 0.0958558
 0.0959973
 0.0961389
 0.0962807
 0.0964226
 0.0965646
 0.0967067
 0.0968490
 0.0969914
 0.0971339
 0.0972765
 0.0974193
 0.0975621
 0.0977051
 0.0978482
 0.0979915
 0.0981348
 0.0982783
 0.0984219
 0.0985656
 0.0987095
 0.0988534
 0.0989975
 0.0991417
 0.0992861
 0.0994305
 0.0995751
 0.0997198
 0.0998646
 0.1000096
 0.1001547
 0.1002998
 0.1004452
 0.1005906
 0.1007362
 0.1008818
 0.1010277
 0.1011736
 0.1013196
 0.1014658
 0.1016121
 0.1017585
 0.1019051
 0.1020517
 0.1021985
 0.1023454
 0.1024925
 0.1026396
 0.1027869
 0.1029343
 0.1030819
 0.1032295
 0.1033773
 0.1035252
 0.1036732
 0.1038214
 0.1039696
 0.1041180
 0.1042665
 0.1044152
 0.1045639
 0.1047128
 0.1048618
 0.1050110
 0.1051602
 0.1053096
 0.1054591
 0.1056088
 0.1057585
 0.1059084
 0.1060584
 0.1062085
 0.1063588
 0.1065091
 0.1066596
 0.1068103
 0.1069610
 0.1071119
 0.1072629
 0.1074140
 0.1075652
 0.1077166
 0.1078681
 0.1080197
 0.1081714
 0.1083233
 0.1084753
 0.1086274
 0.1087796
 0.1089320
 0.1090845
 0.1092371
 0.1093898
 0.1095427
 0.1096956
 0.1098487
 0.1100020
 0.1101553
 0.1103088
 0.1104624
 0.1106161
 0.1107700
 0.1109240
 0.1110781
 0.1112323
 0.1113867
 0.1115411
 0.1116957
 0.1118505
 0.1120053
 0.1121603
 0.1123154
 0.1124706
 0.1126260
 0.1127815
 0.1129371
 0.1130928
 0.1132486
 0.1134046
 0.1135607
 0.1137170
 0.1138733
 0.1140298
 0.1141864
 0.1143431
 0.1145000
 0.1146570
 0.1148141
 0.1149713
 0.1151287
 0.1152861
 0.1154437
 0.1156015
 0.1157593
 0.1159173
 0.1160754
 0.1162337
 0.1163920
 0.1165505
 0.1167091
 0.1168679
 0.1170268
 0.1171857
 0.1173449
 0.1175041
 0.1176635
 0.1178230
 0.1179826
 0.1181423
 0.1183022
 0.1184622
 0.1186223
 0.1187826
 0.1189430
 0.1191035
 0.1192641
 0.1194249
 0.1195858
 0.1197468
 0.1199079
 0.1200692
 0.1202306
 0.1203921
 0.1205537
 0.1207155
 0.1208774
 0.1210394
 0.1212016
 0.1213638
 0.1215262
 0.1216888
 0.1218514
 0.1220142
 0.1221771
 0.1223402
 0.1225033
 0.1226666
 0.1228300
 0.1229936
 0.1231572
 0.1233210
 0.1234850
 0.1236490
 0.1238132
 0.1239775
 0.1241419
 0.1243065
 0.1244712
 0.1246360
 0.1248009
 0.1249660
 0.1251312
 0.1252965
 0.1254620
 0.1256276
 0.1257933
 0.1259591
 0.1261251
 0.1262911
 0.1264574
 0.1266237
 0.1267902
 0.1269568
 0.1271235
 0.1272904
 0.1274573
 0.1276244
 0.1277917
 0.1279590
 0.1281265
 0.1282942
 0.1284619
 0.1286298
 0.1287978
 0.1289659
 0.1291342
 0.1293026
 0.1294711
 0.1296397
 0.1298085
 0.1299774
 0.1301464
 0.1303156
 0.1304849
 0.1306543
 0.1308238
 0.1309935
 0.1311633
 0.1313332
 0.1315033
 0.1316734
 0.1318438
 0.1320142
 0.1321848
 0.1323555
 0.1325263
 0.1326972
 0.1328683
 0.1330395
 0.1332109
 0.1333823
 0.1335539
 0.1337257
 0.1338975
 0.1340695
 0.1342416
 0.1344138
 0.1345862
 0.1347587
 0.1349313
 0.1351041
 0.1352770
 0.1354500
 0.1356231
 0.1357964
 0.1359698
 0.1361433
 0.1363170
 0.1364908
 0.1366647
 0.1368388
 0.1370129
 0.1371872
 0.1373617
 0.1375362
 0.1377109
 0.1378857
 0.1380607
 0.1382358
 0.1384110
 0.1385863
 0.1387618
 0.1389374
 0.1391131
 0.1392890
 0.1394650
 0.1396411
 0.1398173
 0.1399937
 0.1401702
 0.1403469
 0.1405236
 0.1407005
 0.1408776
 0.1410547
 0.1412320
 0.1414094
 0.1415870
 0.1417646
 0.1419424
 0.1421204
 0.1422984
 0.1424766
 0.1426550
 0.1428334
 0.1430120
 0.1431907
 0.1433696
 0.1435485
 0.1437276
 0.1439069
 0.1440862
 0.1442657
 0.1444454
 0.1446251
 0.1448050
 0.1449850
 0.1451652
 0.1453455
 0.1455259
 0.1457064
 0.1458871
 0.1460679
 0.1462488
 0.1464299
 0.1466111
 0.1467924
 0.1469739
 0.1471555
 0.1473372
 0.1475190
 0.1477010
 0.1478831
 0.1480654
 0.1482477
 0.1484302
 0.1486129
 0.1487956
 0.1489785
 0.1491616
 0.1493447
 0.1495280
 0.1497114
 0.1498950
 0.1500787
 0.1502625
 0.1504464
 0.1506305
 0.1508147
 0.1509990
 0.1511835
 0.1513681
 0.1515528
 0.1517377
 0.1519227
 0.1521078
 0.1522931
 0.1524785
 0.1526640
 0.1528497
 0.1530355
 0.1532214
 0.1534074
 0.1535936
 0.1537799
 0.1539664
 0.1541529
 0.1543396
 0.1545265
 0.1547135
 0.1549006
 0.1550878
 0.1552752
 0.1554627
 0.1556503
 0.1558381
 0.1560260
 0.1562140
 0.1564021
 0.1565904
 0.1567789
 0.1569674
 0.1571561
 0.1573449
 0.1575339
 0.1577230
 0.1579122
 0.1581015
 0.1582910
 0.1584806
 0.1586704
 0.1588603
 0.1590503
 0.1592404
 0.1594307
 0.1596211
 0.1598116
 0.1600023
 0.1601931
 0.1603841
 0.1605751
 0.1607663
 0.1609577
 0.1611492
 0.1613408
 0.1615325
 0.1617244
 0.1619164
 0.1621085
 0.1623008
 0.1624932
 0.1626857
 0.1628784
 0.1630712
 0.1632641
 0.1634572
 0.1636504
 0.1638437
 0.1640372
 0.1642308
 0.1644245
 0.1646184
 0.1648124
 0.1650065
 0.1652008
 0.1653952
 0.1655897
 0.1657844
 0.1659792
 0.1661741
 0.1663692
 0.1665644
 0.1667597
 0.1669552
 0.1671508
 0.1673465
 0.1675424
 0.1677384
 0.1679345
 0.1681308
 0.1683272
 0.1685237
 0.1687204
 0.1689172
 0.1691141
 0.1693112
 0.1695084
 0.1697057
 0.1699032
 0.1701008
 0.1702986
 0.1704964
 0.1706945
 0.1708926
 0.1710909
 0.1712893
 0.1714878
 0.1716865
 0.1718853
 0.1720843
 0.1722834
 0.1724826
 0.1726819
 0.1728814
 0.1730810
 0.1732808
 0.1734807
 0.1736807
 0.1738809
 0.1740811
 0.1742816
 0.1744821
 0.1746828
 0.1748837
 0.1750846
 0.1752857
 0.1754870
 0.1756883
 0.1758898
 0.1760915
 0.1762932
 0.1764952
 0.1766972
 0.1768994
 0.1771017
 0.1773041
 0.1775067
 0.1777094
 0.1779123
 0.1781153
 0.1783184
 0.1785217
 0.1787250
 0.1789286
 0.1791322
 0.1793360
 0.1795400
 0.1797440
 0.1799482
 0.1801526
 0.1803571
 0.1805617
 0.1807664
 0.1809713
 0.1811763
 0.1813815
 0.1815867
 0.1817922
 0.1819977
 0.1822034
 0.1824092
 0.1826152
 0.1828213
 0.1830275
 0.1832339
 0.1834404
 0.1836471
 0.1838538
 0.1840608
 0.1842678
 0.1844750
 0.1846823
 0.1848898
 0.1850974
 0.1853051
 0.1855130
 0.1857210
 0.1859291
 0.1861374
 0.1863458
 0.1865543
 0.1867630
 0.1869718
 0.1871808
 0.1873899
 0.1875991
 0.1878085
 0.1880180
 0.1882276
 0.1884374
 0.1886473
 0.1888573
 0.1890675
 0.1892778
 0.1894883
 0.1896988
 0.1899096
 0.1901204
 0.1903314
 0.1905426
 0.1907538
 0.1909652
 0.1911768
 0.1913885
 0.1916003
 0.1918122
 0.1920243
 0.1922366
 0.1924489
 0.1926614
 0.1928741
 0.1930868
 0.1932998
 0.1935128
 0.1937260
 0.1939393
 0.1941528
 0.1943664
 0.1945801
 0.1947940
 0.1950080
 0.1952221
 0.1954364
 0.1956508
 0.1958654
 0.1960801
 0.1962949
 0.1965099
 0.1967250
 0.1969402
 0.1971556
 0.1973711
 0.1975868
 0.1978026
 0.1980185
 0.1982346
 0.1984508
 0.1986671
 0.1988836
 0.1991002
 0.1993170
 0.1995338
 0.1997509
 0.1999680
 0.2001853
 0.2004028
 0.2006204
 0.2008381
 0.2010559
 0.2012739
 0.2014921
 0.2017103
 0.2019287
 0.2021473
 0.2023660
 0.2025848
 0.2028038
 0.2030229
 0.2032421
 0.2034615
 0.2036810
 0.2039006
 0.2041204
 0.2043403
 0.2045604
 0.2047806
 0.2050009
 0.2052214
 0.2054420
 0.2056628
 0.2058837
 0.2061047
 0.2063259
 0.2065472
 0.2067686
 0.2069902
 0.2072119
 0.2074338
 0.2076558
 0.2078779
 0.2081002
 0.2083226
 0.2085452
 0.2087679
 0.2089907
 0.2092137
 0.2094368
 0.2096600
 0.2098834
 0.2101070
 0.2103306
 0.2105544
 0.2107784
 0.2110024
 0.2112267
 0.2114510
 0.2116755
 0.2119002
 0.2121249
 0.2123498
 0.2125749
 0.2128001
 0.2130254
 0.2132509
 0.2134765
 0.2137023
 0.2139281
 0.2141542
 0.2143803
 0.2146066
 0.2148331
 0.2150597
 0.2152864
 0.2155133
 0.2157403
 0.2159674
 0.2161947
 0.2164221
 0.2166497
 0.2168774
 0.2171052
 0.2173332
 0.2175613
 0.2177896
 0.2180180
 0.2182465
 0.2184752
 0.2187040
 0.2189330
 0.2191621
 0.2193913
 0.2196207
 0.2198502
 0.2200798
 0.2203096
 0.2205396
 0.2207696
 0.2209999
 0.2212302
 0.2214607
 0.2216913
 0.2219221
 0.2221530
 0.2223841
 0.2226153
 0.2228466
 0.2230781
 0.2233097
 0.2235415
 0.2237734
 0.2240054
 0.2242376
 0.2244699
 0.2247024
 0.2249350
 0.2251677
 0.2254006
 0.2256336
 0.2258668
 0.2261001
 0.2263335
 0.2265671
 0.2268008
 0.2270347
 0.2272687
 0.2275028
 0.2277371
 0.2279715
 0.2282061
 0.2284408
 0.2286757
 0.2289106
 0.2291458
 0.2293810
 0.2296164
 0.2298520
 0.2300877
 0.2303235
 0.2305595
 0.2307956
 0.2310319
 0.2312683
 0.2315048
 0.2317415
 0.2319783
 0.2322153
 0.2324524
 0.2326896
 0.2329270
 0.2331645
 0.2334022
 0.2336400
 0.2338780
 0.2341161
 0.2343543
 0.2345927
 0.2348312
 0.2350698
 0.2353086
 0.2355476
 0.2357867
 0.2360259
 0.2362652
 0.2365047
 0.2367444
 0.2369842
 0.2372241
 0.2374642
 0.2377044
 0.2379448
 0.2381853
 0.2384259
 0.2386667
 0.2389076
 0.2391487
 0.2393899
 0.2396312
 0.2398727
 0.2401143
 0.2403561
 0.2405980
 0.2408401
 0.2410823
 0.2413246
 0.2415671
 0.2418097
 0.2420525
 0.2422954
 0.2425385
 0.2427817
 0.2430250
 0.2432685
 0.2435121
 0.2437559
 0.2439998
