ocio/LUTs/sRGB-EOTF.spi1d
Version 1
From 0.0000000 1.0000000
Length 4096
Components 1
{
 0.0000000
 0.0031551
 0.0063101
 0.0094652
 0.0126203
 0.0157753
 0.0189304
 0.0220855
 0.0252405
 0.0283956
 0.0315507
 0.0347057
 0.0378608
 0.0410041
 0.0440148
 0.0469025
 0.0496799
 0.0523578
 0.0549454
 0.0574503
 0.0598795
 0.0622388
 0.0645334
 0.0667680
 0.0689466
 0.0710729
 0.0731501
 0.0751812
 0.0771689
 0.0791156
 0.0810235
 0.0828946
 0.0847309
 0.0865340
 0.0883055
 0.0900469
 0.0917594
 0.0934445
 0.0951032
 0.0967366
 0.0983457
 0.0999316
 0.1014950
 0.1030369
 0.1045580
 0.1060591
 0.1075408
 0.1090039
 0.1104489
 0.1118764
 0.1132871
 0.1146814
 0.1160598
 0.1174229
 0.1187710
 0.1201047
 0.1214243
 0.1227302
 0.1240228
 0.1253025
 0.1265696
 0.1278244
 0.1290673
 0.1302985
 0.1315184
 0.1327272
 0.1339252
 0.1351127
 0.1362899
 0.1374570
 0.1386143
 0.1397620
 0.1409003
 0.1420295
 0.1431496
 0.1442609
 0.1453637
 0.1464580
 0.1475440
 0.1486220
 0.1496920
 0.1507542
 0.1518088
 0.1528560
 0.1538958
 0.1549284
 0.1559540
 0.1569726
 0.1579844
 0.1589895
 0.1599881
 0.1609802
 0.1619660
 0.1629455
 0.1639189
 0.1648863
 0.1658478
 0.1668034
 0.1677533
 0.1686976
 0.1696363
 0.1705696
 0.1714975
 0.1724201
 0.1733375
 0.1742498
 0.1751570
 0.1760592
 0.1769565
 0.1778490
 0.1787367
 0.1796198
 0.1804982
 0.1813720
 0.1822413
 0.1831062
 0.1839668
 0.1848230
 0.1856749
 0.1865227
 0.1873663
 0.1882058
 0.1890413
 0.1898728
 0.1907003
 0.1915240
 0.1923438
 0.1931599
 0.1939722
 0.1947808
 0.1955858
 0.1963871
 0.1971849
 0.1979792
 0.1987700
 0.1995574
 0.2003414
 0.2011220
 0.2018993
 0.2026733
 0.2034441
 0.2042117
 0.2049761
 0.2057374
 0.2064956
 0.2072507
 0.2080028
 0.2087519
 0.2094980
 0.2102412
 0.2109815
 0.2117189
 0.2124534
 0.2131852
 0.2139141
 0.2146403
 0.2153638
 0.2160846
 0.2168027
 0.2175182
 0.2182310
 0.2189413
 0.2196489
 0.2203541
 0.2210567
 0.2217568
 0.2224545
 0.2231497
 0.2238424
 0.2245328
 0.2252208
 0.2259065
 0.2265898
 0.2272707
 0.2279494
 0.2286259
 0.2293001
 0.2299720
 0.2306417
 0.2313093
 0.2319747
 0.2326379
 0.2332990
 0.2339579
 0.2346148
 0.2352696
 0.2359223
 0.2365730
 0.2372217
 0.2378683
 0.2385130
 0.2391557
 0.2397964
 0.2404352
 0.2410720
 0.2417070
 0.2423400
 0.2429712
 0.2436005
 0.2442279
 0.2448535
 0.2454773
 0.2460993
 0.2467195
 0.2473379
 0.2479545
 0.2485694
 0.2491826
 0.2497940
 0.2504037
 0.2510117
 0.2516180
 0.2522227
 0.2528257
 0.2534270
 0.2540267
 0.2546248
 0.2552213
 0.2558161
 0.2564094
 0.2570011
 0.2575912
 0.2581798
 0.2587668
 0.2593523
 0.2599363
 0.2605188
 0.2610997
 0.2616792
 0.2622572
 0.2628337
 0.2634087
 0.2639824
 0.2645545
 0.2651253
 0.2656946
 0.2662625
 0.2668290
 0.2673941
 0.2679578
 0.2685202
 0.2690811
 0.2696408
 0.2701991
 0.2707560
 0.2713116
 0.2718659
 0.2724189
 0.2729706
 0.2735209
 0.2740700
 0.2746178
 0.2751644
 0.2757097
 0.2762537
 0.2767965
 0.2773380
 0.2778783
 0.2784174
 0.2789552
 0.2794919
 0.2800273
 0.2805616
 0.2810946
 0.2816265
 0.2821572
 0.2826867
 0.2832151
 0.2837424
 0.2842684
 0.2847934
 0.2853172
 0.2858399
 0.2863614
 0.2868819
 0.2874012
 0.2879194
 0.2884366
 0.2889527
 0.2894676
 0.2899815
 0.2904944
 0.2910061
 0.2915168
 0.2920265
 0.2925351
 0.2930427
 0.2935492
 0.2940547
 0.2945592
 0.2950627
 0.2955652
 0.2960666
 0.2965671
 0.2970665
 0.2975650
 0.2980625
 0.2985590
 0.2990545
 0.2995491
 0.3000426
 0.3005353
 0.3010270
 0.3015177
 0.3020075
 0.3024963
 0.3029843
 0.3034712
 0.3039573
 0.3044424
 0.3049267
 0.3054100
 0.3058924
 0.3063739
 0.3068545
 0.3073343
 0.3078131
 0.3082910
 0.3087681
 0.3092443
 0.3097196
 0.3101941
 0.3106677
 0.3111405
 0.3116123
 0.3120834
 0.3125536
 0.3130229
 0.3134915
 0.3139592
 0.3144260
 0.3148920
 0.3153573
 0.3158217
 0.3162852
 0.3167480
 0.3172100
 0.3176712
 0.3181315
 0.3185911
 0.3190499
 0.3195079
 0.3199651
 0.3204216
 0.3208772
 0.3213321
 0.3217862
 0.3222396
 0.3226922
 0.3231440
 0.3235951
 0.3240455
 0.3244950
 0.3249439
 0.3253920
 0.3258393
 0.3262860
 0.3267319
 0.3271770
 0.3276215
 0.3280652
 0.3285082
 0.3289505
 0.3293921
 0.3298329
 0.3302731
 0.3307126
 0.3311513
 0.3315894
 0.3320268
 0.3324634
 0.3328994
 0.3333347
 0.3337693
 0.3342033
 0.3346366
 0.3350691
 0.3355011
 0.3359323
 0.3363629
 0.3367928
 0.3372221
 0.3376507
 0.3380787
 0.3385060
 0.3389326
 0.3393587
 0.3397840
 0.3402087
 0.3406328
 0.3410563
 0.3414791
 0.3419013
 0.3423229
 0.3427438
 0.3431641
 0.3435838
 0.3440029
 0.3444214
 0.3448392
 0.3452564
 0.3456731
 0.3460891
 0.3465045
 0.3469193
 0.3473336
 0.3477472
 0.3481602
 0.3485727
 0.3489845
 0.3493958
 0.3498065
 0.3502165
 0.3506261
 0.3510350
 0.3514434
 0.3518512
 0.3522584
 0.3526650
 0.3530711
 0.3534766
 0.3538816
 0.3542860
 0.3546898
 0.3550931
 0.3554958
 0.3558980
 0.3562996
 0.3567007
 0.3571012
 0.3575012
 0.3579006
 0.3582995
 0.3586979
 0.3590957
 0.3594930
 0.3598897
 0.3602860
 0.3606817
 0.3610768
 0.3614715
 0.3618656
 0.3622592
 0.3626523
 0.3630449
 0.3634369
 0.3638285
 0.3642195
 0.3646100
 0.3650000
 0.3653895
 0.3657785
 0.3661670
 0.3665550
 0.3669425
 0.3673295
 0.3677160
 0.3681020
 0.3684875
 0.3688725
 0.3692571
 0.3696411
 0.3700247
 0.3704078
 0.3707904
 0.3711725
 0.3715541
 0.3719353
 0.3723160
 0.3726962
 0.3730759
 0.3734552
 0.3738340
 0.3742123
 0.3745901
 0.3749675
 0.3753445
 0.3757209
 0.3760970
 0.3764725
 0.3768476
 0.3772222
 0.3775964
 0.3779702
 0.3783434
 0.3787163
 0.3790887
 0.3794606
 0.3798321
 0.3802031
 0.3805737
 0.3809439
 0.3813136
 0.3816829
 0.3820518
 0.3824202
 0.3827882
 0.3831557
 0.3835228
 0.3838895
 0.3842558
 0.3846216
 0.3849870
 0.3853520
 0.3857166
 0.3860807
 0.3864444
 0.3868077
 0.3871706
 0.3875331
 0.3878951
 0.3882568
 0.3886180
 0.3889788
 0.3893392
 0.3896992
 0.3900588
 0.3904180
 0.3907767
 0.3911351
 0.3914931
 0.3918506
 0.3922078
 0.3925646
 0.3929209
 0.3932769
 0.3936325
 0.3939877
 0.3943425
 0.3946969
 0.3950509
 0.3954045
 0.3957577
 0.3961106
 0.3964630
 0.3968151
 0.3971668
 0.3975181
 0.3978690
 0.3982196
 0.3985697
 0.3989195
 0.3992689
 0.3996180
 0.3999666
 0.4003149
 0.4006628
 0.4010104
 0.4013575
 0.4017043
 0.4020508
 0.4023968
 0.4027425
 0.4030879
 0.4034329
 0.4037775
 0.4041217
 0.4044656
 0.4048091
 0.4051523
 0.4054951
 0.4058375
 0.4061796
 0.4065214
 0.4068628
 0.4072038
 0.4075445
 0.4078848
 0.4082248
 0.4085644
 0.4089037
 0.4092427
 0.4095812
 0.4099195
 0.4102574
 0.4105950
 0.4109322
 0.4112690
 0.4116056
 0.4119418
 0.4122776
 0.4126132
 0.4129483
 0.4132832
 0.4136177
 0.4139519
 0.4142857
 0.4146192
 0.4149524
 0.4152853
 0.4156178
 0.4159500
 0.4162818
 0.4166134
 0.4169446
 0.4172755
 0.4176060
 0.4179363
 0.4182662
 0.4185958
 0.4189251
 0.4192540
 0.4195827
 0.4199110
 0.4202390
 0.4205667
 0.4208940
 0.4212211
 0.4215478
 0.4218742
 0.4222004
 0.4225262
 0.4228517
 0.4231768
 0.4235017
 0.4238263
 0.4241505
 0.4244745
 0.4247981
 0.4251214
 0.4254445
 0.4257672
 0.4260896
 0.4264117
 0.4267336
 0.4270551
 0.4273763
 0.4276972
 0.4280179
 0.4283382
 0.4286582
 0.4289779
 0.4292974
 0.4296165
 0.4299354
 0.4302539
 0.4305722
 0.4308902
 0.4312078
 0.4315252
 0.4318423
 0.4321591
 0.4324757
 0.4327919
 0.4331078
 0.4334235
 0.4337389
 0.4340540
 0.4343688
 0.4346833
 0.4349975
 0.4353115
 0.4356252
 0.4359386
 0.4362517
 0.4365645
 0.4368771
 0.4371894
 0.4375014
 0.4378131
 0.4381246
 0.4384357
 0.4387466
 0.4390573
 0.4393676
 0.4396777
 0.4399875
 0.4402971
 0.4406063
 0.4409153
 0.4412241
 0.4415325
 0.4418407
 0.4421487
 0.4424563
 0.4427637
 0.4430708
 0.4433777
 0.4436843
 0.4439906
 0.4442967
 0.4446025
 0.4449081
 0.4452134
 0.4455184
 0.4458232
 0.4461277
 0.4464319
 0.4467359
 0.4470396
 0.4473431
 0.4476463
 0.4479493
 0.4482520
 0.4485545
 0.4488567
 0.4491586
 0.4494603
 0.4497617
 0.4500629
 0.4503639
 0.4506645
 0.4509650
 0.4512652
 0.4515651
 0.4518648
 0.4521642
 0.4524634
 0.4527624
 0.4530611
 0.4533595
 0.4536577
 0.4539557
 0.4542534
 0.4545509
 0.4548482
 0.4551451
 0.4554419
 0.4557384
 0.4560347
 0.4563307
 0.4566265
 0.4569220
 0.4572174
 0.4575124
 0.4578073
 0.4581019
 0.4583962
 0.4586903
 0.4589842
 0.4592779
 0.4595713
 0.4598645
 0.4601575
 0.4604502
 0.4607427
 0.4610349
 0.4613269
 0.4616187
 0.4619103
 0.4622016
 0.4624927
 0.4627836
 0.4630742
 0.4633647
 0.4636549
 0.4639448
 0.4642346
 0.4645241
 0.4648133
 0.4651024
 0.4653912
 0.4656798
 0.4659682
 0.4662564
 0.4665443
 0.4668320
 0.4671195
 0.4674068
 0.4676939
 0.4679807
 0.4682673
 0.4685537
 0.4688399
 0.4691258
 0.4694116
 0.4696971
 0.4699824
 0.4702675
 0.4705523
 0.4708370
 0.4711214
 0.4714056
 0.4716897
 0.4719734
 0.4722570
 0.4725404
 0.4728235
 0.4731065
 0.4733892
 0.4736717
 0.4739540
 0.4742361
 0.4745180
 0.4747997
 0.4750811
 0.4753624
 0.4756434
 0.4759243
 0.4762049
 0.4764853
 0.4767656
 0.4770456
 0.4773254
 0.4776050
 0.4778844
 0.4781635
 0.4784425
 0.4787213
 0.4789999
 0.4792782
 0.4795564
 0.4798344
 0.4801121
 0.4803897
 0.4806671
 0.4809442
 0.4812212
 0.4814979
 0.4817745
 0.4820509
 0.4823270
 0.4826030
 0.4828788
 0.4831543
 0.4834297
 0.4837049
 0.4839798
 0.4842546
 0.4845292
 0.4848036
 0.4850778
 0.4853518
 0.4856256
 0.4858992
 0.4861726
 0.4864458
 0.4867189
 0.4869917
 0.4872643
 0.4875368
 0.4878091
 0.4880811
 0.4883530
 0.4886247
 0.4888962
 0.4891675
 0.4894386
 0.4897096
 0.4899803
 0.4902509
 0.4905212
 0.4907914
 0.4910614
 0.4913312
 0.4916008
 0.4918703
 0.4921395
 0.4924086
 0.4926775
 0.4929462
 0.4932147
 0.4934830
 0.4937511
 0.4940191
 0.4942869
 0.4945545
 0.4948219
 0.4950891
 0.4953561
 0.4956230
 0.4958897
 0.4961562
 0.4964225
 0.4966887
 0.4969546
 0.4972204
 0.4974860
 0.4977514
 0.4980167
 0.4982818
 0.4985467
 0.4988114
 0.4990759
 0.4993403
 0.4996045
 0.4998685
 0.5001323
 0.5003960
 0.5006594
 0.5009227
 0.5011859
 0.5014488
 0.5017116
 0.5019742
 0.5022367
 0.5024989
 0.5027610
 0.5030230
 0.5032847
 0.5035463
 0.5038077
 0.5040689
 0.5043300
 0.5045909
 0.5048516
 0.5051122
 0.5053725
 0.5056328
 0.5058928
 0.5061527
 0.5064124
 0.5066719
 0.5069313
 0.5071905
 0.5074495
 0.5077084
 0.5079671
 0.5082257
 0.5084840
 0.5087422
 0.5090003
 0.5092582
 0.5095159
 0.5097734
 0.5100308
 0.5102880
 0.5105451
 0.5108020
 0.5110587
 0.5113153
 0.5115717
 0.5118279
 0.5120840
 0.5123399
 0.5125956
 0.5128512
 0.5131067
 0.5133619
 0.5136171
 0.5138720
 0.5141268
 0.5143814
 0.5146359
 0.5148902
 0.5151444
 0.5153984
 0.5156522
 0.5159059
 0.5161594
 0.5164128
 0.5166660
 0.5169190
 0.5171719
 0.5174247
 0.5176772
 0.5179297
 0.5181819
 0.5184340
 0.5186860
 0.5189378
 0.5191895
 0.5194410
 0.5196923
 0.5199435
 0.5201945
 0.5204454
 0.5206961
 0.5209467
 0.5211971
 0.5214474
 0.5216975
 0.5219475
 0.5221973
 0.5224470
 0.5226965
 0.5229458
 0.5231950
 0.5234441
 0.5236930
 0.5239418
 0.5241904
 0.5244388
 0.5246872
 0.5249353
 0.5251833
 0.5254312
 0.5256789
 0.5259265
 0.5261739
 0.5264212
 0.5266683
 0.5269153
 0.5271621
 0.5274088
 0.5276554
 0.5279018
 0.5281480
 0.5283941
 0.5286401
 0.5288859
 0.5291316
 0.5293771
 0.5296225
 0.5298677
 0.5301128
 0.5303578
 0.5306026
 0.5308472
 0.5310918
 0.5313361
 0.5315804
 0.5318245
 0.5320684
 0.5323122
 0.5325559
 0.5327994
 0.5330428
 0.5332861
 0.5335292
 0.5337721
 0.5340149
 0.5342576
 0.5345002
 0.5347426
 0.5349848
 0.5352270
 0.5354689
 0.5357108
 0.5359525
 0.5361941
 0.5364355
 0.5366768
 0.5369180
 0.5371590
 0.5373999
 0.5376406
 0.5378812
 0.5381217
 0.5383620
 0.5386022
 0.5388423
 0.5390822
 0.5393220
 0.5395616
 0.5398012
 0.5400406
 0.5402798
 0.5405189
 0.5407579
 0.5409967
 0.5412355
 0.5414740
 0.5417125
 0.5419508
 0.5421890
 0.5424270
 0.5426649
 0.5429027
 0.5431404
 0.5433779
 0.5436153
 0.5438525
 0.5440897
 0.5443266
 0.5445635
 0.5448002
 0.5450368
 0.5452733
 0.5455096
 0.5457458
 0.5459819
 0.5462179
 0.5464537
 0.5466894
 0.5469249
 0.5471604
 0.5473957
 0.5476308
 0.5478659
 0.5481008
 0.5483356
 0.5485703
 0.5488048
 0.5490392
 0.5492735
 0.5495076
 0.5497416
 0.5499755
 0.5502093
 0.5504430
 0.5506765
 0.5509099
 0.5511431
 0.5513763
 0.5516093
 0.5518422
 0.5520749
 0.5523076
 0.5525401
 0.5527725
 0.5530048
 0.5532369
 0.5534689
 0.5537008
 0.5539326
 0.5541642
 0.5543958
 0.5546272
 0.5548584
 0.5550896
 0.5553206
 0.5555515
 0.5557823
 0.5560130
 0.5562435
 0.5564740
 0.5567043
 0.5569344
 0.5571645
 0.5573944
 0.5576243
 0.5578540
 0.5580835
 0.5583130
 0.5585423
 0.5587715
 0.5590006
 0.5592296
 0.5594585
 0.5596872
 0.5599158
 0.5601443
 0.5603727
 0.5606010
 0.5608291
 0.5610571
 0.5612850
 0.5615128
 0.5617405
 0.5619681
 0.5621955
 0.5624228
 0.5626500
 0.5628771
 0.5631041
 0.5633309
 0.5635577
 0.5637843
 0.5640108
 0.5642372
 0.5644634
 0.5646896
 0.5649156
 0.5651416
 0.5653674
 0.5655931
 0.5658187
 0.5660441
 0.5662695
 0.5664947
 0.5667198
 0.5669448
 0.5671697
 0.5673945
 0.5676192
 0.5678437
 0.5680682
 0.5682925
 0.5685167
 0.5687408
 0.5689648
 0.5691887
 0.5694124
 0.5696361
 0.5698596
 0.5700831
 0.5703064
 0.5705296
 0.5707527
 0.5709757
 0.5711985
 0.5714213
 0.5716439
 0.5718665
 0.5720889
 0.5723112
 0.5725334
 0.5727555
 0.5729775
 0.5731994
 0.5734211
 0.5736428
 0.5738644
 0.5740858
 0.5743071
 0.5745283
 0.5747495
 0.5749705
 0.5751914
 0.5754121
 0.5756328
 0.5758534
 0.5760738
 0.5762942
 0.5765145
 0.5767346
 0.5769546
 0.5771745
 0.5773944
 0.5776141
 0.5778337
 0.5780532
 0.5782726
 0.5784919
 0.5787110
 0.5789301
 0.5791491
 0.5793679
 0.5795867
 0.5798053
 0.5800239
 0.5802423
 0.5804607
 0.5806789
 0.5808970
 0.5811150
 0.5813329
 0.5815508
 0.5817685
 0.5819861
 0.5822036
 0.5824210
 0.5826382
 0.5828554
 0.5830725
 0.5832895
 0.5835064
 0.5837231
 0.5839398
 0.5841564
 0.5843728
 0.5845892
 0.5848055
 0.5850216
 0.5852377
 0.5854536
 0.5856695
 0.5858852
 0.5861009
 0.5863164
 0.5865319
 0.5867472
 0.5869625
 0.5871776
 0.5873926
 0.5876076
 0.5878224
 0.5880372
 0.5882518
 0.5884663
 0.5886808
 0.5888951
 0.5891094
 0.5893235
 0.5895375
 0.5897515
 0.5899653
 0.5901791
 0.5903927
 0.5906062
 0.5908197
 0.5910330
 0.5912463
 0.5914594
 0.5916725
 0.5918854
 0.5920983
 0.5923111
 0.5925237
 0.5927363
 0.5929487
 0.5931611
 0.5933734
 0.5935855
 0.5937976
 0.5940096
 0.5942215
 0.5944333
 0.5946449
 0.5948565
 0.5950680
 0.5952794
 0.5954907
 0.5957019
 0.5959130
 0.5961240
 0.5963350
 0.5965458
 0.5967565
 0.5969671
 0.5971777
 0.5973881
 0.5975985
 0.5978087
 0.5980189
 0.5982289
 0.5984389
 0.5986488
 0.5988586
 0.5990682
 0.5992778
 0.5994873
 0.5996967
 0.5999060
 0.6001153
 0.6003244
 0.6005334
 0.6007423
 0.6009512
 0.6011599
 0.6013686
 0.6015771
 0.6017856
 0.6019940
 0.6022023
 0.6024105
 0.6026186
 0.6028266
 0.6030345
 0.6032423
 0.6034501
 0.6036577
 0.6038652
 0.6040727
 0.6042801
 0.6044873
 0.6046945
 0.6049016
 0.6051086
 0.6053155
 0.6055224
 0.6057291
 0.6059357
 0.6061423
 0.6063487
 0.6065551
 0.6067614
 0.6069676
 0.6071737
 0.6073797
 0.6075856
 0.6077914
 0.6079972
 0.6082028
 0.6084084
 0.6086138
 0.6088192
 0.6090245
 0.6092297
 0.6094348
 0.6096399
 0.6098448
 0.6100497
 0.6102544
 0.6104591
 0.6106637
 0.6108682
 0.6110726
 0.6112769
 0.6114812
 0.6116853
 0.6118894
 0.6120933
 0.6122972
 0.6125010
 0.6127047
 0.6129084
 0.6131119
 0.6133153
 0.6135187
 0.6137220
 0.6139252
 0.6141283
 0.6143313
 0.6145342
 0.6147371
 0.6149398
 0.6151425
 0.6153451
 0.6155476
 0.6157500
 0.6159524
 0.6161546
 0.6163568
 0.6165588
 0.6167608
 0.6169627
 0.6171646
 0.6173663
 0.6175679
 0.6177695
 0.6179710
 0.6181724
 0.6183737
 0.6185749
 0.6187761
 0.6189771
 0.6191781
 0.6193790
 0.6195798
 0.6197805
 0.6199812
 0.6201818
 0.6203822
 0.6205826
 0.6207829
 0.6209832
 0.6211833
 0.6213834
 0.6215833
 0.6217832
 0.6219830
 0.6221828
 0.6223824
 0.6225820
 0.6227815
 0.6229809
 0.6231802
 0.6233794
 0.6235786
 0.6237776
 0.6239766
 0.6241755
 0.6243744
 0.6245731
 0.6247718
 0.6249704
 0.6251689
 0.6253673
 0.6255656
 0.6257639
 0.6259621
 0.6261602
 0.6263582
 0.6265561
 0.6267540
 0.6269518
 0.6271495
 0.6273471
 0.6275446
 0.6277421
 0.6279394
 0.6281367
 0.6283339
 0.6285311
 0.6287281
 0.6289251
 0.6291220
 0.6293188
 0.6295156
 0.6297122
 0.6299088
 0.6301053
 0.6303017
 0.6304981
 0.6306944
 0.6308905
 0.6310866
 0.6312827
 0.6314786
 0.6316745
 0.6318703
 0.6320660
 0.6322617
 0.6324572
 0.6326527
 0.6328481
 0.6330434
 0.6332387
 0.6334339
 0.6336290
 0.6338240
 0.6340189
 0.6342138
 0.6344086
 0.6346033
 0.6347979
 0.6349925
 0.6351869
 0.6353813
 0.6355757
 0.6357699
 0.6359641
 0.6361582
 0.6363522
 0.6365462
 0.6367400
 0.6369338
 0.6371275
 0.6373212
 0.6375147
 0.6377082
 0.6379016
 0.6380950
 0.6382882
 0.6384814
 0.6386745
 0.6388676
 0.6390605
 0.6392534
 0.6394462
 0.6396390
 0.6398316
 0.6400242
 0.6402167
 0.6404092
 0.6406015
 0.6407938
 0.6409860
 0.6411782
 0.6413702
 0.6415622
 0.6417541
 0.6419460
 0.6421377
 0.6423294
 0.6425211
 0.6427126
 0.6429041
 0.6430955
 0.6432868
 0.6434781
 0.6436692
 0.6438604
 0.6440514
 0.6442423
 0.6444332
 0.6446240
 0.6448148
 0.6450055
 0.6451961
 0.6453866
 0.6455770
 0.6457674
 0.6459577
 0.6461480
 0.6463381
 0.6465282
 0.6467182
 0.6469082
 0.6470980
 0.6472878
 0.6474776
 0.6476672
 0.6478568
 0.6480463
 0.6482358
 0.6484252
 0.6486145
 0.6488037
 0.6489928
 0.6491819
 0.6493710
 0.6495599
 0.6497488
 0.6499376
 0.6501263
 0.6503150
 0.6505036
 0.6506921
 0.6508805
 0.6510689
 0.6512572
 0.6514455
 0.6516336
 0.6518217
 0.6520098
 0.6521977
 0.6523856
 0.6525734
 0.6527612
 0.6529489
 0.6531365
 0.6533240
 0.6535115
 0.6536989
 0.6538862
 0.6540735
 0.6542607
 0.6544478
 0.6546349
 0.6548219
 0.6550088
 0.6551956
 0.6553824
 0.6555691
 0.6557558
 0.6559423
 0.6561288
 0.6563153
 0.6565016
 0.6566879
 0.6568742
 0.6570603
 0.6572464
 0.6574325
 0.6576184
 0.6578043
 0.6579901
 0.6581759
 0.6583616
 0.6585472
 0.6587328
 0.6589182
 0.6591037
 0.6592890
 0.6594743
 0.6596595
 0.6598447
 0.6600298
 0.6602148
 0.6603997
 0.6605846
 0.6607694
 0.6609542
 0.6611388
 0.6613235
 0.6615080
 0.6616925
 0.6618769
 0.6620613
 0.6622455
 0.6624298
 0.6626139
 0.6627980
 0.6629820
 0.6631660
 0.6633498
 0.6635337
 0.6637174
 0.6639011
 0.6640847
 0.6642683
 0.6644518
 0.6646352
 0.6648186
 0.6650019
 0.6651851
 0.6653682
 0.6655513
 0.6657344
 0.6659174
 0.6661003
 0.6662831
 0.6664659
 0.6666486
 0.6668312
 0.6670138
 0.6671963
 0.6673788
 0.6675612
 0.6677435
 0.6679257
 0.6681079
 0.6682901
 0.6684721
 0.6686541
 0.6688361
 0.6690179
 0.6691997
 0.6693815
 0.6695632
 0.6697448
 0.6699263
 0.6701078
 0.6702893
 0.6704706
 0.6706519
 0.6708332
 0.6710143
 0.6711954
 0.6713765
 0.6715575
 0.6717384
 0.6719193
 0.6721000
 0.6722808
 0.6724614
 0.6726421
 0.6728226
 0.6730031
 0.6731835
 0.6733638
 0.6735441
 0.6737244
 0.6739045
 0.6740846
 0.6742647
 0.6744447
 0.6746246
 0.6748044
 0.6749842
 0.6751640
 0.6753436
 0.6755232
 0.6757028
 0.6758823
 0.6760617
 0.6762411
 0.6764204
 0.6765996
 0.6767788
 0.6769579
 0.6771370
 0.6773159
 0.6774949
 0.6776738
 0.6778526
 0.6780313
 0.6782100
 0.6783886
 0.6785672
 0.6787457
 0.6789241
 0.6791025
 0.6792808
 0.6794591
 0.6796373
 0.6798155
 0.6799935
 0.6801716
 0.6803495
 0.6805274
 0.6807053
 0.6808830
 0.6810608
 0.6812384
 0.6814160
 0.6815936
 0.6817710
 0.6819485
 0.6821258
 0.6823031
 0.6824804
 0.6826575
 0.6828347
 0.6830117
 0.6831887
 0.6833657
 0.6835425
 0.6837194
 0.6838961
 0.6840728
 0.6842495
 0.6844261
 0.6846026
 0.6847791
 0.6849555
 0.6851318
 0.6853081
 0.6854844
 0.6856605
 0.6858367
 0.6860127
 0.6861887
 0.6863647
 0.6865405
 0.6867164
 0.6868921
 0.6870678
 0.6872435
 0.6874191
 0.6875946
 0.6877701
 0.6879455
 0.6881209
 0.6882962
 0.6884714
 0.6886466
 0.6888217
 0.6889968
 0.6891718
 0.6893468
 0.6895217
 0.6896965
 0.6898713
 0.6900460
 0.6902207
 0.6903953
 0.6905698
 0.6907443
 0.6909188
 0.6910932
 0.6912675
 0.6914418
 0.6916160
 0.6917901
 0.6919642
 0.6921383
 0.6923122
 0.6924862
 0.6926600
 0.6928339
 0.6930076
 0.6931813
 0.6933550
 0.6935285
 0.6937021
 0.6938755
 0.6940490
 0.6942223
 0.6943956
 0.6945689
 0.6947421
 0.6949152
 0.6950883
 0.6952613
 0.6954343
 0.6956072
 0.6957801
 0.6959529
 0.6961256
 0.6962983
 0.6964710
 0.6966435
 0.6968161
 0.6969885
 0.6971609
 0.6973333
 0.6975056
 0.6976779
 0.6978501
 0.6980222
 0.6981943
 0.6983663
 0.6985383
 0.6987102
 0.6988821
 0.6990539
 0.6992256
 0.6993973
 0.6995690
 0.6997406
 0.6999121
 0.7000836
 0.7002550
 0.7004264
 0.7005977
 0.7007690
 0.7009402
 0.7011113
 0.7012824
 0.7014535
 0.7016245
 0.7017954
 0.7019663
 0.7021371
 0.7023079
 0.7024786
 0.7026493
 0.7028199
 0.7029905
 0.7031610
 0.7033314
 0.7035018
 0.7036722
 0.7038425
 0.7040127
 0.7041829
 0.7043530
 0.7045231
 0.7046931
 0.7048631
 0.7050330
 0.7052029
 0.7053727
 0.7055425
 0.7057122
 0.7058818
 0.7060514
 0.7062210
 0.7063905
 0.7065599
 0.7067293
 0.7068986
 0.7070679
 0.7072372
 0.7074063
 0.7075755
 0.7077445
 0.7079136
 0.7080825
 0.7082514
 0.7084203
 0.7085891
 0.7087579
 0.7089266
 0.7090952
 0.7092638
 0.7094324
 0.7096009
 0.7097693
 0.7099377
 0.7101061
 0.7102744
 0.7104426
 0.7106108
 0.7107789
 0.7109470
 0.7111151
 0.7112830
 0.7114510
 0.7116189
 0.7117867
 0.7119545
 0.7121222
 0.7122899
 0.7124575
 0.7126250
 0.7127926
 0.7129600
 0.7131274
 0.7132948
 0.7134621
 0.7136294
 0.7137966
 0.7139638
 0.7141309
 0.7142979
 0.7144650
 0.7146319
 0.7147988
 0.7149657
 0.7151325
 0.7152992
 0.7154659
 0.7156326
 0.7157992
 0.7159658
 0.7161323
 0.7162987
 0.7164651
 0.7166315
 0.7167978
 0.7169640
 0.7171302
 0.7172964
 0.7174625
 0.7176286
 0.7177946
 0.7179605
 0.7181264
 0.7182923
 0.7184581
 0.7186238
 0.7187895
 0.7189552
 0.7191208
 0.7192863
 0.7194518
 0.7196173
 0.7197827
 0.7199481
 0.7201134
 0.7202786
 0.7204438
 0.7206090
 0.7207741
 0.7209392
 0.7211042
 0.7212692
 0.7214341
 0.7215989
 0.7217638
 0.7219285
 0.7220932
 0.7222579
 0.7224225
 0.7225871
 0.7227516
 0.7229161
 0.7230805
 0.7232449
 0.7234092
 0.7235735
 0.7237377
 0.7239019
 0.7240661
 0.7242301
 0.7243942
 0.7245582
 0.7247221
 0.7248860
 0.7250499
 0.7252137
 0.7253774
 0.7255411
 0.7257048
 0.7258684
 0.7260319
 0.7261954
 0.7263589
 0.7265223
 0.7266857
 0.7268490
 0.7270122
 0.7271755
 0.7273386
 0.7275018
 0.7276649
 0.7278279
 0.7279909
 0.7281538
 0.7283167
 0.7284795
 0.7286423
 0.7288051
 0.7289678
 0.7291304
 0.7292930
 0.7294556
 0.7296181
 0.7297806
 0.7299430
 0.7301053
 0.7302677
 0.7304299
 0.7305922
 0.7307544
 0.7309165
 0.7310786
 0.7312406
 0.7314026
 0.7315646
 0.7317265
 0.7318883
 0.7320501
 0.7322119
 0.7323736
 0.7325353
 0.7326969
 0.7328585
 0.7330200
 0.7331815
 0.7333429
 0.7335043
 0.7336657
 0.7338270
 0.7339882
 0.7341494
 0.7343106
 0.7344717
 0.7346327
 0.7347938
 0.7349547
 0.7351157
 0.7352766
 0.7354374
 0.7355982
 0.7357589
 0.7359196
 0.7360803
 0.7362409
 0.7364015
 0.7365620
 0.7367225
 0.7368829
 0.7370433
 0.7372036
 0.7373639
 0.7375241
 0.7376843
 0.7378445
 0.7380046
 0.7381647
 0.7383247
 0.7384847
 0.7386446
 0.7388045
 0.7389643
 0.7391241
 0.7392838
 0.7394435
 0.7396032
 0.7397628
 0.7399224
 0.7400819
 0.7402414
 0.7404008
 0.7405602
 0.7407196
 0.7408789
 0.7410381
 0.7411973
 0.7413565
 0.7415156
 0.7416747
 0.7418337
 0.7419927
 0.7421517
 0.7423106
 0.7424694
 0.7426282
 0.7427870
 0.7429457
 0.7431044
 0.7432630
 0.7434216
 0.7435802
 0.7437387
 0.7438971
 0.7440555
 0.7442139
 0.7443722
 0.7445305
 0.7446887
 0.7448469
 0.7450051
 0.7451632
 0.7453213
 0.7454793
 0.7456373
 0.7457952
 0.7459531
 0.7461109
 0.7462687
 0.7464265
 0.7465842
 0.7467419
 0.7468995
 0.7470571
 0.7472146
 0.7473721
 0.7475296
 0.7476870
 0.7478444
 0.7480017
 0.7481590
 0.7483162
 0.7484734
 0.7486305
 0.7487877
 0.7489447
 0.7491017
 0.7492587
 0.7494157
 0.7495726
 0.7497294
 0.7498862
 0.7500430
 0.7501997
 0.7503564
 0.7505130
 0.7506696
 0.7508262
 0.7509827
 0.7511392
 0.7512956
 0.7514520
 0.7516083
 0.7517646
 0.7519209
 0.7520771
 0.7522332
 0.7523894
 0.7525455
 0.7527015
 0.7528575
 0.7530135
 0.7531694
 0.7533253
 0.7534811
 0.7536369
 0.7537926
 0.7539483
 0.7541040
 0.7542596
 0.7544152
 0.7545708
 0.7547263
 0.7548817
 0.7550371
 0.7551925
 0.7553478
 0.7555031
