config.ocio
ocio_profile_version: 2

environment:
  {}
search_path: LUTs
strictparsing: true
luma: [0.2126, 0.7152, 0.0722]

roles:
  color_picking: sRGB
  color_timing: sRGB
  compositing_log: sRGB
  data: Generic Data
  default: sRGB
  default_byte: sRGB
  default_float: Linear BT.709
  default_sequencer: sRGB
  matte_paint: sRGB
  reference: Linear BT.709
  scene_linear: Linear BT.709
  texture_paint: sRGB
  XYZ: Linear XYZ D65

file_rules:
  - !<Rule> {name: Default, colorspace: default}

displays:
  sRGB:
    - !<View> {name: Display's Native, colorspace: sRGB}
    - !<View> {name: AgX, colorspace: AgX Base}
    - !<View> {name: AgX Chroma Laden,colorspace: AgX Base Chroma Laden}
    - !<View> {name: AgX Log,colorspace: AgX Log}
    - !<View> {name: AgX False Color, colorspace: AgX False Color}
    - !<View> {name: AgX Golden, colorspace: Appearance Golden sRGB}
  Display P3:
    - !<View> {name: Display's Native, colorspace: Display P3}
    - !<View> {name: AgX, colorspace: AgX Base Display P3}
    - !<View> {name: AgX Chroma Laden,colorspace: AgX Base Chroma Laden Display P3}
    - !<View> {name: AgX Log,colorspace: AgX Log}
    - !<View> {name: AgX False Color, colorspace: AgX False Color}
    - !<View> {name: AgX Golden, colorspace: Appearance Golden Display P3}
  BT.1886:
    - !<View> {name: Display's Native, colorspace: BT.1886}
    - !<View> {name: AgX, colorspace: AgX Base BT.1886}
    - !<View> {name: AgX Chroma Laden,colorspace: AgX Base Chroma Laden BT.1886}
    - !<View> {name: AgX Log,colorspace: AgX Log}
    - !<View> {name: AgX False Color, colorspace: AgX False Color}
    - !<View> {name: AgX Golden, colorspace: Appearance Golden BT.1886}

active_displays: []
active_views: []

looks:
  - !<Look>
    name: Punchy
    process_space: AgX Log
    description: A punchy look
    transform: !<CDLTransform> {power: [1.1865, 1.1865, 1.1865]}

  - !<Look>
    name: Green Ink
    process_space: AgX Log
    description: A High Contrast Look with Green Tint in Low Range and Warm Tint in Mid Range
    transform: !<GroupTransform>
        children:
          - !<CDLTransform> {slope: [1, 0.85, 0.9]}
          - !<GradingToneTransform>
           shadows: {rgb: [0.55, 0.8357, 0.7363], master: 1, start: 2, pivot: 0.1}
          - !<GradingToneTransform>
           shadows: {rgb: [0.2, 1.5, 0.2], master: 0.2, start: 0.5, pivot: 0.1}
          - !<CDLTransform> {power: [0.78, 0.78377, 0.7799]}
          - !<CDLTransform> {slope: [1.0969, 1.0972, 1.0969]}
          - !<GradingPrimaryTransform>
            style: log
            contrast: {rgb: [1.4, 1.4, 1.4], master: 1}
            saturation: 0.85
            pivot: {contrast: 0.21212}

  - !<Look>
    name: Greyscale
    process_space: Linear BT.709
    description: A Black and White Look with Illuminance Coefficient Processed in Linear BT.709
    transform: !<CDLTransform> {sat: 0}

  - !<Look>
    name: Greyscale AgX
    process_space: AgX Log
    description: A Black and White Look with Illuminance Coefficient Processed in AgX Log
    transform: !<CDLTransform> {sat: 0}


  - !<Look>
    name: Very High Contrast
    process_space: AgX Log
    description: A Very High Contrast Look
    transform: !<GroupTransform>
        children:
          - !<GradingPrimaryTransform>
            style: log
            contrast: {rgb: [1.57, 1.57, 1.57], master: 1}
            saturation: 0.75
            pivot: {contrast: 0.21212}

  - !<Look>
    name: High Contrast
    process_space: AgX Log
    description: A High Contrast Look
    transform: !<GroupTransform>
        children:
          - !<GradingPrimaryTransform>
            style: log
            contrast: {rgb: [1.4, 1.4, 1.4], master: 1}
            saturation: 0.85
            pivot: {contrast: 0.21212}

  - !<Look>
    name: Medium High Contrast
    process_space: AgX Log
    description: A Medium High Contrast Look
    transform: !<GroupTransform>
        children:
          - !<GradingPrimaryTransform>
            style: log
            contrast: {rgb: [1.2, 1.2, 1.2], master: 1}
            saturation: 0.95
            pivot: {contrast: 0.21212}

  - !<Look>
    name: Base Contrast
    process_space: AgX Log
    description: A Base Contrast Look
    transform: !<GroupTransform>
        children:
          - !<GradingPrimaryTransform>
            style: log
            contrast: {rgb: [1, 1, 1], master: 1}
            saturation: 1
            pivot: {contrast: 0.21212}

  - !<Look>
    name: Medium Low Contrast
    process_space: AgX Log
    description: A Medium Low Contrast Look
    transform: !<GroupTransform>
        children:
          - !<GradingPrimaryTransform>
            style: log
            contrast: {rgb: [0.9, 0.9, 0.9], master: 1}
            saturation: 1
            pivot: {contrast: 0.21212}

  - !<Look>
    name: Low Contrast
    process_space: AgX Log
    description: A Low Contrast Look
    transform: !<GroupTransform>
        children:
          - !<GradingPrimaryTransform>
            style: log
            contrast: {rgb: [0.8, 0.8, 0.8], master: 1}
            saturation: 1
            pivot: {contrast: 0.21212}

  - !<Look>
    name: Very Low Contrast
    process_space: AgX Log
    description: A Very Low Contrast Look
    transform: !<GroupTransform>
        children:
          - !<GradingPrimaryTransform>
            style: log
            contrast: {rgb: [0.7, 0.7, 0.7], master: 1}
            saturation: 1
            pivot: {contrast: 0.21212}


colorspaces:
  - !<ColorSpace>
    name: Linear XYZ D65
    family: Chromaticity
    equalitygroup:
    bitdepth: 32f
    description: |
      XYZ transform with assumed D65 white point
    isdata: false
    from_reference: !<GroupTransform>
      children:
        - !<MatrixTransform> {matrix: [ 0.4123865632529917, 0.3575914909206254, 0.1804504912035637, 0, 0.2126368216773238, 0.7151829818412507, 0.0721801964814255, 0, 0.0193306201524840, 0.1191971636402084, 0.9503725870054353, 0, 0, 0, 0, 1]}

  - !<ColorSpace>
    name: Linear XYZ IE
    family: Chromaticity
    equalitygroup: ""
    bitdepth: 32f
    description: |
      XYZ transform with assumed IE white point
    isdata: false
    allocation: lg2
    allocationvars: [-12.4739, 12.5261]
    to_reference: !<MatrixTransform> {matrix: [0.496921, 0.33909, 0.163989, 0, 0.256225, 0.678179, 0.0655957, 0, 0.0232932, 0.11303, 0.863677, 0, 0, 0, 0, 1], direction: inverse}
    from_reference: !<MatrixTransform> {matrix: [0.496921, 0.33909, 0.163989, 0, 0.256225, 0.678179, 0.0655957, 0, 0.0232932, 0.11303, 0.863677, 0, 0, 0, 0, 1]}

  - !<ColorSpace>
    name: Linear BT.709
    aliases: [Linear, Linear Tristimulus]
    family: Colourspaces
    equalitygroup: ""
    bitdepth: unknown
    description: Open Domain Linear BT.709 Tristimulus
    isdata: false
    allocation: uniform

  - !<ColorSpace>
    name: Linear DCI-P3 D65
    family: Colourspaces
    equalitygroup: ""
    bitdepth: 32f
    isdata: false
    allocation: lg2
    allocationvars: [-12.4739, 12.5261]
    to_reference: !<GroupTransform>
      children:
        - !<MatrixTransform> {matrix: [0.515121, 0.291977, 0.157104, 0, 0.241196, 0.692245, 0.0665741, 0, -0.00105286, 0.0418854, 0.784073, 0, 0, 0, 0, 1]}
        - !<MatrixTransform> {matrix: [1.04788, 0.0229187, -0.0502014, 0, 0.0295868, 0.990479, -0.0170593, 0, -0.00923157, 0.0150757, 0.751678, 0, 0, 0, 0, 1], direction: inverse}
        - !<MatrixTransform> {matrix: [0.412391, 0.357584, 0.180481, 0, 0.212639, 0.715169, 0.0721923, 0, 0.0193308, 0.119195, 0.950532, 0, 0, 0, 0, 1], direction: inverse}

  - !<ColorSpace>
    name: Linear BT.2020
    family: Colourspaces
    equalitygroup: ""
    bitdepth: 32f
    isdata: false
    allocation: uniform
    from_scene_reference: !<GroupTransform>
      children:
        - !<ColorSpaceTransform> {src: Linear BT.709, dst: Linear XYZ D65}
        - !<MatrixTransform> {matrix: [1.7166634277958803, -0.3556733197301398, -0.2533680878902478, 0, -0.6666738361988868, 1.6164557398246979, 0.0157682970961337, 0, 0.0176424817849773, -0.0427769763827532, 0.9422432810184307, 0, 0, 0, 0, 1]}

  - !<ColorSpace>
    name: Power 2.2 BT.2020
    family: Colourspaces
    equalitygroup: ""
    bitdepth: 32f
    isdata: false
    allocation: uniform
    from_scene_reference: !<GroupTransform>
      children:
        - !<ColorSpaceTransform> {src: Linear BT.709, dst: Linear BT.2020}
        - !<ExponentTransform> {value: 2.2, direction: inverse}

  - !<ColorSpace>
    name: AgX Log (Kraken)
    aliases: [Log, AgX Log, Kraken, AgX Kraken Log]
    family: Log Encodings
    equalitygroup: ""
    bitdepth: unknown
    description: AgX Log, (Kraken)
    isdata: false
    allocation: uniform
    from_scene_reference: !<GroupTransform>
      children:
        - !<RangeTransform> {min_in_value: 0, min_out_value: 0}
        - !<MatrixTransform> {matrix: [0.842479062253094, 0.0784335999999992, 0.0792237451477643, 0, 0.0423282422610123, 0.878468636469772, 0.0791661274605434, 0, 0.0423756549057051, 0.0784336, 0.879142973793104, 0, 0, 0, 0, 1]}
        - !<AllocationTransform> {allocation: lg2, vars: [-12.47393, 4.026069]}

  - !<ColorSpace>
    name: 2.2 EOTF Encoding
    aliases: [sRGB EOTF Encoding]
    family: Utilities/Curves
    equalitygroup: ""
    bitdepth: unknown
    description: 2.2 Exponent EOTF Encoding
    isdata: false
    allocation: uniform
    from_scene_reference: !<ExponentTransform> {value: 2.2, direction: inverse}

  - !<ColorSpace>
    name: 2.4 EOTF Encoding
    aliases: [BT.1886 EOTF Encoding]
    family: Utilities/Curves
    equalitygroup: ""
    bitdepth: unknown
    description: 2.4 Exponent EOTF Encoding
    isdata: false
    allocation: uniform
    from_scene_reference: !<ExponentTransform> {value: 2.4, direction: inverse}

  - !<ColorSpace>
    name: sRGB
    family: Displays/SDR
    equalitygroup: ""
    bitdepth: unknown
    description: sRGB IEC 61966-2-1 2.2 Exponent Reference EOTF Display
    isdata: false
    allocation: uniform
    from_scene_reference: !<ColorSpaceTransform> {src: Linear BT.709, dst: 2.2 EOTF Encoding}

  - !<ColorSpace>
    name: Display P3
    family: Displays/SDR
    equalitygroup: ""
    bitdepth: unknown
    description: Display P3 2.2 Exponent EOTF Display
    isdata: false
    allocation: uniform
    from_scene_reference: !<GroupTransform>
      children:
        - !<MatrixTransform> {matrix: [0.822533651175139, 0.17754580666797, 5.36947712599933e-05, 0, 0.0331170846132368, 0.966848142976822, -3.14995811217383e-06, 0, 0.0170564417474994, 0.0724006113523901, 0.910489265923157, 0, 0, 0, 0, 1]}
        - !<ColorSpaceTransform> {src: Linear BT.709, dst: 2.2 EOTF Encoding}

  - !<ColorSpace>
    name: BT.1886
    family: Displays/SDR
    equalitygroup: ""
    bitdepth: unknown
    description: BT.1886 2.4 Exponent EOTF Display
    isdata: false
    allocation: uniform
    from_scene_reference: !<ColorSpaceTransform> {src: Linear BT.709, dst: 2.4 EOTF Encoding}

  - !<ColorSpace>
    name: AgX Base
    family: Imagery
    equalitygroup: ""
    bitdepth: unknown
    description: AgX Base Image Encoding
    isdata: false
    allocation: uniform
    from_scene_reference: !<GroupTransform>
      children:
        - !<ColorSpaceTransform> {src: Linear BT.709, dst: AgX Log (Kraken)}
        - !<FileTransform> {src: AgX_Default_Contrast.spi1d}

  - !<ColorSpace>
    name: AgX Base BT.1886
    family: Views/AgX BT.1886
    equalitygroup: ""
    bitdepth: unknown
    description: AgX Base Image Encoding for BT.1886 Displays
    isdata: false
    allocation: uniform
    from_scene_reference: !<GroupTransform>
      children:
        - !<ColorSpaceTransform> {src: Linear BT.709, dst: AgX Base}
        - !<ColorSpaceTransform> {src: 2.2 EOTF Encoding, dst: 2.4 EOTF Encoding}

  - !<ColorSpace>
    name: AgX Base Display P3
    family: Views/AgX Display P3
    equalitygroup: ""
    bitdepth: unknown
    description: AgX Base Image Encoding for Display P3 Displays
    isdata: false
    allocation: uniform
    from_scene_reference: !<GroupTransform>
      children:
        - !<ColorSpaceTransform> {src: Linear BT.709, dst: AgX Base}
        - !<ColorSpaceTransform> {src: 2.2 EOTF Encoding, dst: Display P3}

  - !<ColorSpace>
    name: AgX Base Chroma Laden
    family: Imagery
    equalitygroup: ""
    bitdepth: unknown
    description: A More Chroma Laden Version of AgX Base Image Encoding
    isdata: false
    allocation: uniform
    from_scene_reference: !<GroupTransform>
      children:
        - !<ColorSpaceTransform> {src: Linear BT.709, dst: AgX Base}
        - !<CDLTransform> {sat: 1.48}

  - !<ColorSpace>
    name: AgX Base Chroma Laden BT.1886
    family: Views/AgX BT.1886
    equalitygroup: ""
    bitdepth: unknown
    description: AgX Base Image Encoding for BT.1886 Displays
    isdata: false
    allocation: uniform
    from_scene_reference: !<GroupTransform>
      children:
        - !<ColorSpaceTransform> {src: Linear BT.709, dst: AgX Base Chroma Laden}
        - !<ColorSpaceTransform> {src: 2.2 EOTF Encoding, dst: 2.4 EOTF Encoding}

  - !<ColorSpace>
    name: AgX Base Chroma Laden Display P3
    family: Views/AgX Display P3
    equalitygroup: ""
    bitdepth: unknown
    description: AgX Base Image Encoding for Display P3 Displays
    isdata: false
    allocation: uniform
    from_scene_reference: !<GroupTransform>
      children:
        - !<ColorSpaceTransform> {src: Linear BT.709, dst: AgX Base Chroma Laden}
        - !<ColorSpaceTransform> {src: 2.2 EOTF Encoding, dst: Display P3}

  - !<ColorSpace>
    name: AgX False Color
    aliases: [False Color, False Colour]
    family: Imagery
    equalitygroup:
    bitdepth: 32f
    description: |
      AgX false color view transform
    isdata: false
    from_reference: !<GroupTransform>
        children:
            - !<ColorSpaceTransform> {src: Linear BT.709, dst: AgX Base}
            - !<ColorSpaceTransform> {src: sRGB, dst: Linear BT.709}
            - !<MatrixTransform> {matrix: [0.2126729, 0.7151521, 0.0721750, 0, 0.2126729, 0.7151521, 0.0721750, 0, 0.2126729, 0.7151521, 0.0721750, 0, 0, 0, 0, 1]}
            - !<ColorSpaceTransform> {src: Linear BT.709, dst: sRGB}
            - !<ColorSpaceTransform> {src: AgX Base, dst: AgX Log}
            - !<FileTransform> {src: False_Color.spi3d, interpolation: best}

  - !<ColorSpace>
    name: Filmic sRGB
    family: Imagery
    equalitygroup:
    bitdepth: 32f
    description: |
      Filmic sRGB Image Encoding
    isdata: false
    from_reference: !<GroupTransform>
        children:
            - !<ColorSpaceTransform> {src: Linear, dst: Filmic Log}
            - !<FileTransform> {src: filmic_to_0-70_1-03.spi1d, interpolation: linear}

  - !<ColorSpace>
    name: Filmic Log
    family: Log Encodings
    equalitygroup:
    bitdepth: 32f
    description: |
      Log based filmic shaper with 16.5 stops of latitude, and 25 stops of dynamic range
    isdata: false
    allocation: lg2
    allocationvars: [-12.473931188, 12.526068812]
    from_reference: !<GroupTransform>
        children:
            - !<AllocationTransform> {allocation: lg2, vars: [-12.473931188, 12.526068812]}
            - !<FileTransform> {src: filmic_desat65cube.spi3d, interpolation: best}
            - !<AllocationTransform> {allocation: uniform, vars: [0, 0.66]}
    to_reference: !<AllocationTransform> {allocation: lg2, vars: [-12.473931188, 4.026068812], direction: inverse}

  - !<ColorSpace>
    name: Appearance Golden sRGB
    family: Appearances/Golden
    equalitygroup: ""
    bitdepth: unknown
    description: A golden tinted, slightly washed look for sRGB displays
    isdata: false
    allocation: uniform
    from_scene_reference: !<GroupTransform>
      children:
        - !<ColorSpaceTransform> {src: Linear BT.709, dst: AgX Base}
        - !<CDLTransform> {slope: [1, 0.9, 0.5], power: [0.8, 0.8, 0.8], sat: 1.3}

  - !<ColorSpace>
    name: Appearance Golden Display P3
    family: Appearances/Golden
    equalitygroup: ""
    bitdepth: unknown
    description: A golden tinted, slightly washed look for Display P3 displays
    isdata: false
    allocation: uniform
    from_scene_reference: !<GroupTransform>
      children:
        - !<ColorSpaceTransform> {src: Linear BT.709, dst: Appearance Golden sRGB}
        - !<ColorSpaceTransform> {src: 2.2 EOTF Encoding, dst: Display P3}

  - !<ColorSpace>
    name: Appearance Golden BT.1886
    family: Appearances/Golden
    equalitygroup: ""
    bitdepth: unknown
    description: A golden tinted, slightly washed look for BT.1886 displays
    isdata: false
    allocation: uniform
    from_scene_reference: !<GroupTransform>
      children:
        - !<ColorSpaceTransform> {src: Linear BT.709, dst: Appearance Golden sRGB}
        - !<ColorSpaceTransform> {src: 2.2 EOTF Encoding, dst: 2.4 EOTF Encoding}

  - !<ColorSpace>
    name: Appearance Punchy sRGB
    family: Appearances/Punchy
    equalitygroup: ""
    bitdepth: unknown
    description: A punchy and more chroma laden look for sRGB displays
    isdata: false
    allocation: uniform
    from_scene_reference: !<LookTransform> {src: Linear BT.709, dst: AgX Base, looks: Punchy}

  - !<ColorSpace>
    name: Appearance Punchy Display P3
    family: Appearances/Punchy
    equalitygroup: ""
    bitdepth: unknown
    description: A punchy and more chroma laden look for Display P3 displays
    isdata: false
    allocation: uniform
    from_scene_reference: !<GroupTransform>
      children:
        - !<LookTransform> {src: Linear BT.709, dst: AgX Base, looks: Punchy}
        - !<ColorSpaceTransform> {src: 2.2 EOTF Encoding, dst: Display P3}

  - !<ColorSpace>
    name: Appearance Punchy BT.1886
    family: Appearances/Punchy
    equalitygroup: ""
    bitdepth: unknown
    description: A punchy and more chroma laden look for BT.1886 displays
    isdata: false
    allocation: uniform
    from_scene_reference: !<GroupTransform>
      children:
        - !<LookTransform> {src: Linear BT.709, dst: AgX Base, looks: Punchy}
        - !<ColorSpaceTransform> {src: 2.2 EOTF Encoding, dst: 2.4 EOTF Encoding}

  - !<ColorSpace>
    name: Generic Data
    aliases: [Non-Color, Raw]
    family: Data/Generic Data
    equalitygroup: ""
    bitdepth: unknown
    description: Generic data encoding
    isdata: true
    allocation: uniform
