LUTs/AgX_ST2084_Contrast.spi1d
Version 1
From 0.0000000 1.0000000
Length 4096
Components 1
{
 0.0000000
 0.0000026
 0.0000051
 0.0000077
 0.0000102
 0.0000128
 0.0000154
 0.0000180
 0.0000206
 0.0000232
 0.0000257
 0.0000284
 0.0000310
 0.0000336
 0.0000362
 0.0000388
 0.0000414
 0.0000441
 0.0000467
 0.0000494
 0.0000520
 0.0000547
 0.0000573
 0.0000600
 0.0000626
 0.0000653
 0.0000680
 0.0000707
 0.0000734
 0.0000761
 0.0000788
 0.0000815
 0.0000842
 0.0000869
 0.0000896
 0.0000924
 0.0000951
 0.0000978
 0.0001006
 0.0001033
 0.0001061
 0.0001088
 0.0001116
 0.0001144
 0.0001171
 0.0001199
 0.0001227
 0.0001255
 0.0001283
 0.0001311
 0.0001339
 0.0001367
 0.0001395
 0.0001424
 0.0001452
 0.0001480
 0.0001509
 0.0001537
 0.0001566
 0.0001594
 0.0001623
 0.0001652
 0.0001680
 0.0001709
 0.0001738
 0.0001767
 0.0001796
 0.0001825
 0.0001854
 0.0001883
 0.0001913
 0.0001942
 0.0001971
 0.0002001
 0.0002030
 0.0002060
 0.0002089
 0.0002119
 0.0002148
 0.0002178
 0.0002208
 0.0002238
 0.0002268
 0.0002298
 0.0002328
 0.0002358
 0.0002388
 0.0002418
 0.0002449
 0.0002479
 0.0002509
 0.0002540
 0.0002570
 0.0002601
 0.0002632
 0.0002662
 0.0002693
 0.0002724
 0.0002755
 0.0002786
 0.0002817
 0.0002848
 0.0002879
 0.0002910
 0.0002942
 0.0002973
 0.0003004
 0.0003036
 0.0003067
 0.0003099
 0.0003131
 0.0003162
 0.0003194
 0.0003226
 0.0003258
 0.0003290
 0.0003322
 0.0003354
 0.0003386
 0.0003419
 0.0003451
 0.0003483
 0.0003516
 0.0003548
 0.0003581
 0.0003613
 0.0003646
 0.0003679
 0.0003712
 0.0003745
 0.0003778
 0.0003811
 0.0003844
 0.0003877
 0.0003910
 0.0003944
 0.0003977
 0.0004010
 0.0004044
 0.0004078
 0.0004111
 0.0004145
 0.0004179
 0.0004213
 0.0004247
 0.0004281
 0.0004315
 0.0004349
 0.0004383
 0.0004417
 0.0004452
 0.0004486
 0.0004521
 0.0004555
 0.0004590
 0.0004625
 0.0004659
 0.0004694
 0.0004729
 0.0004764
 0.0004799
 0.0004835
 0.0004870
 0.0004905
 0.0004940
 0.0004976
 0.0005011
 0.0005047
 0.0005083
 0.0005118
 0.0005154
 0.0005190
 0.0005226
 0.0005262
 0.0005298
 0.0005335
 0.0005371
 0.0005407
 0.0005444
 0.0005480
 0.0005517
 0.0005553
 0.0005590
 0.0005627
 0.0005664
 0.0005701
 0.0005738
 0.0005775
 0.0005812
 0.0005850
 0.0005887
 0.0005924
 0.0005962
 0.0005999
 0.0006037
 0.0006075
 0.0006113
 0.0006151
 0.0006189
 0.0006227
 0.0006265
 0.0006303
 0.0006342
 0.0006380
 0.0006418
 0.0006457
 0.0006496
 0.0006534
 0.0006573
 0.0006612
 0.0006651
 0.0006690
 0.0006729
 0.0006769
 0.0006808
 0.0006847
 0.0006887
 0.0006926
 0.0006966
 0.0007006
 0.0007046
 0.0007086
 0.0007126
 0.0007166
 0.0007206
 0.0007246
 0.0007286
 0.0007327
 0.0007367
 0.0007408
 0.0007449
 0.0007489
 0.0007530
 0.0007571
 0.0007612
 0.0007653
 0.0007695
 0.0007736
 0.0007777
 0.0007819
 0.0007861
 0.0007902
 0.0007944
 0.0007986
 0.0008028
 0.0008070
 0.0008112
 0.0008154
 0.0008196
 0.0008239
 0.0008281
 0.0008324
 0.0008367
 0.0008409
 0.0008452
 0.0008495
 0.0008538
 0.0008581
 0.0008625
 0.0008668
 0.0008711
 0.0008755
 0.0008799
 0.0008842
 0.0008886
 0.0008930
 0.0008974
 0.0009018
 0.0009062
 0.0009107
 0.0009151
 0.0009196
 0.0009240
 0.0009285
 0.0009330
 0.0009375
 0.0009420
 0.0009465
 0.0009510
 0.0009555
 0.0009601
 0.0009646
 0.0009692
 0.0009737
 0.0009783
 0.0009829
 0.0009875
 0.0009921
 0.0009967
 0.0010014
 0.0010060
 0.0010107
 0.0010153
 0.0010200
 0.0010247
 0.0010294
 0.0010341
 0.0010388
 0.0010435
 0.0010482
 0.0010530
 0.0010577
 0.0010625
 0.0010673
 0.0010721
 0.0010769
 0.0010817
 0.0010865
 0.0010913
 0.0010962
 0.0011010
 0.0011059
 0.0011108
 0.0011157
 0.0011206
 0.0011255
 0.0011304
 0.0011353
 0.0011403
 0.0011452
 0.0011502
 0.0011551
 0.0011601
 0.0011651
 0.0011701
 0.0011752
 0.0011802
 0.0011852
 0.0011903
 0.0011954
 0.0012004
 0.0012055
 0.0012106
 0.0012157
 0.0012209
 0.0012260
 0.0012311
 0.0012363
 0.0012415
 0.0012467
 0.0012518
 0.0012571
 0.0012623
 0.0012675
 0.0012727
 0.0012780
 0.0012833
 0.0012885
 0.0012938
 0.0012991
 0.0013045
 0.0013098
 0.0013151
 0.0013205
 0.0013258
 0.0013312
 0.0013366
 0.0013420
 0.0013474
 0.0013528
 0.0013583
 0.0013637
 0.0013692
 0.0013747
 0.0013802
 0.0013857
 0.0013912
 0.0013967
 0.0014023
 0.0014078
 0.0014134
 0.0014189
 0.0014245
 0.0014301
 0.0014358
 0.0014414
 0.0014470
 0.0014527
 0.0014584
 0.0014641
 0.0014698
 0.0014755
 0.0014812
 0.0014869
 0.0014927
 0.0014984
 0.0015042
 0.0015100
 0.0015158
 0.0015216
 0.0015275
 0.0015333
 0.0015392
 0.0015450
 0.0015509
 0.0015568
 0.0015627
 0.0015687
 0.0015746
 0.0015806
 0.0015866
 0.0015925
 0.0015985
 0.0016045
 0.0016106
 0.0016166
 0.0016227
 0.0016287
 0.0016348
 0.0016409
 0.0016470
 0.0016532
 0.0016593
 0.0016655
 0.0016717
 0.0016778
 0.0016840
 0.0016903
 0.0016965
 0.0017027
 0.0017090
 0.0017153
 0.0017216
 0.0017279
 0.0017342
 0.0017405
 0.0017469
 0.0017533
 0.0017596
 0.0017660
 0.0017724
 0.0017789
 0.0017853
 0.0017918
 0.0017983
 0.0018047
 0.0018113
 0.0018178
 0.0018243
 0.0018309
 0.0018374
 0.0018440
 0.0018506
 0.0018572
 0.0018639
 0.0018705
 0.0018772
 0.0018839
 0.0018906
 0.0018973
 0.0019040
 0.0019108
 0.0019175
 0.0019243
 0.0019311
 0.0019379
 0.0019448
 0.0019516
 0.0019585
 0.0019653
 0.0019722
 0.0019792
 0.0019861
 0.0019930
 0.0020000
 0.0020070
 0.0020140
 0.0020210
 0.0020280
 0.0020351
 0.0020421
 0.0020492
 0.0020563
 0.0020635
 0.0020706
 0.0020778
 0.0020849
 0.0020921
 0.0020993
 0.0021065
 0.0021138
 0.0021211
 0.0021283
 0.0021356
 0.0021430
 0.0021503
 0.0021576
 0.0021650
 0.0021724
 0.0021798
 0.0021872
 0.0021947
 0.0022021
 0.0022096
 0.0022171
 0.0022246
 0.0022322
 0.0022397
 0.0022473
 0.0022549
 0.0022625
 0.0022702
 0.0022778
 0.0022855
 0.0022932
 0.0023009
 0.0023086
 0.0023164
 0.0023241
 0.0023319
 0.0023397
 0.0023475
 0.0023554
 0.0023633
 0.0023711
 0.0023790
 0.0023870
 0.0023949
 0.0024029
 0.0024109
 0.0024189
 0.0024269
 0.0024349
 0.0024430
 0.0024511
 0.0024592
 0.0024673
 0.0024755
 0.0024837
 0.0024918
 0.0025001
 0.0025083
 0.0025165
 0.0025248
 0.0025331
 0.0025414
 0.0025498
 0.0025581
 0.0025665
 0.0025749
 0.0025833
 0.0025918
 0.0026003
 0.0026087
 0.0026173
 0.0026258
 0.0026343
 0.0026429
 0.0026515
 0.0026601
 0.0026688
 0.0026774
 0.0026861
 0.0026948
 0.0027036
 0.0027123
 0.0027211
 0.0027299
 0.0027387
 0.0027476
 0.0027565
 0.0027653
 0.0027743
 0.0027832
 0.0027922
 0.0028011
 0.0028102
 0.0028192
 0.0028282
 0.0028373
 0.0028464
 0.0028556
 0.0028647
 0.0028739
 0.0028831
 0.0028923
 0.0029015
 0.0029108
 0.0029201
 0.0029294
 0.0029388
 0.0029481
 0.0029575
 0.0029669
 0.0029764
 0.0029859
 0.0029954
 0.0030049
 0.0030144
 0.0030240
 0.0030336
 0.0030432
 0.0030528
 0.0030625
 0.0030722
 0.0030819
 0.0030917
 0.0031014
 0.0031112
 0.0031211
 0.0031309
 0.0031408
 0.0031507
 0.0031606
 0.0031706
 0.0031805
 0.0031906
 0.0032006
 0.0032107
 0.0032207
 0.0032309
 0.0032410
 0.0032512
 0.0032614
 0.0032716
 0.0032818
 0.0032921
 0.0033024
 0.0033128
 0.0033231
 0.0033335
 0.0033439
 0.0033544
 0.0033649
 0.0033754
 0.0033859
 0.0033964
 0.0034070
 0.0034177
 0.0034283
 0.0034390
 0.0034497
 0.0034604
 0.0034712
 0.0034820
 0.0034928
 0.0035036
 0.0035145
 0.0035254
 0.0035363
 0.0035473
 0.0035583
 0.0035693
 0.0035804
 0.0035915
 0.0036026
 0.0036137
 0.0036249
 0.0036361
 0.0036474
 0.0036586
 0.0036699
 0.0036813
 0.0036926
 0.0037040
 0.0037155
 0.0037269
 0.0037384
 0.0037499
 0.0037615
 0.0037731
 0.0037847
 0.0037963
 0.0038080
 0.0038197
 0.0038315
 0.0038432
 0.0038551
 0.0038669
 0.0038788
 0.0038907
 0.0039026
 0.0039146
 0.0039266
 0.0039386
 0.0039507
 0.0039628
 0.0039750
 0.0039871
 0.0039994
 0.0040116
 0.0040239
 0.0040362
 0.0040485
 0.0040609
 0.0040733
 0.0040858
 0.0040983
 0.0041108
 0.0041234
 0.0041359
 0.0041486
 0.0041612
 0.0041739
 0.0041867
 0.0041994
 0.0042122
 0.0042251
 0.0042380
 0.0042509
 0.0042638
 0.0042768
 0.0042898
 0.0043029
 0.0043160
 0.0043291
 0.0043423
 0.0043555
 0.0043688
 0.0043820
 0.0043954
 0.0044087
 0.0044221
 0.0044356
 0.0044490
 0.0044626
 0.0044761
 0.0044897
 0.0045033
 0.0045170
 0.0045307
 0.0045444
 0.0045582
 0.0045721
 0.0045859
 0.0045998
 0.0046138
 0.0046278
 0.0046418
 0.0046559
 0.0046700
 0.0046841
 0.0046983
 0.0047125
 0.0047268
 0.0047411
 0.0047555
 0.0047699
 0.0047843
 0.0047988
 0.0048133
 0.0048279
 0.0048425
 0.0048571
 0.0048718
 0.0048865
 0.0049013
 0.0049161
 0.0049310
 0.0049459
 0.0049608
 0.0049758
 0.0049909
 0.0050059
 0.0050211
 0.0050362
 0.0050515
 0.0050667
 0.0050820
 0.0050974
 0.0051128
 0.0051282
 0.0051437
 0.0051592
 0.0051748
 0.0051904
 0.0052061
 0.0052218
 0.0052375
 0.0052533
 0.0052692
 0.0052851
 0.0053010
 0.0053170
 0.0053331
 0.0053492
 0.0053653
 0.0053815
 0.0053977
 0.0054140
 0.0054303
 0.0054467
 0.0054631
 0.0054796
 0.0054961
 0.0055127
 0.0055293
 0.0055460
 0.0055627
 0.0055795
 0.0055963
 0.0056132
 0.0056301
 0.0056471
 0.0056641
 0.0056812
 0.0056983
 0.0057155
 0.0057327
 0.0057500
 0.0057673
 0.0057847
 0.0058022
 0.0058197
 0.0058372
 0.0058548
 0.0058725
 0.0058902
 0.0059079
 0.0059257
 0.0059436
 0.0059615
 0.0059795
 0.0059975
 0.0060156
 0.0060338
 0.0060520
 0.0060702
 0.0060885
 0.0061069
 0.0061253
 0.0061438
 0.0061623
 0.0061809
 0.0061995
 0.0062182
 0.0062370
 0.0062558
 0.0062747
 0.0062936
 0.0063126
 0.0063317
 0.0063508
 0.0063699
 0.0063892
 0.0064085
 0.0064278
 0.0064472
 0.0064667
 0.0064862
 0.0065058
 0.0065254
 0.0065451
 0.0065649
 0.0065847
 0.0066046
 0.0066246
 0.0066446
 0.0066647
 0.0066848
 0.0067050
 0.0067253
 0.0067456
 0.0067660
 0.0067865
 0.0068070
 0.0068276
 0.0068482
 0.0068689
 0.0068897
 0.0069106
 0.0069315
 0.0069525
 0.0069735
 0.0069946
 0.0070158
 0.0070370
 0.0070583
 0.0070797
 0.0071011
 0.0071227
 0.0071442
 0.0071659
 0.0071876
 0.0072094
 0.0072312
 0.0072532
 0.0072751
 0.0072972
 0.0073193
 0.0073415
 0.0073638
 0.0073862
 0.0074086
 0.0074311
 0.0074536
 0.0074763
 0.0074990
 0.0075217
 0.0075446
 0.0075675
 0.0075905
 0.0076136
 0.0076367
 0.0076599
 0.0076832
 0.0077066
 0.0077300
 0.0077535
 0.0077771
 0.0078008
 0.0078245
 0.0078484
 0.0078723
 0.0078962
 0.0079203
 0.0079444
 0.0079686
 0.0079929
 0.0080173
 0.0080417
 0.0080662
 0.0080909
 0.0081155
 0.0081403
 0.0081651
 0.0081901
 0.0082151
 0.0082402
 0.0082653
 0.0082906
 0.0083159
 0.0083413
 0.0083668
 0.0083924
 0.0084181
 0.0084439
 0.0084697
 0.0084956
 0.0085216
 0.0085477
 0.0085739
 0.0086002
 0.0086265
 0.0086530
 0.0086795
 0.0087061
 0.0087328
 0.0087596
 0.0087865
 0.0088134
 0.0088405
 0.0088676
 0.0088949
 0.0089222
 0.0089496
 0.0089771
 0.0090047
 0.0090324
 0.0090602
 0.0090881
 0.0091161
 0.0091441
 0.0091723
 0.0092005
 0.0092289
 0.0092573
 0.0092858
 0.0093145
 0.0093432
 0.0093720
 0.0094010
 0.0094300
 0.0094591
 0.0094883
 0.0095176
 0.0095470
 0.0095765
 0.0096061
 0.0096359
 0.0096657
 0.0096956
 0.0097256
 0.0097557
 0.0097859
 0.0098162
 0.0098467
 0.0098772
 0.0099078
 0.0099385
 0.0099694
 0.0100003
 0.0100314
 0.0100625
 0.0100938
 0.0101251
 0.0101566
 0.0101882
 0.0102199
 0.0102517
 0.0102836
 0.0103156
 0.0103477
 0.0103800
 0.0104123
 0.0104448
 0.0104773
 0.0105100
 0.0105428
 0.0105757
 0.0106087
 0.0106419
 0.0106751
 0.0107085
 0.0107420
 0.0107756
 0.0108093
 0.0108431
 0.0108770
 0.0109111
 0.0109453
 0.0109796
 0.0110140
 0.0110485
 0.0110832
 0.0111180
 0.0111529
 0.0111879
 0.0112230
 0.0112583
 0.0112937
 0.0113292
 0.0113649
 0.0114006
 0.0114365
 0.0114725
 0.0115087
 0.0115449
 0.0115813
 0.0116179
 0.0116545
 0.0116913
 0.0117282
 0.0117652
 0.0118024
 0.0118397
 0.0118771
 0.0119147
 0.0119524
 0.0119902
 0.0120282
 0.0120663
 0.0121046
 0.0121429
 0.0121814
 0.0122201
 0.0122589
 0.0122978
 0.0123368
 0.0123760
 0.0124154
 0.0124549
 0.0124945
 0.0125342
 0.0125741
 0.0126142
 0.0126544
 0.0126947
 0.0127352
 0.0127758
 0.0128166
 0.0128575
 0.0128986
 0.0129398
 0.0129811
 0.0130226
 0.0130643
 0.0131061
 0.0131481
 0.0131902
 0.0132324
 0.0132749
 0.0133174
 0.0133602
 0.0134030
 0.0134461
 0.0134893
 0.0135326
 0.0135761
 0.0136198
 0.0136636
 0.0137076
 0.0137517
 0.0137960
 0.0138405
 0.0138851
 0.0139299
 0.0139748
 0.0140200
 0.0140652
 0.0141107
 0.0141563
 0.0142021
 0.0142480
 0.0142941
 0.0143404
 0.0143869
 0.0144335
 0.0144803
 0.0145273
 0.0145744
 0.0146218
 0.0146692
 0.0147169
 0.0147648
 0.0148128
 0.0148610
 0.0149094
 0.0149579
 0.0150067
 0.0150556
 0.0151047
 0.0151540
 0.0152034
 0.0152531
 0.0153029
 0.0153529
 0.0154031
 0.0154535
 0.0155041
 0.0155549
 0.0156058
 0.0156570
 0.0157083
 0.0157599
 0.0158116
 0.0158635
 0.0159156
 0.0159680
 0.0160205
 0.0160732
 0.0161261
 0.0161792
 0.0162325
 0.0162860
 0.0163397
 0.0163936
 0.0164477
 0.0165020
 0.0165565
 0.0166113
 0.0166662
 0.0167213
 0.0167767
 0.0168323
 0.0168880
 0.0169440
 0.0170002
 0.0170566
 0.0171132
 0.0171701
 0.0172271
 0.0172844
 0.0173419
 0.0173996
 0.0174576
 0.0175157
 0.0175741
 0.0176327
 0.0176915
 0.0177505
 0.0178098
 0.0178693
 0.0179291
 0.0179890
 0.0180492
 0.0181096
 0.0181703
 0.0182312
 0.0182923
 0.0183536
 0.0184152
 0.0184771
 0.0185391
 0.0186014
 0.0186640
 0.0187268
 0.0187898
 0.0188531
 0.0189166
 0.0189804
 0.0190444
 0.0191087
 0.0191732
 0.0192380
 0.0193030
 0.0193682
 0.0194338
 0.0194995
 0.0195656
 0.0196319
 0.0196984
 0.0197652
 0.0198323
 0.0198997
 0.0199673
 0.0200351
 0.0201032
 0.0201716
 0.0202403
 0.0203092
 0.0203784
 0.0204479
 0.0205177
 0.0205877
 0.0206580
 0.0207286
 0.0207994
 0.0208705
 0.0209420
 0.0210137
 0.0210856
 0.0211579
 0.0212304
 0.0213033
 0.0213764
 0.0214498
 0.0215235
 0.0215975
 0.0216718
 0.0217464
 0.0218212
 0.0218964
 0.0219719
 0.0220477
 0.0221237
 0.0222001
 0.0222768
 0.0223538
 0.0224311
 0.0225087
 0.0225866
 0.0226648
 0.0227434
 0.0228222
 0.0229014
 0.0229809
 0.0230607
 0.0231408
 0.0232212
 0.0233020
 0.0233831
 0.0234645
 0.0235462
 0.0236283
 0.0237107
 0.0237934
 0.0238765
 0.0239599
 0.0240436
 0.0241277
 0.0242121
 0.0242969
 0.0243820
 0.0244674
 0.0245532
 0.0246393
 0.0247258
 0.0248126
 0.0248998
 0.0249873
 0.0250752
 0.0251635
 0.0252521
 0.0253410
 0.0254304
 0.0255200
 0.0256101
 0.0257005
 0.0257913
 0.0258825
 0.0259740
 0.0260659
 0.0261582
 0.0262508
 0.0263438
 0.0264372
 0.0265310
 0.0266252
 0.0267198
 0.0268147
 0.0269100
 0.0270058
 0.0271019
 0.0271984
 0.0272953
 0.0273926
 0.0274903
 0.0275884
 0.0276869
 0.0277858
 0.0278852
 0.0279849
 0.0280850
 0.0281856
 0.0282865
 0.0283879
 0.0284897
 0.0285919
 0.0286946
 0.0287976
 0.0289011
 0.0290050
 0.0291094
 0.0292142
 0.0293194
 0.0294250
 0.0295311
 0.0296376
 0.0297446
 0.0298520
 0.0299598
 0.0300681
 0.0301769
 0.0302861
 0.0303957
 0.0305058
 0.0306164
 0.0307274
 0.0308389
 0.0309509
 0.0310633
 0.0311762
 0.0312895
 0.0314033
 0.0315176
 0.0316324
 0.0317477
 0.0318634
 0.0319796
 0.0320963
 0.0322135
 0.0323312
 0.0324494
 0.0325680
 0.0326872
 0.0328069
 0.0329270
 0.0330477
 0.0331689
 0.0332905
 0.0334127
 0.0335354
 0.0336586
 0.0337824
 0.0339066
 0.0340314
 0.0341567
 0.0342825
 0.0344088
 0.0345357
 0.0346631
 0.0347911
 0.0349196
 0.0350486
 0.0351782
 0.0353083
 0.0354389
 0.0355701
 0.0357019
 0.0358342
 0.0359671
 0.0361005
 0.0362345
 0.0363691
 0.0365042
 0.0366399
 0.0367762
 0.0369130
 0.0370505
 0.0371885
 0.0373271
 0.0374662
 0.0376060
 0.0377463
 0.0378873
 0.0380288
 0.0381710
 0.0383137
 0.0384570
 0.0386010
 0.0387456
 0.0388907
 0.0390365
 0.0391829
 0.0393299
 0.0394776
 0.0396258
 0.0397747
 0.0399243
 0.0400744
 0.0402252
 0.0403767
 0.0405287
 0.0406815
 0.0408348
 0.0409888
 0.0411435
 0.0412988
 0.0414548
 0.0416115
 0.0417688
 0.0419268
 0.0420854
 0.0422447
 0.0424047
 0.0425654
 0.0427268
 0.0428888
 0.0430515
 0.0432150
 0.0433791
 0.0435439
 0.0437094
 0.0438756
 0.0440425
 0.0442102
 0.0443785
 0.0445476
 0.0447173
 0.0448878
 0.0450590
 0.0452310
 0.0454036
 0.0455770
 0.0457512
 0.0459261
 0.0461017
 0.0462781
 0.0464552
 0.0466330
 0.0468117
 0.0469910
 0.0471712
 0.0473521
 0.0475337
 0.0477162
 0.0478994
 0.0480834
 0.0482682
 0.0484537
 0.0486401
 0.0488272
 0.0490151
 0.0492038
 0.0493934
 0.0495837
 0.0497748
 0.0499667
 0.0501595
 0.0503531
 0.0505474
 0.0507427
 0.0509387
 0.0511356
 0.0513333
 0.0515318
 0.0517312
 0.0519314
 0.0521324
 0.0523343
 0.0525371
 0.0527407
 0.0529452
 0.0531505
 0.0533567
 0.0535638
 0.0537718
 0.0539806
 0.0541903
 0.0544009
 0.0546124
 0.0548247
 0.0550380
 0.0552522
 0.0554672
 0.0556832
 0.0559001
 0.0561178
 0.0563365
 0.0565562
 0.0567767
 0.0569982
 0.0572206
 0.0574439
 0.0576681
 0.0578933
 0.0581195
 0.0583466
 0.0585746
 0.0588036
 0.0590336
 0.0592645
 0.0594963
 0.0597292
 0.0599630
 0.0601978
 0.0604336
 0.0606703
 0.0609080
 0.0611468
 0.0613865
 0.0616272
 0.0618689
 0.0621116
 0.0623553
 0.0626001
 0.0628458
 0.0630926
 0.0633404
 0.0635892
 0.0638390
 0.0640899
 0.0643418
 0.0645948
 0.0648488
 0.0651038
 0.0653599
 0.0656170
 0.0658752
 0.0661345
 0.0663948
 0.0666562
 0.0669187
 0.0671822
 0.0674468
 0.0677126
 0.0679793
 0.0682472
 0.0685162
 0.0687863
 0.0690574
 0.0693297
 0.0696031
 0.0698776
 0.0701532
 0.0704299
 0.0707078
 0.0709868
 0.0712669
 0.0715481
 0.0718305
 0.0721140
 0.0723986
 0.0726845
 0.0729714
 0.0732595
 0.0735488
 0.0738392
 0.0741308
 0.0744236
 0.0747175
 0.0750126
 0.0753089
 0.0756063
 0.0759050
 0.0762048
 0.0765059
 0.0768081
 0.0771115
 0.0774161
 0.0777220
 0.0780290
 0.0783373
 0.0786467
 0.0789574
 0.0792693
 0.0795825
 0.0798968
 0.0802124
 0.0805293
 0.0808474
 0.0811667
 0.0814872
 0.0818090
 0.0821321
 0.0824564
 0.0827820
 0.0831088
 0.0834369
 0.0837663
 0.0840970
 0.0844289
 0.0847621
 0.0850965
 0.0854323
 0.0857693
 0.0861077
 0.0864473
 0.0867882
 0.0871304
 0.0874740
 0.0878188
 0.0881649
 0.0885124
 0.0888611
 0.0892112
 0.0895626
 0.0899153
 0.0902693
 0.0906247
 0.0909814
 0.0913394
 0.0916988
 0.0920595
 0.0924215
 0.0927849
 0.0931496
 0.0935157
 0.0938831
 0.0942519
 0.0946221
 0.0949936
 0.0953664
 0.0957407
 0.0961163
 0.0964932
 0.0968716
 0.0972513
 0.0976323
 0.0980148
 0.0983986
 0.0987839
 0.0991705
 0.0995585
 0.0999478
 0.1003386
 0.1007308
 0.1011243
 0.1015193
 0.1019157
 0.1023134
 0.1027126
 0.1031132
 0.1035151
 0.1039185
 0.1043233
 0.1047295
 0.1051371
 0.1055462
 0.1059566
 0.1063685
 0.1067818
 0.1071965
 0.1076126
 0.1080302
 0.1084492
 0.1088696
 0.1092915
 0.1097147
 0.1101394
 0.1105656
 0.1109932
 0.1114222
 0.1118526
 0.1122845
 0.1127178
 0.1131526
 0.1135888
 0.1140265
 0.1144655
 0.1149061
 0.1153481
 0.1157915
 0.1162364
 0.1166827
 0.1171304
 0.1175796
 0.1180303
 0.1184824
 0.1189360
 0.1193910
 0.1198474
 0.1203054
 0.1207647
 0.1212255
 0.1216878
 0.1221515
 0.1226167
 0.1230833
 0.1235514
 0.1240209
 0.1244919
 0.1249643
 0.1254382
 0.1259135
 0.1263903
 0.1268685
 0.1273482
 0.1278293
 0.1283119
 0.1287959
 0.1292814
 0.1297683
 0.1302567
 0.1307465
 0.1312378
 0.1317305
 0.1322247
 0.1327203
 0.1332173
 0.1337158
 0.1342157
 0.1347171
 0.1352199
 0.1357241
 0.1362298
 0.1367369
 0.1372455
 0.1377555
 0.1382669
 0.1387797
 0.1392940
 0.1398097
 0.1403268
 0.1408453
 0.1413653
 0.1418867
 0.1424095
 0.1429337
 0.1434593
 0.1439864
 0.1445148
 0.1450447
 0.1455759
 0.1461086
 0.1466427
 0.1471781
 0.1477150
 0.1482533
 0.1487929
 0.1493339
 0.1498764
 0.1504202
 0.1509654
 0.1515120
 0.1520599
 0.1526092
 0.1531599
 0.1537120
 0.1542654
 0.1548202
 0.1553763
 0.1559338
 0.1564927
 0.1570529
 0.1576145
 0.1581774
 0.1587416
 0.1593072
 0.1598741
 0.1604423
 0.1610119
 0.1615827
 0.1621549
 0.1627285
 0.1633033
 0.1638794
 0.1644569
 0.1650356
 0.1656156
 0.1661970
 0.1667796
 0.1673635
 0.1679487
 0.1685351
 0.1691228
 0.1697118
 0.1703021
 0.1708936
 0.1714864
 0.1720804
 0.1726757
 0.1732722
 0.1738699
 0.1744689
 0.1750691
 0.1756706
 0.1762732
 0.1768771
 0.1774822
 0.1780884
 0.1786959
 0.1793046
 0.1799144
 0.1805255
 0.1811377
 0.1817511
 0.1823657
 0.1829814
 0.1835983
 0.1842164
 0.1848356
 0.1854559
 0.1860774
 0.1867000
 0.1873238
 0.1879486
 0.1885746
 0.1892017
 0.1898299
 0.1904592
 0.1910896
 0.1917211
 0.1923536
 0.1929873
 0.1936220
 0.1942578
 0.1948947
 0.1955326
 0.1961715
 0.1968115
 0.1974525
 0.1980946
 0.1987377
 0.1993818
 0.2000270
 0.2006731
 0.2013202
 0.2019684
 0.2026175
 0.2032676
 0.2039187
 0.2045708
 0.2052238
 0.2058778
 0.2065328
 0.2071886
 0.2078455
 0.2085033
 0.2091620
 0.2098216
 0.2104821
 0.2111436
 0.2118059
 0.2124692
 0.2131333
 0.2137984
 0.2144643
 0.2151311
 0.2157987
 0.2164672
 0.2171366
 0.2178068
 0.2184779
 0.2191498
 0.2198225
 0.2204960
 0.2211704
 0.2218456
 0.2225215
 0.2231983
 0.2238758
 0.2245542
 0.2252333
 0.2259132
 0.2265938
 0.2272752
 0.2279574
 0.2286403
 0.2293240
 0.2300083
 0.2306934
 0.2313793
 0.2320658
 0.2327530
 0.2334410
 0.2341296
 0.2348189
 0.2355089
 0.2361996
 0.2368909
 0.2375829
 0.2382756
 0.2389689
 0.2396629
 0.2403574
 0.2410527
 0.2417485
 0.2424450
 0.2431420
 0.2438397
 0.2445380
 0.2452368
 0.2459363
 0.2466363
 0.2473369
 0.2480381
 0.2487398
 0.2494421
 0.2501449
 0.2508483
 0.2515522
 0.2522566
 0.2529616
 0.2536671
 0.2543730
 0.2550795
 0.2557865
 0.2564940
 0.2572020
 0.2579105
 0.2586194
 0.2593288
 0.2600387
 0.2607490
 0.2614598
 0.2621710
 0.2628826
 0.2635947
 0.2643073
 0.2650202
 0.2657336
 0.2664473
 0.2671615
 0.2678761
 0.2685911
 0.2693065
 0.2700222
 0.2707383
 0.2714548
 0.2721717
 0.2728889
 0.2736065
 0.2743245
 0.2750428
 0.2757614
 0.2764803
 0.2771996
 0.2779192
 0.2786392
 0.2793594
 0.2800800
 0.2808009
 0.2815220
 0.2822435
 0.2829652
 0.2836873
 0.2844096
 0.2851322
 0.2858550
 0.2865781
 0.2873015
 0.2880252
 0.2887490
 0.2894732
 0.2901975
 0.2909222
 0.2916470
 0.2923721
 0.2930974
 0.2938229
 0.2945486
 0.2952746
 0.2960007
 0.2967271
 0.2974536
 0.2981804
 0.2989073
 0.2996344
 0.3003617
 0.3010892
 0.3018169
 0.3025447
 0.3032727
 0.3040008
 0.3047291
 0.3054576
 0.3061862
 0.3069150
 0.3076439
 0.3083729
 0.3091021
 0.3098314
 0.3105608
 0.3112904
 0.3120201
 0.3127499
 0.3134798
 0.3142099
 0.3149400
 0.3156703
 0.3164006
 0.3171311
 0.3178616
 0.3185923
 0.3193230
 0.3200538
 0.3207848
 0.3215157
 0.3222468
 0.3229780
 0.3237092
 0.3244405
