LUTs/AgX_False_Color.cube
TITLE "False Color LUT for AgX Imagery"
# A Post Formation False Color LUT for AgX Image Formation
# This LUT expects values from 0.0 to 1.0, with inverse power function of 3.0 for precision reason
LUT_3D_SIZE 5
0.0000000 0.0000000 0.0000000
0.0000000 0.0000000 0.0000000
0.0000000 0.0000000 0.0000000
0.5000000 0.0000000 0.0000000
1.0000000 0.0000000 0.0000000
0.0000000 1.0000000 0.0000000
0.0000000 1.0000000 0.0000000
0.0000000 1.0000000 0.0000000
0.5000000 1.0000000 0.0000000
1.0000000 1.0000000 0.0000000
0.0000000 1.0000000 0.0000000
0.0000000 1.0000000 0.0000000
0.0000000 1.0000000 0.0000000
0.5000000 1.0000000 0.0000000
1.0000000 1.0000000 0.0000000
0.0000000 1.0000000 0.0000000
0.0000000 1.0000000 0.0000000
0.0000000 1.0000000 0.0000000
0.5000000 1.0000000 0.0000000
1.0000000 1.0000000 0.0000000
0.0000000 1.0000000 0.0000000
0.0000000 1.0000000 0.0000000
0.0000000 1.0000000 0.0000000
0.5000000 1.0000000 0.0000000
1.0000000 1.0000000 0.0000000
0.0000000 0.0000000 1.0000000
0.0000000 0.0000000 1.0000000
0.0000000 0.0000000 1.0000000
0.5000000 0.0000000 1.0000000
1.0000000 0.0000000 1.0000000
0.0000000 1.0000000 1.0000000
0.0000000 1.0000000 1.0000000
0.0000000 1.0000000 1.0000000
0.5000000 1.0000000 1.0000000
1.0000000 1.0000000 1.0000000
0.0000000 1.0000000 1.0000000
0.0000000 1.0000000 1.0000000
0.0000000 1.0000000 1.0000000
0.5000000 1.0000000 1.0000000
1.0000000 1.0000000 1.0000000
0.0000000 1.0000000 1.0000000
0.0000000 1.0000000 1.0000000
0.0000000 1.0000000 1.0000000
0.5000000 1.0000000 1.0000000
1.0000000 1.0000000 1.0000000
0.0000000 1.0000000 1.0000000
0.0000000 1.0000000 1.0000000
0.0000000 1.0000000 1.0000000
0.5000000 1.0000000 1.0000000
1.0000000 1.0000000 1.0000000
0.0000000 0.0000000 0.5000000
0.0000000 0.0000000 0.5000000
0.0000000 0.0000000 0.5000000
0.5000000 0.0000000 0.5000000
1.0000000 0.0000000 0.5000000
0.0000000 1.0000000 0.5000000
0.0000000 1.0000000 0.5000000
0.0000000 1.0000000 0.5000000
0.5000000 1.0000000 0.5000000
1.0000000 1.0000000 0.5000000
0.0000000 1.0000000 0.5000000
0.0000000 1.0000000 0.5000000
0.0000000 1.0000000 0.5000000
0.5000000 1.0000000 0.5000000
1.0000000 1.0000000 0.5000000
0.0000000 1.0000000 0.5000000
0.0000000 1.0000000 0.5000000
0.0000000 1.0000000 0.5000000
0.5000000 1.0000000 0.5000000
1.0000000 1.0000000 0.5000000
0.0000000 1.0000000 0.5000000
0.0000000 1.0000000 0.5000000
0.0000000 1.0000000 0.5000000
0.5000000 1.0000000 0.5000000
1.0000000 1.0000000 0.5000000
0.0000000 0.0000000 0.0000000
0.0000000 0.0000000 0.0000000
0.0000000 0.0000000 0.0000000
0.5000000 0.0000000 0.0000000
1.0000000 0.0000000 0.0000000
0.0000000 1.0000000 0.0000000
0.0000000 1.0000000 0.0000000
0.0000000 1.0000000 0.0000000
0.5000000 1.0000000 0.0000000
1.0000000 1.0000000 0.0000000
0.0000000 1.0000000 0.0000000
0.0000000 1.0000000 0.0000000
0.0000000 1.0000000 0.0000000
0.5000000 1.0000000 0.0000000
1.0000000 1.0000000 0.0000000
0.0000000 1.0000000 0.0000000
0.0000000 1.0000000 0.0000000
0.0000000 1.0000000 0.0000000
0.5000000 1.0000000 0.0000000
1.0000000 1.0000000 0.0000000
0.0000000 1.0000000 0.0000000
0.0000000 1.0000000 0.0000000
0.0000000 1.0000000 0.0000000
0.5000000 1.0000000 0.0000000
1.0000000 1.0000000 0.0000000
0.0000000 0.0000000 1.0000000
0.0000000 0.0000000 1.0000000
0.0000000 0.0000000 1.0000000
0.5000000 0.0000000 1.0000000
1.0000000 0.0000000 1.0000000
0.0000000 1.0000000 1.0000000
0.0000000 1.0000000 1.0000000
0.0000000 1.0000000 1.0000000
0.5000000 1.0000000 1.0000000
1.0000000 1.0000000 1.0000000
0.0000000 1.0000000 1.0000000
0.0000000 1.0000000 1.0000000
0.0000000 1.0000000 1.0000000
0.5000000 1.0000000 1.0000000
1.0000000 1.0000000 1.0000000
0.0000000 1.0000000 1.0000000
0.0000000 1.0000000 1.0000000
0.0000000 1.0000000 1.0000000
0.5000000 1.0000000 1.0000000
1.0000000 1.0000000 1.0000000
0.0000000 1.0000000 1.0000000
0.0000000 1.0000000 1.0000000
0.0000000 1.0000000 1.0000000
0.5000000 1.0000000 1.0000000
1.0000000 1.0000000 1.0000000
