LUTs/AgX_Default_Contrast.spi1d
Version 1
From 0.0000000 1.0000000
Length 4096
Components 1
{
 -0.0000000
 0.0000385
 0.0000770
 0.0001156
 0.0001542
 0.0001929
 0.0002315
 0.0002702
 0.0003089
 0.0003477
 0.0003865
 0.0004253
 0.0004642
 0.0005031
 0.0005420
 0.0005809
 0.0006199
 0.0006589
 0.0006980
 0.0007370
 0.0007761
 0.0008153
 0.0008545
 0.0008937
 0.0009329
 0.0009722
 0.0010115
 0.0010508
 0.0010902
 0.0011296
 0.0011690
 0.0012084
 0.0012479
 0.0012875
 0.0013270
 0.0013666
 0.0014062
 0.0014459
 0.0014856
 0.0015253
 0.0015651
 0.0016048
 0.0016447
 0.0016845
 0.0017244
 0.0017643
 0.0018043
 0.0018442
 0.0018843
 0.0019243
 0.0019644
 0.0020045
 0.0020446
 0.0020848
 0.0021250
 0.0021653
 0.0022056
 0.0022459
 0.0022862
 0.0023266
 0.0023670
 0.0024075
 0.0024479
 0.0024884
 0.0025290
 0.0025696
 0.0026102
 0.0026508
 0.0026915
 0.0027322
 0.0027730
 0.0028137
 0.0028546
 0.0028954
 0.0029363
 0.0029772
 0.0030182
 0.0030591
 0.0031002
 0.0031412
 0.0031823
 0.0032234
 0.0032646
 0.0033058
 0.0033470
 0.0033882
 0.0034295
 0.0034709
 0.0035122
 0.0035536
 0.0035950
 0.0036365
 0.0036780
 0.0037195
 0.0037611
 0.0038027
 0.0038443
 0.0038860
 0.0039277
 0.0039695
 0.0040112
 0.0040530
 0.0040949
 0.0041368
 0.0041787
 0.0042206
 0.0042626
 0.0043046
 0.0043467
 0.0043888
 0.0044309
 0.0044731
 0.0045153
 0.0045575
 0.0045998
 0.0046421
 0.0046844
 0.0047268
 0.0047692
 0.0048116
 0.0048541
 0.0048966
 0.0049392
 0.0049818
 0.0050244
 0.0050670
 0.0051097
 0.0051525
 0.0051952
 0.0052380
 0.0052809
 0.0053238
 0.0053667
 0.0054096
 0.0054526
 0.0054956
 0.0055387
 0.0055818
 0.0056249
 0.0056681
 0.0057113
 0.0057545
 0.0057978
 0.0058411
 0.0058844
 0.0059278
 0.0059712
 0.0060147
 0.0060582
 0.0061017
 0.0061453
 0.0061889
 0.0062325
 0.0062762
 0.0063199
 0.0063637
 0.0064075
 0.0064513
 0.0064952
 0.0065391
 0.0065830
 0.0066270
 0.0066710
 0.0067150
 0.0067591
 0.0068033
 0.0068474
 0.0068916
 0.0069359
 0.0069801
 0.0070244
 0.0070688
 0.0071132
 0.0071576
 0.0072021
 0.0072466
 0.0072911
 0.0073357
 0.0073803
 0.0074250
 0.0074697
 0.0075144
 0.0075592
 0.0076040
 0.0076488
 0.0076937
 0.0077386
 0.0077836
 0.0078286
 0.0078736
 0.0079187
 0.0079638
 0.0080090
 0.0080542
 0.0080994
 0.0081447
 0.0081900
 0.0082353
 0.0082807
 0.0083262
 0.0083716
 0.0084171
 0.0084627
 0.0085083
 0.0085539
 0.0085995
 0.0086452
 0.0086910
 0.0087368
 0.0087826
 0.0088284
 0.0088743
 0.0089203
 0.0089662
 0.0090123
 0.0090583
 0.0091044
 0.0091506
 0.0091967
 0.0092429
 0.0092892
 0.0093355
 0.0093818
 0.0094282
 0.0094746
 0.0095211
 0.0095676
 0.0096141
 0.0096607
 0.0097073
 0.0097540
 0.0098007
 0.0098474
 0.0098942
 0.0099410
 0.0099879
 0.0100348
 0.0100817
 0.0101287
 0.0101757
 0.0102228
 0.0102699
 0.0103170
 0.0103642
 0.0104115
 0.0104587
 0.0105060
 0.0105534
 0.0106008
 0.0106482
 0.0106957
 0.0107432
 0.0107908
 0.0108384
 0.0108860
 0.0109337
 0.0109814
 0.0110292
 0.0110770
 0.0111249
 0.0111728
 0.0112207
 0.0112687
 0.0113167
 0.0113647
 0.0114128
 0.0114610
 0.0115092
 0.0115574
 0.0116057
 0.0116540
 0.0117024
 0.0117508
 0.0117992
 0.0118477
 0.0118962
 0.0119448
 0.0119934
 0.0120420
 0.0120907
 0.0121395
 0.0121883
 0.0122371
 0.0122860
 0.0123349
 0.0123838
 0.0124328
 0.0124819
 0.0125310
 0.0125801
 0.0126293
 0.0126785
 0.0127277
 0.0127770
 0.0128264
 0.0128758
 0.0129252
 0.0129747
 0.0130242
 0.0130738
 0.0131234
 0.0131730
 0.0132227
 0.0132725
 0.0133223
 0.0133721
 0.0134220
 0.0134719
 0.0135218
 0.0135718
 0.0136219
 0.0136720
 0.0137221
 0.0137723
 0.0138225
 0.0138728
 0.0139231
 0.0139735
 0.0140239
 0.0140744
 0.0141248
 0.0141754
 0.0142260
 0.0142766
 0.0143273
 0.0143780
 0.0144288
 0.0144796
 0.0145305
 0.0145814
 0.0146323
 0.0146833
 0.0147343
 0.0147854
 0.0148366
 0.0148877
 0.0149390
 0.0149902
 0.0150416
 0.0150929
 0.0151443
 0.0151958
 0.0152473
 0.0152988
 0.0153504
 0.0154021
 0.0154537
 0.0155055
 0.0155572
 0.0156091
 0.0156609
 0.0157129
 0.0157648
 0.0158168
 0.0158689
 0.0159210
 0.0159732
 0.0160254
 0.0160776
 0.0161299
 0.0161822
 0.0162346
 0.0162871
 0.0163395
 0.0163921
 0.0164446
 0.0164973
 0.0165499
 0.0166027
 0.0166554
 0.0167082
 0.0167611
 0.0168140
 0.0168670
 0.0169200
 0.0169730
 0.0170261
 0.0170793
 0.0171325
 0.0171857
 0.0172390
 0.0172924
 0.0173458
 0.0173992
 0.0174527
 0.0175062
 0.0175598
 0.0176135
 0.0176671
 0.0177209
 0.0177747
 0.0178285
 0.0178824
 0.0179363
 0.0179903
 0.0180443
 0.0180984
 0.0181525
 0.0182067
 0.0182609
 0.0183152
 0.0183695
 0.0184239
 0.0184783
 0.0185328
 0.0185873
 0.0186419
 0.0186965
 0.0187512
 0.0188059
 0.0188606
 0.0189155
 0.0189703
 0.0190253
 0.0190802
 0.0191353
 0.0191903
 0.0192455
 0.0193006
 0.0193559
 0.0194111
 0.0194665
 0.0195218
 0.0195773
 0.0196328
 0.0196883
 0.0197439
 0.0197995
 0.0198552
 0.0199109
 0.0199667
 0.0200226
 0.0200784
 0.0201344
 0.0201904
 0.0202464
 0.0203025
 0.0203587
 0.0204149
 0.0204711
 0.0205274
 0.0205838
 0.0206402
 0.0206967
 0.0207532
 0.0208097
 0.0208663
 0.0209230
 0.0209797
 0.0210365
 0.0210933
 0.0211502
 0.0212072
 0.0212641
 0.0213212
 0.0213783
 0.0214354
 0.0214926
 0.0215499
 0.0216072
 0.0216645
 0.0217219
 0.0217794
 0.0218369
 0.0218945
 0.0219521
 0.0220098
 0.0220675
 0.0221253
 0.0221832
 0.0222411
 0.0222990
 0.0223570
 0.0224151
 0.0224732
 0.0225313
 0.0225896
 0.0226478
 0.0227062
 0.0227645
 0.0228230
 0.0228815
 0.0229400
 0.0229986
 0.0230573
 0.0231160
 0.0231748
 0.0232336
 0.0232925
 0.0233514
 0.0234104
 0.0234694
 0.0235285
 0.0235877
 0.0236469
 0.0237062
 0.0237655
 0.0238249
 0.0238843
 0.0239438
 0.0240033
 0.0240629
 0.0241226
 0.0241823
 0.0242421
 0.0243019
 0.0243618
 0.0244217
 0.0244817
 0.0245418
 0.0246019
 0.0246620
 0.0247223
 0.0247825
 0.0248429
 0.0249033
 0.0249637
 0.0250242
 0.0250848
 0.0251454
 0.0252061
 0.0252668
 0.0253276
 0.0253885
 0.0254494
 0.0255104
 0.0255714
 0.0256325
 0.0256936
 0.0257548
 0.0258161
 0.0258774
 0.0259388
 0.0260002
 0.0260617
 0.0261232
 0.0261848
 0.0262465
 0.0263082
 0.0263700
 0.0264319
 0.0264938
 0.0265557
 0.0266178
 0.0266798
 0.0267420
 0.0268042
 0.0268664
 0.0269288
 0.0269911
 0.0270536
 0.0271161
 0.0271786
 0.0272412
 0.0273039
 0.0273667
 0.0274295
 0.0274923
 0.0275552
 0.0276182
 0.0276812
 0.0277443
 0.0278075
 0.0278707
 0.0279340
 0.0279973
 0.0280608
 0.0281242
 0.0281877
 0.0282513
 0.0283150
 0.0283787
 0.0284425
 0.0285063
 0.0285702
 0.0286341
 0.0286981
 0.0287622
 0.0288264
 0.0288906
 0.0289548
 0.0290192
 0.0290835
 0.0291480
 0.0292125
 0.0292771
 0.0293417
 0.0294064
 0.0294712
 0.0295360
 0.0296009
 0.0296658
 0.0297309
 0.0297959
 0.0298611
 0.0299263
 0.0299915
 0.0300569
 0.0301223
 0.0301877
 0.0302532
 0.0303188
 0.0303845
 0.0304502
 0.0305160
 0.0305818
 0.0306477
 0.0307137
 0.0307797
 0.0308458
 0.0309120
 0.0309782
 0.0310445
 0.0311108
 0.0311772
 0.0312437
 0.0313103
 0.0313769
 0.0314436
 0.0315103
 0.0315771
 0.0316440
 0.0317109
 0.0317780
 0.0318450
 0.0319122
 0.0319794
 0.0320466
 0.0321140
 0.0321814
 0.0322488
 0.0323164
 0.0323840
 0.0324516
 0.0325194
 0.0325872
 0.0326550
 0.0327230
 0.0327910
 0.0328590
 0.0329272
 0.0329954
 0.0330636
 0.0331320
 0.0332004
 0.0332688
 0.0333374
 0.0334060
 0.0334747
 0.0335434
 0.0336122
 0.0336811
 0.0337500
 0.0338190
 0.0338881
 0.0339573
 0.0340265
 0.0340958
 0.0341651
 0.0342345
 0.0343040
 0.0343736
 0.0344432
 0.0345129
 0.0345827
 0.0346525
 0.0347224
 0.0347924
 0.0348625
 0.0349326
 0.0350028
 0.0350730
 0.0351433
 0.0352137
 0.0352842
 0.0353547
 0.0354253
 0.0354960
 0.0355667
 0.0356376
 0.0357084
 0.0357794
 0.0358504
 0.0359215
 0.0359927
 0.0360639
 0.0361352
 0.0362066
 0.0362781
 0.0363496
 0.0364212
 0.0364929
 0.0365646
 0.0366364
 0.0367083
 0.0367803
 0.0368523
 0.0369244
 0.0369966
 0.0370688
 0.0371411
 0.0372135
 0.0372860
 0.0373585
 0.0374311
 0.0375038
 0.0375766
 0.0376494
 0.0377223
 0.0377953
 0.0378683
 0.0379414
 0.0380146
 0.0380879
 0.0381612
 0.0382347
 0.0383082
 0.0383817
 0.0384554
 0.0385291
 0.0386029
 0.0386767
 0.0387507
 0.0388247
 0.0388988
 0.0389729
 0.0390472
 0.0391215
 0.0391959
 0.0392703
 0.0393449
 0.0394195
 0.0394942
 0.0395689
 0.0396438
 0.0397187
 0.0397937
 0.0398687
 0.0399439
 0.0400191
 0.0400944
 0.0401698
 0.0402452
 0.0403208
 0.0403964
 0.0404720
 0.0405478
 0.0406236
 0.0406995
 0.0407755
 0.0408516
 0.0409277
 0.0410040
 0.0410803
 0.0411567
 0.0412331
 0.0413096
 0.0413863
 0.0414629
 0.0415397
 0.0416166
 0.0416935
 0.0417705
 0.0418476
 0.0419247
 0.0420020
 0.0420793
 0.0421567
 0.0422342
 0.0423117
 0.0423894
 0.0424671
 0.0425449
 0.0426228
 0.0427007
 0.0427788
 0.0428569
 0.0429351
 0.0430134
 0.0430917
 0.0431702
 0.0432487
 0.0433273
 0.0434060
 0.0434848
 0.0435636
 0.0436425
 0.0437215
 0.0438006
 0.0438798
 0.0439591
 0.0440384
 0.0441178
 0.0441973
 0.0442769
 0.0443566
 0.0444363
 0.0445161
 0.0445960
 0.0446760
 0.0447561
 0.0448363
 0.0449165
 0.0449969
 0.0450773
 0.0451578
 0.0452383
 0.0453190
 0.0453997
 0.0454806
 0.0455615
 0.0456425
 0.0457236
 0.0458047
 0.0458860
 0.0459673
 0.0460487
 0.0461302
 0.0462118
 0.0462935
 0.0463753
 0.0464571
 0.0465390
 0.0466211
 0.0467032
 0.0467853
 0.0468676
 0.0469500
 0.0470324
 0.0471150
 0.0471976
 0.0472803
 0.0473631
 0.0474459
 0.0475289
 0.0476120
 0.0476951
 0.0477783
 0.0478616
 0.0479450
 0.0480285
 0.0481121
 0.0481958
 0.0482795
 0.0483634
 0.0484473
 0.0485313
 0.0486154
 0.0486996
 0.0487839
 0.0488683
 0.0489527
 0.0490373
 0.0491219
 0.0492066
 0.0492914
 0.0493763
 0.0494613
 0.0495464
 0.0496316
 0.0497169
 0.0498022
 0.0498877
 0.0499732
 0.0500588
 0.0501445
 0.0502304
 0.0503162
 0.0504022
 0.0504883
 0.0505745
 0.0506608
 0.0507471
 0.0508336
 0.0509201
 0.0510067
 0.0510934
 0.0511803
 0.0512672
 0.0513542
 0.0514413
 0.0515284
 0.0516157
 0.0517031
 0.0517906
 0.0518781
 0.0519658
 0.0520535
 0.0521413
 0.0522293
 0.0523173
 0.0524054
 0.0524936
 0.0525819
 0.0526703
 0.0527588
 0.0528474
 0.0529361
 0.0530249
 0.0531137
 0.0532027
 0.0532918
 0.0533809
 0.0534702
 0.0535595
 0.0536490
 0.0537385
 0.0538282
 0.0539179
 0.0540077
 0.0540977
 0.0541877
 0.0542778
 0.0543680
 0.0544583
 0.0545488
 0.0546393
 0.0547299
 0.0548206
 0.0549114
 0.0550023
 0.0550933
 0.0551844
 0.0552756
 0.0553669
 0.0554583
 0.0555498
 0.0556413
 0.0557330
 0.0558248
 0.0559167
 0.0560087
 0.0561008
 0.0561930
 0.0562852
 0.0563776
 0.0564701
 0.0565627
 0.0566554
 0.0567482
 0.0568411
 0.0569340
 0.0570271
 0.0571203
 0.0572136
 0.0573070
 0.0574005
 0.0574941
 0.0575878
 0.0576816
 0.0577755
 0.0578695
 0.0579636
 0.0580578
 0.0581521
 0.0582465
 0.0583410
 0.0584357
 0.0585304
 0.0586252
 0.0587201
 0.0588152
 0.0589103
 0.0590055
 0.0591009
 0.0591963
 0.0592919
 0.0593876
 0.0594833
 0.0595792
 0.0596752
 0.0597712
 0.0598674
 0.0599637
 0.0600601
 0.0601566
 0.0602532
 0.0603499
 0.0604467
 0.0605437
 0.0606407
 0.0607378
 0.0608351
 0.0609324
 0.0610299
 0.0611274
 0.0612251
 0.0613229
 0.0614208
 0.0615188
 0.0616169
 0.0617151
 0.0618134
 0.0619119
 0.0620104
 0.0621090
 0.0622078
 0.0623067
 0.0624056
 0.0625047
 0.0626039
 0.0627032
 0.0628026
 0.0629021
 0.0630018
 0.0631015
 0.0632014
 0.0633013
 0.0634014
 0.0635016
 0.0636019
 0.0637023
 0.0638028
 0.0639035
 0.0640042
 0.0641051
 0.0642060
 0.0643071
 0.0644083
 0.0645096
 0.0646110
 0.0647126
 0.0648142
 0.0649160
 0.0650178
 0.0651198
 0.0652219
 0.0653241
 0.0654265
 0.0655289
 0.0656315
 0.0657341
 0.0658369
 0.0659398
 0.0660428
 0.0661460
 0.0662492
 0.0663526
 0.0664560
 0.0665596
 0.0666633
 0.0667672
 0.0668711
 0.0669752
 0.0670793
 0.0671836
 0.0672880
 0.0673926
 0.0674972
 0.0676020
 0.0677068
 0.0678118
 0.0679170
 0.0680222
 0.0681275
 0.0682330
 0.0683386
 0.0684443
 0.0685501
 0.0686561
 0.0687621
 0.0688683
 0.0689746
 0.0690811
 0.0691876
 0.0692943
 0.0694011
 0.0695080
 0.0696150
 0.0697221
 0.0698294
 0.0699368
 0.0700443
 0.0701520
 0.0702597
 0.0703676
 0.0704756
 0.0705837
 0.0706920
 0.0708003
 0.0709088
 0.0710174
 0.0711262
 0.0712350
 0.0713440
 0.0714531
 0.0715624
 0.0716717
 0.0717812
 0.0718908
 0.0720006
 0.0721104
 0.0722204
 0.0723305
 0.0724407
 0.0725511
 0.0726616
 0.0727722
 0.0728829
 0.0729938
 0.0731048
 0.0732159
 0.0733272
 0.0734385
 0.0735500
 0.0736617
 0.0737734
 0.0738853
 0.0739973
 0.0741094
 0.0742217
 0.0743341
 0.0744466
 0.0745593
 0.0746721
 0.0747850
 0.0748980
 0.0750112
 0.0751245
 0.0752379
 0.0753515
 0.0754652
 0.0755790
 0.0756930
 0.0758071
 0.0759213
 0.0760356
 0.0761501
 0.0762647
 0.0763795
 0.0764944
 0.0766094
 0.0767245
 0.0768398
 0.0769552
 0.0770708
 0.0771864
 0.0773022
 0.0774182
 0.0775343
 0.0776505
 0.0777668
 0.0778833
 0.0779999
 0.0781167
 0.0782336
 0.0783506
 0.0784678
 0.0785851
 0.0787025
 0.0788201
 0.0789378
 0.0790556
 0.0791736
 0.0792917
 0.0794100
 0.0795284
 0.0796469
 0.0797655
 0.0798844
 0.0800033
 0.0801224
 0.0802416
 0.0803610
 0.0804805
 0.0806001
 0.0807199
 0.0808398
 0.0809599
 0.0810801
 0.0812004
 0.0813209
 0.0814415
 0.0815623
 0.0816832
 0.0818042
 0.0819254
 0.0820467
 0.0821682
 0.0822898
 0.0824116
 0.0825335
 0.0826555
 0.0827777
 0.0829000
 0.0830225
 0.0831451
 0.0832679
 0.0833908
 0.0835138
 0.0836370
 0.0837603
 0.0838838
 0.0840074
 0.0841312
 0.0842551
 0.0843792
 0.0845034
 0.0846278
 0.0847523
 0.0848769
 0.0850017
 0.0851267
 0.0852518
 0.0853770
 0.0855024
 0.0856279
 0.0857536
 0.0858795
 0.0860054
 0.0861316
 0.0862579
 0.0863843
 0.0865109
 0.0866376
 0.0867645
 0.0868915
 0.0870187
 0.0871460
 0.0872735
 0.0874012
 0.0875290
 0.0876569
 0.0877850
 0.0879132
 0.0880416
 0.0881702
 0.0882989
 0.0884277
 0.0885567
 0.0886859
 0.0888152
 0.0889447
 0.0890743
 0.0892041
 0.0893340
 0.0894641
 0.0895944
 0.0897248
 0.0898553
 0.0899860
 0.0901169
 0.0902479
 0.0903791
 0.0905105
 0.0906420
 0.0907736
 0.0909054
 0.0910374
 0.0911695
 0.0913018
 0.0914343
 0.0915669
 0.0916996
 0.0918325
 0.0919656
 0.0920989
 0.0922323
 0.0923658
 0.0924996
 0.0926334
 0.0927675
 0.0929017
 0.0930361
 0.0931706
 0.0933053
 0.0934401
 0.0935751
 0.0937103
 0.0938457
 0.0939812
 0.0941168
 0.0942527
 0.0943887
 0.0945248
 0.0946611
 0.0947976
 0.0949343
 0.0950711
 0.0952081
 0.0953452
 0.0954826
 0.0956200
 0.0957577
 0.0958955
 0.0960335
 0.0961716
 0.0963100
 0.0964484
 0.0965871
 0.0967259
 0.0968649
 0.0970041
 0.0971434
 0.0972829
 0.0974226
 0.0975624
 0.0977024
 0.0978426
 0.0979829
 0.0981235
 0.0982641
 0.0984050
 0.0985460
 0.0986872
 0.0988286
 0.0989702
 0.0991119
 0.0992538
 0.0993959
 0.0995381
 0.0996805
 0.0998231
 0.0999659
 0.1001088
 0.1002519
 0.1003952
 0.1005387
 0.1006823
 0.1008261
 0.1009701
 0.1011143
 0.1012586
 0.1014032
 0.1015479
 0.1016927
 0.1018378
 0.1019830
 0.1021284
 0.1022740
 0.1024198
 0.1025657
 0.1027119
 0.1028582
 0.1030047
 0.1031513
 0.1032982
 0.1034452
 0.1035924
 0.1037398
 0.1038874
 0.1040351
 0.1041831
 0.1043312
 0.1044795
 0.1046280
 0.1047766
 0.1049255
 0.1050745
 0.1052237
 0.1053732
 0.1055227
 0.1056725
 0.1058225
 0.1059726
 0.1061229
 0.1062735
 0.1064242
 0.1065751
 0.1067261
 0.1068774
 0.1070289
 0.1071805
 0.1073323
 0.1074843
 0.1076365
 0.1077889
 0.1079415
 0.1080943
 0.1082473
 0.1084004
 0.1085538
 0.1087073
 0.1088610
 0.1090149
 0.1091690
 0.1093233
 0.1094778
 0.1096325
 0.1097874
 0.1099425
 0.1100977
 0.1102532
 0.1104088
 0.1105647
 0.1107207
 0.1108770
 0.1110334
 0.1111900
 0.1113469
 0.1115039
 0.1116611
 0.1118185
 0.1119761
 0.1121339
 0.1122919
 0.1124501
 0.1126085
 0.1127671
 0.1129259
 0.1130849
 0.1132441
 0.1134035
 0.1135631
 0.1137229
 0.1138829
 0.1140431
 0.1142035
 0.1143641
 0.1145249
 0.1146859
 0.1148471
 0.1150086
 0.1151702
 0.1153320
 0.1154940
 0.1156562
 0.1158187
 0.1159813
 0.1161442
 0.1163072
 0.1164705
 0.1166339
 0.1167976
 0.1169615
 0.1171255
 0.1172898
 0.1174543
 0.1176190
 0.1177839
 0.1179491
 0.1181144
 0.1182799
 0.1184457
 0.1186116
 0.1187778
 0.1189442
 0.1191108
 0.1192776
 0.1194446
 0.1196118
 0.1197792
 0.1199469
 0.1201148
 0.1202828
 0.1204511
 0.1206196
 0.1207883
 0.1209573
 0.1211264
 0.1212958
 0.1214654
 0.1216352
 0.1218052
 0.1219754
 0.1221458
 0.1223165
 0.1224874
 0.1226585
 0.1228298
 0.1230013
 0.1231731
 0.1233450
 0.1235172
 0.1236896
 0.1238623
 0.1240351
 0.1242082
 0.1243815
 0.1245550
 0.1247287
 0.1249027
 0.1250769
 0.1252513
 0.1254259
 0.1256008
 0.1257758
 0.1259512
 0.1261267
 0.1263024
 0.1264784
 0.1266546
 0.1268310
 0.1270077
 0.1271846
 0.1273617
 0.1275390
 0.1277166
 0.1278944
 0.1280724
 0.1282507
 0.1284291
 0.1286078
 0.1287868
 0.1289660
 0.1291454
 0.1293250
 0.1295049
 0.1296850
 0.1298653
 0.1300458
 0.1302266
 0.1304077
 0.1305889
 0.1307704
 0.1309522
 0.1311341
 0.1313163
 0.1314988
 0.1316814
 0.1318643
 0.1320475
 0.1322309
 0.1324145
 0.1325983
 0.1327824
 0.1329668
 0.1331513
 0.1333361
 0.1335212
 0.1337065
 0.1338920
 0.1340778
 0.1342638
 0.1344501
 0.1346366
 0.1348233
 0.1350103
 0.1351975
 0.1353850
 0.1355727
 0.1357606
 0.1359488
 0.1361373
 0.1363260
 0.1365149
 0.1367041
 0.1368935
 0.1370832
 0.1372731
 0.1374633
 0.1376537
 0.1378444
 0.1380353
 0.1382264
 0.1384178
 0.1386095
 0.1388014
 0.1389936
 0.1391860
 0.1393787
 0.1395716
 0.1397647
 0.1399582
 0.1401518
 0.1403458
 0.1405400
 0.1407344
 0.1409291
 0.1411240
 0.1413192
 0.1415147
 0.1417104
 0.1419064
 0.1421026
 0.1422991
 0.1424958
 0.1426928
 0.1428901
 0.1430876
 0.1432854
 0.1434834
 0.1436817
 0.1438803
 0.1440791
 0.1442782
 0.1444775
 0.1446771
 0.1448770
 0.1450771
 0.1452775
 0.1454781
 0.1456791
 0.1458802
 0.1460817
 0.1462834
 0.1464854
 0.1466876
 0.1468902
 0.1470929
 0.1472960
 0.1474993
 0.1477029
 0.1479067
 0.1481109
 0.1483153
 0.1485199
 0.1487248
 0.1489301
 0.1491355
 0.1493413
 0.1495473
 0.1497536
 0.1499601
 0.1501670
 0.1503741
 0.1505815
 0.1507891
 0.1509971
 0.1512053
 0.1514138
 0.1516225
 0.1518316
 0.1520409
 0.1522505
 0.1524604
 0.1526705
 0.1528809
 0.1530917
 0.1533026
 0.1535139
 0.1537255
 0.1539373
 0.1541494
 0.1543618
 0.1545745
 0.1547874
 0.1550007
 0.1552142
 0.1554280
 0.1556421
 0.1558565
 0.1560712
 0.1562861
 0.1565013
 0.1567169
 0.1569327
 0.1571488
 0.1573652
 0.1575818
 0.1577988
 0.1580161
 0.1582336
 0.1584514
 0.1586696
 0.1588880
 0.1591067
 0.1593257
 0.1595450
 0.1597646
 0.1599845
 0.1602046
 0.1604251
 0.1606459
 0.1608669
 0.1610883
 0.1613099
 0.1615319
 0.1617541
 0.1619767
 0.1621995
 0.1624226
 0.1626461
 0.1628698
 0.1630938
 0.1633182
 0.1635428
 0.1637678
 0.1639930
 0.1642185
 0.1644444
 0.1646705
 0.1648970
 0.1651237
 0.1653508
 0.1655782
 0.1658058
 0.1660338
 0.1662621
 0.1664907
 0.1667196
 0.1669488
 0.1671783
 0.1674081
 0.1676382
 0.1678687
 0.1680994
 0.1683305
 0.1685619
 0.1687935
 0.1690255
 0.1692579
 0.1694905
 0.1697234
 0.1699567
 0.1701902
 0.1704241
 0.1706583
 0.1708928
 0.1711276
 0.1713628
 0.1715982
 0.1718340
 0.1720701
 0.1723065
 0.1725432
 0.1727803
 0.1730177
 0.1732553
 0.1734934
 0.1737317
 0.1739704
 0.1742093
 0.1744486
 0.1746883
 0.1749282
 0.1751685
 0.1754091
 0.1756500
 0.1758913
 0.1761328
 0.1763747
 0.1766170
 0.1768595
 0.1771024
 0.1773457
 0.1775892
 0.1778331
 0.1780773
 0.1783218
 0.1785667
 0.1788119
 0.1790574
 0.1793033
 0.1795495
 0.1797960
 0.1800429
 0.1802901
 0.1805376
 0.1807855
 0.1810337
 0.1812823
 0.1815312
 0.1817804
 0.1820300
 0.1822799
 0.1825301
 0.1827807
 0.1830316
 0.1832829
 0.1835345
 0.1837864
 0.1840387
 0.1842913
 0.1845443
 0.1847976
 0.1850513
 0.1853053
 0.1855597
 0.1858144
 0.1860694
 0.1863248
 0.1865806
 0.1868367
 0.1870931
 0.1873499
 0.1876070
 0.1878645
 0.1881223
 0.1883805
 0.1886391
 0.1888980
 0.1891572
 0.1894168
 0.1896768
 0.1899371
 0.1901978
 0.1904588
 0.1907202
 0.1909819
 0.1912440
 0.1915064
 0.1917692
 0.1920324
 0.1922959
 0.1925598
 0.1928240
 0.1930887
 0.1933536
 0.1936189
 0.1938846
 0.1941507
 0.1944171
 0.1946839
 0.1949510
 0.1952185
 0.1954864
 0.1957546
 0.1960233
 0.1962922
 0.1965616
 0.1968313
 0.1971014
 0.1973718
 0.1976426
 0.1979138
 0.1981854
 0.1984573
 0.1987296
 0.1990023
 0.1992753
 0.1995487
 0.1998225
 0.2000967
 0.2003713
 0.2006462
 0.2009215
 0.2011971
 0.2014732
 0.2017496
 0.2020264
 0.2023036
 0.2025812
 0.2028591
 0.2031375
 0.2034162
 0.2036953
 0.2039747
 0.2042546
 0.2045348
 0.2048154
 0.2050964
 0.2053778
 0.2056596
 0.2059418
 0.2062243
 0.2065073
 0.2067906
 0.2070743
 0.2073584
 0.2076429
 0.2079278
 0.2082130
 0.2084987
 0.2087847
 0.2090712
 0.2093580
 0.2096453
 0.2099329
 0.2102209
 0.2105093
 0.2107981
 0.2110873
 0.2113769
 0.2116669
 0.2119573
 0.2122481
 0.2125393
 0.2128309
 0.2131229
 0.2134153
 0.2137081
 0.2140013
 0.2142949
 0.2145889
 0.2148833
 0.2151781
 0.2154733
 0.2157689
 0.2160649
 0.2163614
 0.2166582
 0.2169554
 0.2172531
 0.2175511
 0.2178496
 0.2181485
 0.2184478
 0.2187475
 0.2190476
 0.2193481
 0.2196490
 0.2199504
 0.2202521
 0.2205543
 0.2208569
 0.2211599
 0.2214633
 0.2217671
 0.2220714
 0.2223760
 0.2226811
 0.2229866
 0.2232925
 0.2235989
 0.2239056
 0.2242128
 0.2245204
 0.2248284
 0.2251369
 0.2254457
 0.2257550
 0.2260648
 0.2263749
 0.2266855
 0.2269964
 0.2273079
 0.2276197
 0.2279320
 0.2282447
 0.2285578
 0.2288714
 0.2291853
 0.2294998
 0.2298146
 0.2301299
 0.2304456
 0.2307617
 0.2310783
 0.2313953
 0.2317128
 0.2320306
 0.2323490
 0.2326677
 0.2329869
 0.2333065
 0.2336266
 0.2339471
 0.2342680
 0.2345894
 0.2349112
 0.2352335
 0.2355562
 0.2358793
 0.2362029
 0.2365269
 0.2368514
 0.2371763
 0.2375016
 0.2378274
 0.2381537
 0.2384804
 0.2388075
 0.2391351
 0.2394631
 0.2397916
 0.2401205
 0.2404499
 0.2407797
 0.2411100
 0.2414407
 0.2417719
 0.2421035
 0.2424356
 0.2427682
 0.2431012
 0.2434346
 0.2437685
 0.2441029
 0.2444377
 0.2447730
 0.2451087
 0.2454449
 0.2457815
 0.2461186
 0.2464562
 0.2467942
 0.2471327
 0.2474716
 0.2478110
 0.2481509
 0.2484912
 0.2488320
 0.2491733
 0.2495150
 0.2498572
 0.2501999
 0.2505430
 0.2508866
 0.2512306
 0.2515751
 0.2519201
 0.2522656
 0.2526115
 0.2529579
 0.2533048
 0.2536521
 0.2539999
 0.2543482
 0.2546970
 0.2550462
 0.2553959
 0.2557461
 0.2560967
