LUTs/AgX_Formation.cube
TITLE "AgX_Formation"
# AgX Formation LUT
# This LUT expects input to be Log2 encoding from -10 stops to +15 stops
# But the end image formation will be from -10 to 6.5
# The image formed has 30% per-channel shifts
LUT_3D_SIZE 36
0.0000000 0.0000000 0.0000000
0.0073479 0.0000000 0.0000000
0.0158973 0.0000000 0.0000000
0.0259276 0.0000000 0.0000000
0.0378019 0.0000000 0.0000000
0.0519977 0.0000000 0.0000000
0.0691488 0.0000000 0.0000000
0.0901050 0.0000000 0.0000000
0.1160109 0.0000000 0.0000000
0.1484082 0.0000000 0.0000000
0.1893460 0.0000000 0.0000000
0.2414407 0.0000000 0.0000000
0.3077051 0.0000000 0.0000000
0.3906587 0.0000000 0.0000000
0.4894371 0.0000000 0.0000000
0.5896668 0.0000000 0.0000000
0.6780216 0.0000000 0.0000000
0.7527733 0.0000000 0.0000000
0.8148935 0.0000000 0.0000000
0.8661976 0.0000000 0.0000000
0.9085847 0.0000000 0.0000000
0.9437472 0.0000000 0.0000000
0.9730927 0.0000000 0.0000000
0.9977549 0.0000000 0.0000000
1.0000000 0.0000000 0.0000000
1.0000000 0.0000000 0.0000000
1.0000000 0.0000000 0.0000000
1.0000000 0.0000000 0.0000000
1.0000000 0.0000000 0.0000000
1.0000000 0.0000000 0.0000000
1.0000000 0.0000000 0.0000000
1.0000000 0.0000000 0.0000000
1.0000000 0.0000000 0.0000000
1.0000000 0.0000000 0.0000000
1.0000000 0.0000000 0.0000000
1.0000000 0.0000000 0.0000000
0.0000000 0.0073479 0.0000000
0.0073479 0.0073479 0.0000000
0.0158973 0.0096295 0.0000000
0.0259276 0.0112403 0.0000000
0.0378019 0.0124502 0.0000000
0.0519977 0.0133846 0.0000000
0.0691488 0.0141246 0.0000000
0.0901050 0.0147322 0.0000000
0.1160109 0.0152592 0.0000000
0.1484082 0.0157491 0.0000000
0.1893460 0.0162373 0.0000000
0.2414407 0.0167458 0.0000000
0.3077051 0.0172716 0.0000000
0.3906587 0.0177611 0.0000000
0.4894371 0.0180574 0.0000000
0.5896668 0.0177411 0.0000000
0.6780216 0.0167376 0.0000000
0.7527733 0.0153313 0.0000000
0.8148935 0.0137653 0.0000000
0.8661976 0.0122022 0.0000000
0.9085847 0.0107365 0.0000000
0.9437472 0.0094147 0.0000000
0.9730927 0.0082530 0.0000000
0.9977549 0.0072502 0.0000000
1.0000000 0.0063189 0.0000000
1.0000000 0.0055519 0.0000000
1.0000000 0.0049279 0.0000000
1.0000000 0.0044202 0.0000000
1.0000000 0.0040072 0.0000000
1.0000000 0.0036711 0.0000000
1.0000000 0.0033977 0.0000000
1.0000000 0.0031752 0.0000000
1.0000000 0.0029943 0.0000000
1.0000000 0.0028470 0.0000000
1.0000000 0.0027272 0.0000000
1.0000000 0.0026298 0.0000000
0.0000000 0.0158973 0.0000000
0.0096295 0.0158973 0.0000000
0.0158973 0.0158973 0.0000000
0.0259276 0.0183113 0.0000000
0.0378019 0.0201246 0.0000000
0.0519977 0.0215250 0.0000000
0.0691488 0.0226340 0.0000000
0.0901050 0.0235447 0.0000000
0.1160109 0.0243344 0.0000000
0.1484082 0.0250686 0.0000000
0.1893460 0.0258003 0.0000000
0.2414407 0.0265624 0.0000000
0.3077051 0.0273504 0.0000000
0.3906587 0.0280840 0.0000000
0.4894371 0.0285280 0.0000000
0.5896668 0.0280541 0.0000000
0.6780216 0.0265501 0.0000000
0.7527733 0.0244426 0.0000000
0.8148935 0.0220956 0.0000000
0.8661976 0.0197530 0.0000000
0.9085847 0.0175563 0.0000000
0.9437472 0.0155752 0.0000000
0.9730927 0.0138343 0.0000000
0.9977549 0.0123314 0.0000000
1.0000000 0.0109356 0.0000000
1.0000000 0.0097861 0.0000000
1.0000000 0.0088509 0.0000000
1.0000000 0.0080901 0.0000000
1.0000000 0.0074710 0.0000000
1.0000000 0.0069674 0.0000000
1.0000000 0.0065576 0.0000000
1.0000000 0.0062243 0.0000000
1.0000000 0.0059530 0.0000000
1.0000000 0.0057324 0.0000000
1.0000000 0.0055528 0.0000000
1.0000000 0.0054067 0.0000000
0.0000000 0.0259276 0.0000000
0.0112403 0.0259276 0.0000000
0.0183113 0.0259276 0.0000000
0.0259276 0.0259276 0.0000000
0.0378019 0.0283578 0.0000000
0.0519977 0.0302346 0.0000000
0.0691488 0.0317209 0.0000000
0.0901050 0.0329414 0.0000000
0.1160109 0.0339997 0.0000000
0.1484082 0.0349838 0.0000000
0.1893460 0.0359644 0.0000000
0.2414407 0.0369857 0.0000000
0.3077051 0.0380418 0.0000000
0.3906587 0.0390250 0.0000000
0.4894371 0.0396201 0.0000000
0.5896668 0.0389849 0.0000000
0.6780216 0.0369693 0.0000000
0.7527733 0.0341447 0.0000000
0.8148935 0.0309993 0.0000000
0.8661976 0.0278597 0.0000000
0.9085847 0.0249157 0.0000000
0.9437472 0.0222607 0.0000000
0.9730927 0.0199274 0.0000000
0.9977549 0.0179132 0.0000000
1.0000000 0.0160425 0.0000000
1.0000000 0.0145020 0.0000000
1.0000000 0.0132487 0.0000000
1.0000000 0.0122289 0.0000000
1.0000000 0.0113993 0.0000000
1.0000000 0.0107243 0.0000000
1.0000000 0.0101752 0.0000000
1.0000000 0.0097284 0.0000000
1.0000000 0.0093649 0.0000000
1.0000000 0.0090691 0.0000000
1.0000000 0.0088285 0.0000000
1.0000000 0.0086327 0.0000000
0.0000000 0.0378019 0.0000000
0.0124502 0.0378019 0.0000000
0.0201246 0.0378019 0.0000000
0.0283578 0.0378019 0.0000000
0.0378019 0.0378019 0.0000000
0.0519977 0.0402151 0.0000000
0.0691488 0.0421262 0.0000000
0.0901050 0.0436955 0.0000000
0.1160109 0.0450564 0.0000000
0.1484082 0.0463217 0.0000000
0.1893460 0.0475825 0.0000000
0.2414407 0.0488958 0.0000000
0.3077051 0.0502537 0.0000000
0.3906587 0.0515179 0.0000000
0.4894371 0.0522831 0.0000000
0.5896668 0.0514663 0.0000000
0.6780216 0.0488747 0.0000000
0.7527733 0.0452428 0.0000000
0.8148935 0.0411983 0.0000000
0.8661976 0.0371615 0.0000000
0.9085847 0.0333760 0.0000000
0.9437472 0.0299622 0.0000000
0.9730927 0.0269620 0.0000000
0.9977549 0.0243721 0.0000000
1.0000000 0.0219668 0.0000000
1.0000000 0.0199860 0.0000000
1.0000000 0.0183744 0.0000000
1.0000000 0.0170633 0.0000000
1.0000000 0.0159965 0.0000000
1.0000000 0.0151286 0.0000000
1.0000000 0.0144225 0.0000000
1.0000000 0.0138480 0.0000000
1.0000000 0.0133806 0.0000000
1.0000000 0.0130003 0.0000000
1.0000000 0.0126910 0.0000000
1.0000000 0.0124392 0.0000000
0.0000000 0.0519977 0.0000000
0.0133846 0.0519977 0.0000000
0.0215250 0.0519977 0.0000000
0.0302346 0.0519977 0.0000000
0.0402151 0.0519977 0.0000000
0.0519977 0.0519977 0.0000000
0.0691488 0.0544067 0.0000000
0.0901050 0.0563849 0.0000000
0.1160109 0.0581003 0.0000000
0.1484082 0.0596954 0.0000000
0.1893460 0.0612847 0.0000000
0.2414407 0.0629402 0.0000000
0.3077051 0.0646520 0.0000000
0.3906587 0.0662455 0.0000000
0.4894371 0.0672101 0.0000000
0.5896668 0.0661805 0.0000000
0.6780216 0.0629136 0.0000000
0.7527733 0.0583354 0.0000000
0.8148935 0.0532370 0.0000000
0.8661976 0.0481483 0.0000000
0.9085847 0.0433765 0.0000000
0.9437472 0.0390731 0.0000000
0.9730927 0.0352912 0.0000000
0.9977549 0.0320265 0.0000000
1.0000000 0.0289944 0.0000000
1.0000000 0.0264975 0.0000000
1.0000000 0.0244660 0.0000000
1.0000000 0.0228132 0.0000000
1.0000000 0.0214685 0.0000000
1.0000000 0.0203744 0.0000000
1.0000000 0.0194843 0.0000000
1.0000000 0.0187601 0.0000000
1.0000000 0.0181709 0.0000000
1.0000000 0.0176915 0.0000000
1.0000000 0.0173015 0.0000000
1.0000000 0.0169842 0.0000000
0.0000000 0.0691488 0.0000000
0.0141246 0.0691488 0.0000000
0.0226340 0.0691488 0.0000000
0.0317209 0.0691488 0.0000000
0.0421262 0.0691488 0.0000000
0.0544067 0.0691488 0.0000000
0.0691488 0.0691488 0.0000000
0.0901050 0.0716163 0.0000000
0.1160109 0.0737559 0.0000000
0.1484082 0.0757454 0.0000000
0.1893460 0.0777277 0.0000000
0.2414407 0.0797927 0.0000000
0.3077051 0.0819277 0.0000000
0.3906587 0.0839154 0.0000000
0.4894371 0.0851185 0.0000000
0.5896668 0.0838343 0.0000000
0.6780216 0.0797594 0.0000000
0.7527733 0.0740491 0.0000000
0.8148935 0.0676900 0.0000000
0.8661976 0.0613428 0.0000000
0.9085847 0.0553910 0.0000000
0.9437472 0.0500233 0.0000000
0.9730927 0.0453062 0.0000000
0.9977549 0.0412342 0.0000000
1.0000000 0.0374523 0.0000000
1.0000000 0.0343379 0.0000000
1.0000000 0.0318040 0.0000000
1.0000000 0.0297425 0.0000000
1.0000000 0.0280652 0.0000000
1.0000000 0.0267006 0.0000000
1.0000000 0.0255904 0.0000000
1.0000000 0.0246871 0.0000000
1.0000000 0.0239522 0.0000000
1.0000000 0.0233543 0.0000000
1.0000000 0.0228679 0.0000000
1.0000000 0.0224721 0.0000000
0.0000000 0.0901050 0.0000000
0.0147322 0.0901050 0.0000000
0.0235447 0.0901050 0.0000000
0.0329414 0.0901050 0.0000000
0.0436955 0.0901050 0.0000000
0.0563849 0.0901050 0.0000000
0.0716163 0.0901050 0.0000000
0.0901050 0.0901050 0.0000000
0.1160109 0.0927578 0.0000000
0.1484082 0.0952245 0.0000000
0.1893460 0.0976823 0.0000000
0.2414407 0.1002425 0.0000000
0.3077051 0.1028897 0.0000000
0.3906587 0.1053541 0.0000000
0.4894371 0.1068458 0.0000000
0.5896668 0.1052536 0.0000000
0.6780216 0.1002013 0.0000000
0.7527733 0.0931213 0.0000000
0.8148935 0.0852369 0.0000000
0.8661976 0.0773674 0.0000000
0.9085847 0.0699879 0.0000000
0.9437472 0.0633328 0.0000000
0.9730927 0.0574843 0.0000000
0.9977549 0.0524355 0.0000000
1.0000000 0.0477465 0.0000000
1.0000000 0.0438851 0.0000000
1.0000000 0.0407435 0.0000000
1.0000000 0.0381875 0.0000000
1.0000000 0.0361079 0.0000000
1.0000000 0.0344160 0.0000000
1.0000000 0.0330395 0.0000000
1.0000000 0.0319196 0.0000000
1.0000000 0.0310084 0.0000000
1.0000000 0.0302671 0.0000000
1.0000000 0.0296640 0.0000000
1.0000000 0.0291733 0.0000000
0.0000000 0.1160109 0.0000000
0.0152592 0.1160109 0.0000000
0.0243344 0.1160109 0.0000000
0.0339997 0.1160109 0.0000000
0.0450564 0.1160109 0.0000000
0.0581003 0.1160109 0.0000000
0.0737559 0.1160109 0.0000000
0.0927578 0.1160109 0.0000000
0.1160109 0.1160109 0.0000000
0.1484082 0.1190585 0.0000000
0.1893460 0.1220953 0.0000000
0.2414407 0.1252586 0.0000000
0.3077051 0.1285293 0.0000000
0.3906587 0.1315741 0.0000000
0.4894371 0.1334172 0.0000000
0.5896668 0.1314499 0.0000000
0.6780216 0.1252076 0.0000000
0.7527733 0.1164600 0.0000000
0.8148935 0.1067185 0.0000000
0.8661976 0.0969954 0.0000000
0.9085847 0.0878777 0.0000000
0.9437472 0.0796551 0.0000000
0.9730927 0.0724289 0.0000000
0.9977549 0.0661910 0.0000000
1.0000000 0.0603976 0.0000000
1.0000000 0.0556266 0.0000000
1.0000000 0.0517450 0.0000000
1.0000000 0.0485870 0.0000000
1.0000000 0.0460176 0.0000000
1.0000000 0.0439272 0.0000000
1.0000000 0.0422264 0.0000000
1.0000000 0.0408427 0.0000000
1.0000000 0.0397169 0.0000000
1.0000000 0.0388010 0.0000000
1.0000000 0.0380558 0.0000000
1.0000000 0.0374495 0.0000000
0.0000000 0.1484082 0.0000000
0.0157491 0.1484082 0.0000000
0.0250686 0.1484082 0.0000000
0.0349838 0.1484082 0.0000000
0.0463217 0.1484082 0.0000000
0.0596954 0.1484082 0.0000000
0.0757454 0.1484082 0.0000000
0.0952245 0.1484082 0.0000000
0.1190585 0.1484082 0.0000000
0.1484082 0.1484082 0.0000000
0.1893460 0.1521526 0.0000000
0.2414407 0.1560528 0.0000000
0.3077051 0.1600856 0.0000000
0.3906587 0.1638398 0.0000000
0.4894371 0.1661123 0.0000000
0.5896668 0.1636867 0.0000000
0.6780216 0.1559900 0.0000000
0.7527733 0.1452043 0.0000000
0.8148935 0.1331931 0.0000000
0.8661976 0.1212046 0.0000000
0.9085847 0.1099627 0.0000000
0.9437472 0.0998242 0.0000000
0.9730927 0.0909145 0.0000000
0.9977549 0.0832232 0.0000000
1.0000000 0.0760800 0.0000000
1.0000000 0.0701974 0.0000000
1.0000000 0.0654114 0.0000000
1.0000000 0.0615176 0.0000000
1.0000000 0.0583496 0.0000000
1.0000000 0.0557721 0.0000000
1.0000000 0.0536751 0.0000000
1.0000000 0.0519690 0.0000000
1.0000000 0.0505809 0.0000000
1.0000000 0.0494516 0.0000000
1.0000000 0.0485328 0.0000000
1.0000000 0.0477852 0.0000000
0.0000000 0.1893460 0.0000000
0.0162373 0.1893460 0.0000000
0.0258003 0.1893460 0.0000000
0.0359644 0.1893460 0.0000000
0.0475825 0.1893460 0.0000000
0.0612847 0.1893460 0.0000000
0.0777277 0.1893460 0.0000000
0.0976823 0.1893460 0.0000000
0.1220953 0.1893460 0.0000000
0.1521526 0.1893460 0.0000000
0.1893460 0.1893460 0.0000000
0.2414407 0.1941490 0.0000000
0.3077051 0.1991151 0.0000000
0.3906587 0.2037384 0.0000000
0.4894371 0.2065369 0.0000000
0.5896668 0.2035498 0.0000000
0.6780216 0.1940716 0.0000000
0.7527733 0.1807895 0.0000000
0.8148935 0.1659982 0.0000000
0.8661976 0.1512348 0.0000000
0.9085847 0.1373908 0.0000000
0.9437472 0.1249057 0.0000000
0.9730927 0.1139337 0.0000000
0.9977549 0.1044622 0.0000000
1.0000000 0.0956656 0.0000000
1.0000000 0.0884215 0.0000000
1.0000000 0.0825277 0.0000000
1.0000000 0.0777326 0.0000000
1.0000000 0.0738314 0.0000000
1.0000000 0.0706573 0.0000000
1.0000000 0.0680749 0.0000000
1.0000000 0.0659739 0.0000000
1.0000000 0.0642646 0.0000000
1.0000000 0.0628738 0.0000000
1.0000000 0.0617423 0.0000000
1.0000000 0.0608218 0.0000000
0.0000000 0.2414407 0.0000000
0.0167458 0.2414407 0.0000000
0.0265624 0.2414407 0.0000000
0.0369857 0.2414407 0.0000000
0.0488958 0.2414407 0.0000000
0.0629402 0.2414407 0.0000000
0.0797927 0.2414407 0.0000000
0.1002425 0.2414407 0.0000000
0.1252586 0.2414407 0.0000000
0.1560528 0.2414407 0.0000000
0.1941490 0.2414407 0.0000000
0.2414407 0.2414407 0.0000000
0.3077051 0.2475518 0.0000000
0.3906587 0.2532408 0.0000000
0.4894371 0.2566845 0.0000000
0.5896668 0.2530088 0.0000000
0.6780216 0.2413455 0.0000000
0.7527733 0.2250013 0.0000000
0.8148935 0.2068001 0.0000000
0.8661976 0.1886332 0.0000000
0.9085847 0.1715976 0.0000000
0.9437472 0.1562342 0.0000000
0.9730927 0.1427328 0.0000000
0.9977549 0.1310777 0.0000000
1.0000000 0.1202531 0.0000000
1.0000000 0.1113390 0.0000000
1.0000000 0.1040865 0.0000000
1.0000000 0.0981859 0.0000000
1.0000000 0.0933853 0.0000000
1.0000000 0.0894795 0.0000000
1.0000000 0.0863018 0.0000000
1.0000000 0.0837164 0.0000000
1.0000000 0.0816130 0.0000000
1.0000000 0.0799016 0.0000000
1.0000000 0.0785093 0.0000000
1.0000000 0.0773765 0.0000000
0.0000001 0.3077051 0.0000000
0.0172716 0.3077051 0.0000000
0.0273504 0.3077051 0.0000000
0.0380418 0.3077051 0.0000000
0.0502537 0.3077051 0.0000000
0.0646520 0.3077051 0.0000000
0.0819277 0.3077051 0.0000000
0.1028897 0.3077051 0.0000000
0.1285293 0.3077051 0.0000000
0.1600856 0.3077051 0.0000000
0.1991151 0.3077051 0.0000000
0.2475518 0.3077051 0.0000000
0.3077051 0.3077051 0.0000000
0.3906587 0.3147025 0.0000000
0.4894371 0.3189381 0.0000000
0.5896668 0.3144171 0.0000000
0.6780216 0.3000715 0.0000000
0.7527733 0.2799685 0.0000000
0.8148935 0.2575813 0.0000000
0.8661976 0.2352364 0.0000000
0.9085847 0.2142830 0.0000000
0.9437472 0.1953863 0.0000000
0.9730927 0.1787798 0.0000000
0.9977549 0.1644443 0.0000000
1.0000000 0.1511303 0.0000000
1.0000000 0.1401661 0.0000000
1.0000000 0.1312457 0.0000000
1.0000000 0.1239881 0.0000000
1.0000000 0.1180834 0.0000000
1.0000000 0.1132793 0.0000000
1.0000000 0.1093708 0.0000000
1.0000000 0.1061909 0.0000000
1.0000000 0.1036037 0.0000000
1.0000000 0.1014987 0.0000000
1.0000000 0.0997862 0.0000000
1.0000000 0.0983929 0.0000000
0.0000000 0.3906587 0.0000000
0.0177611 0.3906587 0.0000000
0.0280840 0.3906587 0.0000000
0.0390250 0.3906587 0.0000000
0.0515179 0.3906587 0.0000000
0.0662455 0.3906587 0.0000000
0.0839154 0.3906587 0.0000000
0.1053541 0.3906587 0.0000000
0.1315741 0.3906587 0.0000000
0.1638398 0.3906587 0.0000000
0.2037384 0.3906587 0.0000000
0.2532408 0.3906587 0.0000000
0.3147025 0.3906587 0.0000000
0.3906587 0.3906587 0.0000000
0.4894371 0.3958670 0.0000000
0.5896668 0.3903077 0.0000000
0.6780216 0.3726678 0.0000000
0.7527733 0.3479483 0.0000000
0.8148935 0.3204201 0.0000000
0.8661976 0.2929439 0.0000000
0.9085847 0.2671787 0.0000000
0.9437472 0.2439427 0.0000000
0.9730927 0.2235225 0.0000000
0.9977549 0.2058951 0.0000000
1.0000000 0.1895236 0.0000000
1.0000000 0.1760415 0.0000000
1.0000000 0.1650726 0.0000000
1.0000000 0.1561484 0.0000000
1.0000000 0.1488877 0.0000000
1.0000000 0.1429805 0.0000000
1.0000000 0.1381744 0.0000000
1.0000000 0.1342642 0.0000000
1.0000000 0.1310829 0.0000000
1.0000000 0.1284946 0.0000000
1.0000000 0.1263888 0.0000000
1.0000000 0.1246755 0.0000000
0.0000000 0.4894371 0.0000000
0.0180574 0.4894371 0.0000000
0.0285280 0.4894371 0.0000000
0.0396201 0.4894371 0.0000000
0.0522831 0.4894371 0.0000000
0.0672101 0.4894371 0.0000000
0.0851185 0.4894371 0.0000000
0.1068458 0.4894371 0.0000000
0.1334172 0.4894371 0.0000000
0.1661123 0.4894371 0.0000000
0.2065369 0.4894371 0.0000000
0.2566845 0.4894371 0.0000000
0.3189381 0.4894371 0.0000000
0.3958670 0.4894371 0.0000000
0.4894371 0.4894371 0.0000000
0.5896668 0.4826023 0.0000000
0.6780216 0.4609152 0.0000000
0.7527733 0.4305242 0.0000000
0.8148935 0.3966800 0.0000000
0.8661976 0.3628998 0.0000000
0.9085847 0.3312232 0.0000000
0.9437472 0.3026559 0.0000000
0.9730927 0.2775507 0.0000000
0.9977549 0.2558789 0.0000000
1.0000000 0.2357512 0.0000000
1.0000000 0.2191759 0.0000000
1.0000000 0.2056904 0.0000000
1.0000000 0.1947186 0.0000000
1.0000000 0.1857921 0.0000000
1.0000000 0.1785295 0.0000000
1.0000000 0.1726208 0.0000000
1.0000000 0.1678134 0.0000000
1.0000000 0.1639022 0.0000000
1.0000000 0.1607200 0.0000000
1.0000000 0.1581311 0.0000000
1.0000000 0.1560247 0.0000000
0.0000000 0.5896668 0.0000000
0.0177411 0.5896668 0.0000000
0.0280541 0.5896668 0.0000000
0.0389849 0.5896668 0.0000000
0.0514663 0.5896668 0.0000000
0.0661805 0.5896668 0.0000000
0.0838343 0.5896668 0.0000000
0.1052536 0.5896668 0.0000000
0.1314499 0.5896668 0.0000000
0.1636867 0.5896668 0.0000000
0.2035498 0.5896668 0.0000000
0.2530088 0.5896668 0.0000000
0.3144171 0.5896668 0.0000000
0.3903077 0.5896668 0.0000000
0.4826023 0.5896668 0.0000000
0.5896668 0.5896668 0.0000000
0.6780216 0.5630067 0.0000000
0.7527733 0.5256467 0.0000000
0.8148935 0.4840417 0.0000000
0.8661976 0.4425154 0.0000000
0.9085847 0.4035750 0.0000000
0.9437472 0.3684570 0.0000000
0.9730927 0.3375949 0.0000000
0.9977549 0.3109535 0.0000000
1.0000000 0.2862104 0.0000000
1.0000000 0.2658342 0.0000000
1.0000000 0.2492563 0.0000000
1.0000000 0.2357686 0.0000000
1.0000000 0.2247952 0.0000000
1.0000000 0.2158672 0.0000000
1.0000000 0.2086035 0.0000000
1.0000000 0.2026938 0.0000000
1.0000000 0.1978857 0.0000000
1.0000000 0.1939738 0.0000000
1.0000000 0.1907912 0.0000000
1.0000000 0.1882018 0.0000000
0.0000002 0.6780216 0.0000000
0.0167376 0.6780216 0.0000000
0.0265501 0.6780216 0.0000000
0.0369693 0.6780216 0.0000000
0.0488747 0.6780216 0.0000000
0.0629136 0.6780216 0.0000000
0.0797594 0.6780216 0.0000000
0.1002013 0.6780216 0.0000000
0.1252076 0.6780216 0.0000000
0.1559900 0.6780216 0.0000000
0.1940716 0.6780216 0.0000000
0.2413455 0.6780216 0.0000000
0.3000715 0.6780216 0.0000000
0.3726678 0.6780216 0.0000000
0.4609152 0.6780216 0.0000000
0.5630067 0.6780216 0.0000000
0.6780216 0.6780216 0.0000000
0.7527733 0.6320974 0.0000000
0.8148935 0.5809553 0.0000000
0.8661976 0.5299097 0.0000000
0.9085847 0.4820429 0.0000000
0.9437472 0.4388747 0.0000000
0.9730927 0.4009380 0.0000000
0.9977549 0.3681895 0.0000000
1.0000000 0.3377744 0.0000000
1.0000000 0.3127273 0.0000000
1.0000000 0.2923492 0.0000000
1.0000000 0.2757697 0.0000000
1.0000000 0.2622807 0.0000000
1.0000000 0.2513062 0.0000000
1.0000000 0.2423774 0.0000000
1.0000000 0.2351130 0.0000000
1.0000000 0.2292027 0.0000000
1.0000000 0.2243941 0.0000000
1.0000000 0.2204819 0.0000000
1.0000000 0.2172989 0.0000000
0.0000000 0.7527733 0.0000000
0.0153313 0.7527733 0.0000000
0.0244426 0.7527733 0.0000000
0.0341447 0.7527733 0.0000000
0.0452428 0.7527733 0.0000000
0.0583354 0.7527733 0.0000000
0.0740491 0.7527733 0.0000000
0.0931213 0.7527733 0.0000000
0.1164600 0.7527733 0.0000000
0.1452043 0.7527733 0.0000000
0.1807895 0.7527733 0.0000000
0.2250013 0.7527733 0.0000000
0.2799685 0.7527733 0.0000000
0.3479483 0.7527733 0.0000000
0.4305242 0.7527733 0.0000000
0.5256467 0.7527733 0.0000000
0.6320974 0.7527733 0.0000000
0.7527733 0.7527733 0.0000000
0.8148935 0.6899100 0.0000000
0.8661976 0.6271654 0.0000000
0.9085847 0.5683282 0.0000000
0.9437472 0.5152664 0.0000000
0.9730927 0.4686351 0.0000000
0.9977549 0.4283811 0.0000000
1.0000000 0.3909952 0.0000000
1.0000000 0.3602077 0.0000000
1.0000000 0.3351592 0.0000000
1.0000000 0.3147799 0.0000000
1.0000000 0.2981994 0.0000000
1.0000000 0.2847097 0.0000000
1.0000000 0.2737345 0.0000000
1.0000000 0.2648052 0.0000000
1.0000000 0.2575404 0.0000000
1.0000000 0.2516297 0.0000000
1.0000000 0.2468209 0.0000000
1.0000000 0.2429084 0.0000000
0.0000002 0.8148935 0.0000000
0.0137653 0.8148935 0.0000000
0.0220956 0.8148935 0.0000000
0.0309993 0.8148935 0.0000000
0.0411983 0.8148935 0.0000000
0.0532370 0.8148935 0.0000000
0.0676900 0.8148935 0.0000000
0.0852369 0.8148935 0.0000000
0.1067185 0.8148935 0.0000000
0.1331931 0.8148935 0.0000000
0.1659982 0.8148935 0.0000000
0.2068001 0.8148935 0.0000000
0.2575813 0.8148935 0.0000000
0.3204201 0.8148935 0.0000000
0.3966800 0.8148935 0.0000000
0.4840417 0.8148935 0.0000000
0.5809553 0.8148935 0.0000000
0.6899100 0.8148935 0.0000000
0.8148935 0.8148935 0.0000000
0.8661976 0.7377705 0.0000000
0.9085847 0.6654502 0.0000000
0.9437472 0.6002288 0.0000000
0.9730927 0.5429116 0.0000000
0.9977549 0.4934330 0.0000000
1.0000000 0.4474799 0.0000000
1.0000000 0.4096371 0.0000000
1.0000000 0.3788485 0.0000000
1.0000000 0.3537991 0.0000000
1.0000000 0.3334191 0.0000000
1.0000000 0.3168381 0.0000000
1.0000000 0.3033479 0.0000000
1.0000000 0.2923723 0.0000000
1.0000000 0.2834427 0.0000000
1.0000000 0.2761776 0.0000000
1.0000000 0.2702667 0.0000000
1.0000000 0.2654577 0.0000000
0.0000002 0.8661976 0.0000000
0.0122022 0.8661976 0.0000000
0.0197530 0.8661976 0.0000000
0.0278597 0.8661976 0.0000000
0.0371615 0.8661976 0.0000000
0.0481483 0.8661976 0.0000000
0.0613428 0.8661976 0.0000000
0.0773674 0.8661976 0.0000000
0.0969954 0.8661976 0.0000000
0.1212046 0.8661976 0.0000000
0.1512348 0.8661976 0.0000000
0.1886332 0.8661976 0.0000000
0.2352364 0.8661976 0.0000000
0.2929439 0.8661976 0.0000000
0.3628998 0.8661976 0.0000000
0.4425154 0.8661976 0.0000000
0.5299097 0.8661976 0.0000000
0.6271654 0.8661976 0.0000000
0.7377705 0.8661976 0.0000000
0.8661976 0.8661976 0.0000000
0.9085847 0.7773057 0.0000000
0.9437472 0.6971395 0.0000000
0.9730927 0.6266885 0.0000000
0.9977549 0.5658724 0.0000000
1.0000000 0.5093895 0.0000000
1.0000000 0.4628753 0.0000000
1.0000000 0.4250318 0.0000000
1.0000000 0.3942426 0.0000000
1.0000000 0.3691927 0.0000000
1.0000000 0.3488123 0.0000000
1.0000000 0.3322309 0.0000000
1.0000000 0.3187404 0.0000000
1.0000000 0.3077646 0.0000000
1.0000000 0.2988348 0.0000000
1.0000000 0.2915695 0.0000000
1.0000000 0.2856585 0.0000000
0.0000000 0.9085847 0.0000000
0.0107365 0.9085847 0.0000000
0.0175563 0.9085847 0.0000000
0.0249157 0.9085847 0.0000000
0.0333760 0.9085847 0.0000000
0.0433765 0.9085847 0.0000000
0.0553910 0.9085847 0.0000000
0.0699879 0.9085847 0.0000000
0.0878777 0.9085847 0.0000000
0.1099627 0.9085847 0.0000000
0.1373908 0.9085847 0.0000000
0.1715976 0.9085847 0.0000000
0.2142830 0.9085847 0.0000000
0.2671787 0.9085847 0.0000000
0.3312232 0.9085847 0.0000000
0.4035750 0.9085847 0.0000000
0.4820429 0.9085847 0.0000000
0.5683282 0.9085847 0.0000000
0.6654502 0.9085847 0.0000000
0.7773057 0.9085847 0.0000000
0.9085847 0.9085847 0.0000000
0.9437472 0.8100500 0.0000000
0.9730927 0.7234565 0.0000000
0.9977549 0.6487056 0.0000000
1.0000000 0.5792807 0.0000000
1.0000000 0.5221087 0.0000000
1.0000000 0.4755940 0.0000000
1.0000000 0.4377501 0.0000000
1.0000000 0.4069605 0.0000000
1.0000000 0.3819103 0.0000000
1.0000000 0.3615296 0.0000000
1.0000000 0.3449480 0.0000000
1.0000000 0.3314573 0.0000000
1.0000000 0.3204814 0.0000000
1.0000000 0.3115514 0.0000000
1.0000000 0.3042861 0.0000000
0.0000000 0.9437472 0.0000000
0.0094147 0.9437472 0.0000000
0.0155752 0.9437472 0.0000000
0.0222607 0.9437472 0.0000000
0.0299622 0.9437472 0.0000000
0.0390731 0.9437472 0.0000000
0.0500233 0.9437472 0.0000000
0.0633328 0.9437472 0.0000000
0.0796551 0.9437472 0.0000000
0.0998242 0.9437472 0.0000000
0.1249057 0.9437472 0.0000000
0.1562342 0.9437472 0.0000000
0.1953863 0.9437472 0.0000000
0.2439427 0.9437472 0.0000000
0.3026559 0.9437472 0.0000000
0.3684570 0.9437472 0.0000000
0.4388747 0.9437472 0.0000000
0.5152664 0.9437472 0.0000000
0.6002288 0.9437472 0.0000000
0.6971395 0.9437472 0.0000000
0.8100500 0.9437472 0.0000000
0.9437472 0.9437472 0.0000000
0.9730927 0.8373131 0.0000000
0.9977549 0.7454348 0.0000000
1.0000000 0.6601030 0.0000000
1.0000000 0.5898315 0.0000000
1.0000000 0.5326593 0.0000000
1.0000000 0.4861444 0.0000000
1.0000000 0.4483001 0.0000000
1.0000000 0.4175103 0.0000000
1.0000000 0.3924599 0.0000000
1.0000000 0.3720791 0.0000000
1.0000000 0.3554973 0.0000000
1.0000000 0.3420065 0.0000000
1.0000000 0.3310305 0.0000000
1.0000000 0.3221005 0.0000000
