LUTs/AgX_Formation.cube
TITLE "AgX_Formation"
# AgX Formation LUT
# This LUT expects input to be Log2 encoding from -10 stops to +15 stops
# But the end image formation will be from -10 to 6.5
# The image formed has 30% per-channel shifts
LUT_3D_SIZE 8
0.0000000 0.0000000 0.0000000
0.0519977 0.0000000 0.0000000
0.1893460 0.0000000 0.0000000
0.5896668 0.0000000 0.0000000
0.9085847 0.0000000 0.0000000
1.0000000 0.0000000 0.0000000
1.0000000 0.0000000 0.0000000
1.0000000 0.0000000 0.0000000
0.0000000 0.0519977 0.0000000
0.0519977 0.0519977 0.0000000
0.1893460 0.0612847 0.0000000
0.5896668 0.0661805 0.0000000
0.9085847 0.0433765 0.0000000
1.0000000 0.0264975 0.0000000
1.0000000 0.0194843 0.0000000
1.0000000 0.0169842 0.0000000
0.0000000 0.1893460 0.0000000
0.0612847 0.1893460 0.0000000
0.1893460 0.1893460 0.0000000
0.5896668 0.2035498 0.0000000
0.9085847 0.1373908 0.0000000
1.0000000 0.0884215 0.0000000
1.0000000 0.0680749 0.0000000
1.0000000 0.0608218 0.0000000
0.0000000 0.5896668 0.0000000
0.0661805 0.5896668 0.0000000
0.2035498 0.5896668 0.0000000
0.5896668 0.5896668 0.0000000
0.9085847 0.4035750 0.0000000
1.0000000 0.2658342 0.0000000
1.0000000 0.2086035 0.0000000
1.0000000 0.1882018 0.0000000
0.0000000 0.9085847 0.0000000
0.0433765 0.9085847 0.0000000
0.1373908 0.9085847 0.0000000
0.4035750 0.9085847 0.0000000
0.9085847 0.9085847 0.0000000
1.0000000 0.5221087 0.0000000
1.0000000 0.3615296 0.0000000
1.0000000 0.3042861 0.0000000
0.0000000 1.0000000 0.0000000
0.0264975 1.0000000 0.0000000
0.0884215 1.0000000 0.0000000
0.2658342 1.0000000 0.0000000
0.5221087 1.0000000 0.0000000
1.0000000 1.0000000 0.0000000
1.0000000 0.5495376 0.0000000
1.0000000 0.3889559 0.0000000
0.0000003 1.0000000 0.0000000
0.0194843 1.0000000 0.0000000
0.0680749 1.0000000 0.0000000
0.2086035 1.0000000 0.0000000
0.3615296 1.0000000 0.0000000
0.5495376 1.0000000 0.0000000
1.0000000 1.0000000 0.0000000
1.0000000 0.5495380 0.0000000
0.0000003 1.0000000 0.0000000
0.0169842 1.0000000 0.0000000
0.0608218 1.0000000 0.0000000
0.1882018 1.0000000 0.0000000
0.3042861 1.0000000 0.0000000
0.3889559 1.0000000 0.0000000
0.5495380 1.0000000 0.0000000
1.0000000 1.0000000 0.0000000
0.0000000 0.0000000 0.0519977
0.0519977 0.0000000 0.0519977
0.1893460 0.0000000 0.0612847
0.5896668 0.0000000 0.0661805
0.9085847 0.0000000 0.0433765
1.0000000 0.0000000 0.0264975
1.0000000 0.0000000 0.0194843
1.0000000 0.0000000 0.0169842
0.0000000 0.0519977 0.0519977
0.0519977 0.0519977 0.0519977
0.1893460 0.0519977 0.0519977
0.5896668 0.0519977 0.0519977
0.9085847 0.0519977 0.0519977
1.0000000 0.0519977 0.0519977
1.0000000 0.0519977 0.0519977
1.0000000 0.0519977 0.0519977
0.0000000 0.1893460 0.0612847
0.0519977 0.1893460 0.0519977
0.1893460 0.1893460 0.0519977
0.5896668 0.2011324 0.0519977
0.9085847 0.1397076 0.0519977
1.0000000 0.1017309 0.0519977
1.0000000 0.0940276 0.0519977
1.0000000 0.0932726 0.0519977
0.0000000 0.5896668 0.0661805
0.0519977 0.5896668 0.0519977
0.2011324 0.5896668 0.0519977
0.5896668 0.5896668 0.0519977
0.9085847 0.4040867 0.0519977
1.0000000 0.2697836 0.0519977
1.0000000 0.2224453 0.0519977
1.0000000 0.2141921 0.0519977
0.0000000 0.9085847 0.0433765
0.0519977 0.9085847 0.0519977
0.1397076 0.9085847 0.0519977
0.4040867 0.9085847 0.0519977
0.9085847 0.9085847 0.0519977
1.0000000 0.5229927 0.0519977
1.0000000 0.3656829 0.0519977
1.0000000 0.3181722 0.0519977
0.0000000 1.0000000 0.0264975
0.0519977 1.0000000 0.0519977
0.1017309 1.0000000 0.0519977
0.2697836 1.0000000 0.0519977
0.5229927 1.0000000 0.0519977
1.0000000 1.0000000 0.0519977
1.0000000 0.5504689 0.0519977
1.0000000 0.3931263 0.0519977
0.0000000 1.0000000 0.0194843
0.0519977 1.0000000 0.0519977
0.0940276 1.0000000 0.0519977
0.2224453 1.0000000 0.0519977
0.3656829 1.0000000 0.0519977
0.5504689 1.0000000 0.0519977
1.0000000 1.0000000 0.0519977
1.0000000 0.5504732 0.0519977
0.0000000 1.0000000 0.0169842
0.0519977 1.0000000 0.0519977
0.0932726 1.0000000 0.0519977
0.2141921 1.0000000 0.0519977
0.3181722 1.0000000 0.0519977
0.3931263 1.0000000 0.0519977
0.5504732 1.0000000 0.0519977
1.0000000 1.0000000 0.0519977
0.0000000 0.0000000 0.1893460
0.0612847 0.0000000 0.1893460
0.1893460 0.0000000 0.1893460
0.5896668 0.0000000 0.2035498
0.9085847 0.0000000 0.1373908
1.0000000 0.0000000 0.0884215
1.0000000 0.0000000 0.0680749
1.0000000 0.0000000 0.0608218
0.0000000 0.0612847 0.1893460
0.0519977 0.0519977 0.1893460
0.1893460 0.0519977 0.1893460
0.5896668 0.0519977 0.2011324
0.9085847 0.0519977 0.1397076
1.0000000 0.0519977 0.1017309
1.0000000 0.0519977 0.0940276
1.0000000 0.0519977 0.0932726
0.0000000 0.1893460 0.1893460
0.0519977 0.1893460 0.1893460
0.1893460 0.1893460 0.1893460
0.5896668 0.1893460 0.1893460
0.9085847 0.1893460 0.1893460
1.0000000 0.1893460 0.1893460
1.0000000 0.1893460 0.1893460
1.0000000 0.1893460 0.1893460
0.0000000 0.5896668 0.2035498
0.0519977 0.5896668 0.2011324
0.1893460 0.5896668 0.1893460
0.5896668 0.5896668 0.1893460
0.9085847 0.4195328 0.1893460
1.0000000 0.3268857 0.1893460
1.0000000 0.3110328 0.1893460
1.0000000 0.3095771 0.1893460
0.0000000 0.9085847 0.1373908
0.0519977 0.9085847 0.1397076
0.1893460 0.9085847 0.1893460
0.4195328 0.9085847 0.1893460
0.9085847 0.9085847 0.1893460
1.0000000 0.5412704 0.1893460
1.0000000 0.4238931 0.1893460
1.0000000 0.4068407 0.1893460
0.0000000 1.0000000 0.0884215
0.0519977 1.0000000 0.1017309
0.1893460 1.0000000 0.1893460
0.3268857 1.0000000 0.1893460
0.5412704 1.0000000 0.1893460
1.0000000 1.0000000 0.1893460
1.0000000 0.5692408 0.1893460
1.0000000 0.4514289 0.1893460
0.0000000 1.0000000 0.0680749
0.0519977 1.0000000 0.0940276
0.1893460 1.0000000 0.1893460
0.3110328 1.0000000 0.1893460
0.4238931 1.0000000 0.1893460
0.5692408 1.0000000 0.1893460
1.0000000 1.0000000 0.1893460
1.0000000 0.5692866 0.1893460
0.0000000 1.0000000 0.0608218
0.0519977 1.0000000 0.0932726
0.1893460 1.0000000 0.1893460
0.3095771 1.0000000 0.1893460
0.4068407 1.0000000 0.1893460
0.4514289 1.0000000 0.1893460
0.5692866 1.0000000 0.1893460
1.0000000 1.0000000 0.1893460
0.0000000 0.0000000 0.5896668
0.0661805 0.0000000 0.5896668
0.2035498 0.0000000 0.5896668
0.5896668 0.0000000 0.5896668
0.9085847 0.0000000 0.4035750
1.0000000 0.0000000 0.2658342
1.0000000 0.0000000 0.2086035
1.0000000 0.0000000 0.1882018
0.0000000 0.0661805 0.5896668
0.0519977 0.0519977 0.5896668
0.2011324 0.0519977 0.5896668
0.5896668 0.0519977 0.5896668
0.9085847 0.0519977 0.4040867
1.0000000 0.0519977 0.2697836
1.0000000 0.0519977 0.2224453
1.0000000 0.0519977 0.2141921
0.0000000 0.2035498 0.5896668
0.0519977 0.2011324 0.5896668
0.1893460 0.1893460 0.5896668
0.5896668 0.1893460 0.5896668
0.9085847 0.1893460 0.4195328
1.0000000 0.1893460 0.3268857
1.0000000 0.1893460 0.3110328
1.0000000 0.1893460 0.3095771
0.0000000 0.5896668 0.5896668
0.0519977 0.5896668 0.5896668
0.1893460 0.5896668 0.5896668
0.5896668 0.5896668 0.5896668
0.9085847 0.5896668 0.5896668
1.0000000 0.5896668 0.5896668
1.0000000 0.5896668 0.5896668
1.0000000 0.5896668 0.5896668
0.0000000 0.9085847 0.4035750
0.0519977 0.9085847 0.4040867
0.1893460 0.9085847 0.4195328
0.5896668 0.9085847 0.5896668
0.9085847 0.9085847 0.5896668
1.0000000 0.7176206 0.5896668
1.0000000 0.6881754 0.5896668
1.0000000 0.6855814 0.5896668
0.0000000 1.0000000 0.2658342
0.0519977 1.0000000 0.2697836
0.1893460 1.0000000 0.3268857
0.5896668 1.0000000 0.5896668
0.7176206 1.0000000 0.5896668
1.0000000 1.0000000 0.5896668
1.0000000 0.7473996 0.5896668
1.0000000 0.7158354 0.5896668
0.0000000 1.0000000 0.2086035
0.0519977 1.0000000 0.2224453
0.1893460 1.0000000 0.3110328
0.5896668 1.0000000 0.5896668
0.6881754 1.0000000 0.5896668
0.7473996 1.0000000 0.5896668
1.0000000 1.0000000 0.5896668
1.0000000 0.7475955 0.5896668
0.0000000 1.0000000 0.1882018
0.0519977 1.0000000 0.2141921
0.1893460 1.0000000 0.3095771
0.5896668 1.0000000 0.5896668
0.6855814 1.0000000 0.5896668
0.7158354 1.0000000 0.5896668
0.7475955 1.0000000 0.5896668
1.0000000 1.0000000 0.5896668
0.0000000 0.0000000 0.9085847
0.0433765 0.0000000 0.9085847
0.1373908 0.0000000 0.9085847
0.4035750 0.0000000 0.9085847
0.9085847 0.0000000 0.9085847
1.0000000 0.0000000 0.5221087
1.0000000 0.0000000 0.3615296
1.0000000 0.0000000 0.3042861
0.0000000 0.0433765 0.9085847
0.0519977 0.0519977 0.9085847
0.1397076 0.0519977 0.9085847
0.4040867 0.0519977 0.9085847
0.9085847 0.0519977 0.9085847
1.0000000 0.0519977 0.5229927
1.0000000 0.0519977 0.3656829
1.0000000 0.0519977 0.3181722
0.0000000 0.1373908 0.9085847
0.0519977 0.1397076 0.9085847
0.1893460 0.1893460 0.9085847
0.4195328 0.1893460 0.9085847
0.9085847 0.1893460 0.9085847
1.0000000 0.1893460 0.5412704
1.0000000 0.1893460 0.4238931
1.0000000 0.1893460 0.4068407
0.0000000 0.4035750 0.9085847
0.0519977 0.4040867 0.9085847
0.1893460 0.4195328 0.9085847
0.5896668 0.5896668 0.9085847
0.9085847 0.5896668 0.9085847
1.0000000 0.5896668 0.7176206
1.0000000 0.5896668 0.6881754
1.0000000 0.5896668 0.6855814
0.0000000 0.9085847 0.9085847
0.0519977 0.9085847 0.9085847
0.1893460 0.9085847 0.9085847
0.5896668 0.9085847 0.9085847
0.9085847 0.9085847 0.9085847
1.0000000 0.9085847 0.9085847
1.0000000 0.9085847 0.9085847
1.0000000 0.9085847 0.9085847
0.0000000 1.0000000 0.5221087
0.0519977 1.0000000 0.5229927
0.1893460 1.0000000 0.5412704
0.5896668 1.0000000 0.7176206
0.9085847 1.0000000 0.9085847
1.0000000 1.0000000 0.9085847
1.0000000 0.9412980 0.9085847
1.0000000 0.9364537 0.9085847
0.0000000 1.0000000 0.3615296
0.0519977 1.0000000 0.3656829
0.1893460 1.0000000 0.4238931
0.5896668 1.0000000 0.6881754
0.9085847 1.0000000 0.9085847
0.9412980 1.0000000 0.9085847
1.0000000 1.0000000 0.9085847
1.0000000 0.9417031 0.9085847
0.0000000 1.0000000 0.3042861
0.0519977 1.0000000 0.3181722
0.1893460 1.0000000 0.4068407
0.5896668 1.0000000 0.6855814
0.9085847 1.0000000 0.9085847
0.9364537 1.0000000 0.9085847
0.9417031 1.0000000 0.9085847
1.0000000 1.0000000 0.9085847
0.0000000 0.0000000 1.0000000
0.0264975 0.0000000 1.0000000
0.0884215 0.0000000 1.0000000
0.2658342 0.0000000 1.0000000
0.5221087 0.0000000 1.0000000
1.0000000 0.0000000 1.0000000
1.0000000 0.0000000 0.5495376
1.0000000 0.0000000 0.3889559
0.0000000 0.0264975 1.0000000
0.0519977 0.0519977 1.0000000
0.1017309 0.0519977 1.0000000
0.2697836 0.0519977 1.0000000
0.5229927 0.0519977 1.0000000
1.0000000 0.0519977 1.0000000
1.0000000 0.0519977 0.5504689
1.0000000 0.0519977 0.3931263
0.0000000 0.0884215 1.0000000
0.0519977 0.1017309 1.0000000
0.1893460 0.1893460 1.0000000
0.3268857 0.1893460 1.0000000
0.5412704 0.1893460 1.0000000
1.0000000 0.1893460 1.0000000
1.0000000 0.1893460 0.5692408
1.0000000 0.1893460 0.4514289
0.0000000 0.2658342 1.0000000
0.0519977 0.2697836 1.0000000
0.1893460 0.3268857 1.0000000
0.5896668 0.5896668 1.0000000
0.7176206 0.5896668 1.0000000
1.0000000 0.5896668 1.0000000
1.0000000 0.5896668 0.7473996
1.0000000 0.5896668 0.7158354
0.0000000 0.5221087 1.0000000
0.0519977 0.5229927 1.0000000
0.1893460 0.5412704 1.0000000
0.5896668 0.7176206 1.0000000
0.9085847 0.9085847 1.0000000
1.0000000 0.9085847 1.0000000
1.0000000 0.9085847 0.9412980
1.0000000 0.9085847 0.9364537
0.0000000 1.0000000 1.0000000
0.0519977 1.0000000 1.0000000
0.1893460 1.0000000 1.0000000
0.5896668 1.0000000 1.0000000
0.9085847 1.0000000 1.0000000
1.0000000 1.0000000 1.0000000
1.0000000 1.0000000 1.0000000
1.0000000 1.0000000 1.0000000
0.0000000 1.0000000 0.5495376
0.0519977 1.0000000 0.5504689
0.1893460 1.0000000 0.5692408
0.5896668 1.0000000 0.7473996
0.9085847 1.0000000 0.9412980
1.0000000 1.0000000 1.0000000
1.0000000 1.0000000 1.0000000
1.0000000 1.0000000 1.0000000
0.0000000 1.0000000 0.3889559
0.0519977 1.0000000 0.3931263
0.1893460 1.0000000 0.4514289
0.5896668 1.0000000 0.7158354
0.9085847 1.0000000 0.9364537
1.0000000 1.0000000 1.0000000
1.0000000 1.0000000 1.0000000
1.0000000 1.0000000 1.0000000
0.0000000 0.0000000 1.0000000
0.0194843 0.0000000 1.0000000
0.0680749 0.0000000 1.0000000
0.2086035 0.0000000 1.0000000
0.3615296 0.0000000 1.0000000
0.5495376 0.0000000 1.0000000
1.0000000 0.0000000 1.0000000
1.0000000 0.0000000 0.5495380
0.0000000 0.0194843 1.0000000
0.0519977 0.0519977 1.0000000
0.0940276 0.0519977 1.0000000
0.2224453 0.0519977 1.0000000
0.3656829 0.0519977 1.0000000
0.5504689 0.0519977 1.0000000
1.0000000 0.0519977 1.0000000
1.0000000 0.0519977 0.5504732
0.0000000 0.0680749 1.0000000
0.0519977 0.0940276 1.0000000
0.1893460 0.1893460 1.0000000
0.3110328 0.1893460 1.0000000
0.4238931 0.1893460 1.0000000
0.5692408 0.1893460 1.0000000
1.0000000 0.1893460 1.0000000
1.0000000 0.1893460 0.5692866
0.0000000 0.2086035 1.0000000
0.0519977 0.2224453 1.0000000
0.1893460 0.3110328 1.0000000
0.5896668 0.5896668 1.0000000
0.6881754 0.5896668 1.0000000
0.7473996 0.5896668 1.0000000
1.0000000 0.5896668 1.0000000
1.0000000 0.5896668 0.7475955
0.0000000 0.3615296 1.0000000
0.0519977 0.3656829 1.0000000
0.1893460 0.4238931 1.0000000
0.5896668 0.6881754 1.0000000
0.9085847 0.9085847 1.0000000
0.9412980 0.9085847 1.0000000
1.0000000 0.9085847 1.0000000
1.0000000 0.9085847 0.9417031
0.0000000 0.5495376 1.0000000
0.0519977 0.5504689 1.0000000
0.1893460 0.5692408 1.0000000
0.5896668 0.7473996 1.0000000
0.9085847 0.9412980 1.0000000
1.0000000 1.0000000 1.0000000
1.0000000 1.0000000 1.0000000
1.0000000 1.0000000 1.0000000
0.0000000 1.0000000 1.0000000
0.0519977 1.0000000 1.0000000
0.1893460 1.0000000 1.0000000
0.5896668 1.0000000 1.0000000
0.9085847 1.0000000 1.0000000
1.0000000 1.0000000 1.0000000
1.0000000 1.0000000 1.0000000
1.0000000 1.0000000 1.0000000
0.0000000 1.0000000 0.5495380
0.0519977 1.0000000 0.5504732
0.1893460 1.0000000 0.5692866
0.5896668 1.0000000 0.7475955
0.9085847 1.0000000 0.9417031
1.0000000 1.0000000 1.0000000
1.0000000 1.0000000 1.0000000
1.0000000 1.0000000 1.0000000
0.0000000 0.0000000 1.0000000
0.0169842 0.0000000 1.0000000
0.0608218 0.0000000 1.0000000
0.1882018 0.0000000 1.0000000
0.3042861 0.0000000 1.0000000
0.3889559 0.0000000 1.0000000
0.5495380 0.0000000 1.0000000
1.0000000 0.0000000 1.0000000
0.0000000 0.0169842 1.0000000
0.0519977 0.0519977 1.0000000
0.0932726 0.0519977 1.0000000
0.2141921 0.0519977 1.0000000
0.3181722 0.0519977 1.0000000
0.3931263 0.0519977 1.0000000
0.5504732 0.0519977 1.0000000
1.0000000 0.0519977 1.0000000
0.0000000 0.0608218 1.0000000
0.0519977 0.0932726 1.0000000
0.1893460 0.1893460 1.0000000
0.3095771 0.1893460 1.0000000
0.4068407 0.1893460 1.0000000
0.4514289 0.1893460 1.0000000
0.5692866 0.1893460 1.0000000
1.0000000 0.1893460 1.0000000
0.0000000 0.1882018 1.0000000
0.0519977 0.2141921 1.0000000
0.1893460 0.3095771 1.0000000
0.5896668 0.5896668 1.0000000
0.6855814 0.5896668 1.0000000
0.7158354 0.5896668 1.0000000
0.7475955 0.5896668 1.0000000
1.0000000 0.5896668 1.0000000
0.0000000 0.3042861 1.0000000
0.0519977 0.3181722 1.0000000
0.1893460 0.4068407 1.0000000
0.5896668 0.6855814 1.0000000
0.9085847 0.9085847 1.0000000
0.9364537 0.9085847 1.0000000
0.9417031 0.9085847 1.0000000
1.0000000 0.9085847 1.0000000
0.0000000 0.3889559 1.0000000
0.0519977 0.3931263 1.0000000
0.1893460 0.4514289 1.0000000
0.5896668 0.7158354 1.0000000
0.9085847 0.9364537 1.0000000
1.0000000 1.0000000 1.0000000
1.0000000 1.0000000 1.0000000
1.0000000 1.0000000 1.0000000
0.0000000 0.5495380 1.0000000
0.0519977 0.5504732 1.0000000
0.1893460 0.5692866 1.0000000
0.5896668 0.7475955 1.0000000
0.9085847 0.9417031 1.0000000
1.0000000 1.0000000 1.0000000
1.0000000 1.0000000 1.0000000
1.0000000 1.0000000 1.0000000
0.0000000 1.0000000 1.0000000
0.0519977 1.0000000 1.0000000
0.1893460 1.0000000 1.0000000
0.5896668 1.0000000 1.0000000
0.9085847 1.0000000 1.0000000
1.0000000 1.0000000 1.0000000
1.0000000 1.0000000 1.0000000
1.0000000 1.0000000 1.0000000
