LUTs/AgX_False_Color.spi1d
Version 1
From 0.0000000 1.0000000
Length 4096
Components 3
{
 0.0000000 0.0000000 0.0000000
 0.0000000 0.0000000 1.0000000
 0.0000000 0.0000000 1.0000000
 0.0000000 0.5000000 1.0000000
 0.0000000 0.5000000 1.0000000
 0.0000000 0.5000000 1.0000000
 0.0000000 0.5000000 1.0000000
 0.0000000 0.5000000 1.0000000
 0.0000000 0.5000000 1.0000000
 0.0000000 0.5000000 1.0000000
 0.0000000 0.5000000 1.0000000
 0.0000000 0.5000000 1.0000000
 0.0000000 0.5000000 1.0000000
 0.0000000 0.5000000 1.0000000
 0.0000000 0.5000000 1.0000000
 0.0000000 0.5000000 1.0000000
 0.0000000 0.5000000 1.0000000
 0.0000000 0.5000000 1.0000000
 0.0000000 0.5000000 1.0000000
 0.0000000 0.5000000 1.0000000
 0.0000000 0.5000000 1.0000000
 0.0000000 1.0000000 1.0000000
 0.0000000 1.0000000 1.0000000
 0.0000000 1.0000000 1.0000000
 0.0000000 1.0000000 1.0000000
 0.0000000 1.0000000 1.0000000
 0.0000000 1.0000000 1.0000000
 0.0000000 1.0000000 1.0000000
 0.0000000 1.0000000 1.0000000
 0.0000000 1.0000000 1.0000000
 0.0000000 1.0000000 1.0000000
 0.0000000 1.0000000 1.0000000
 0.0000000 1.0000000 1.0000000
 0.0000000 1.0000000 1.0000000
 0.0000000 1.0000000 1.0000000
 0.0000000 1.0000000 1.0000000
 0.0000000 1.0000000 1.0000000
 0.0000000 1.0000000 1.0000000
 0.0000000 1.0000000 1.0000000
 0.0000000 1.0000000 1.0000000
 0.0000000 1.0000000 1.0000000
 0.0000000 1.0000000 1.0000000
 0.0000000 1.0000000 1.0000000
 0.0000000 1.0000000 1.0000000
 0.0000000 1.0000000 1.0000000
 0.0000000 1.0000000 1.0000000
 0.0000000 1.0000000 1.0000000
 0.0000000 1.0000000 1.0000000
 0.0000000 1.0000000 1.0000000
 0.0000000 1.0000000 1.0000000
 0.0000000 1.0000000 1.0000000
 0.0000000 1.0000000 1.0000000
 0.0000000 1.0000000 1.0000000
 0.0000000 1.0000000 1.0000000
 0.0000000 1.0000000 1.0000000
 0.0000000 1.0000000 1.0000000
 0.0000000 1.0000000 1.0000000
 0.0000000 1.0000000 1.0000000
 0.0000000 1.0000000 1.0000000
 0.0000000 1.0000000 1.0000000
 0.0000000 1.0000000 1.0000000
 0.0000000 1.0000000 1.0000000
 0.0000000 1.0000000 1.0000000
 0.0000000 1.0000000 1.0000000
 0.0000000 1.0000000 1.0000000
 0.0000000 1.0000000 1.0000000
 0.0000000 1.0000000 1.0000000
 0.0000000 1.0000000 1.0000000
 0.0000000 1.0000000 1.0000000
 0.0000000 1.0000000 1.0000000
 0.0000000 1.0000000 1.0000000
 0.0000000 1.0000000 1.0000000
 0.0000000 1.0000000 1.0000000
 0.0000000 1.0000000 1.0000000
 0.0000000 1.0000000 1.0000000
 0.0000000 1.0000000 1.0000000
 0.0000000 1.0000000 1.0000000
 0.0000000 1.0000000 1.0000000
 0.0000000 1.0000000 1.0000000
 0.0000000 1.0000000 1.0000000
 0.0000000 1.0000000 1.0000000
 0.0000000 1.0000000 1.0000000
 0.0000000 1.0000000 1.0000000
 0.0000000 1.0000000 1.0000000
 0.0000000 1.0000000 1.0000000
 0.0000000 1.0000000 1.0000000
 0.0000000 1.0000000 1.0000000
 0.0000000 1.0000000 1.0000000
 0.0000000 1.0000000 1.0000000
 0.0000000 1.0000000 1.0000000
 0.0000000 1.0000000 1.0000000
 0.0000000 1.0000000 1.0000000
 0.0000000 1.0000000 1.0000000
 0.0000000 1.0000000 1.0000000
 0.0000000 1.0000000 1.0000000
 0.0000000 1.0000000 1.0000000
 0.0000000 1.0000000 1.0000000
 0.0000000 1.0000000 1.0000000
 0.0000000 1.0000000 1.0000000
 0.0000000 1.0000000 1.0000000
 0.0000000 1.0000000 1.0000000
 0.0000000 1.0000000 1.0000000
 0.0000000 1.0000000 1.0000000
 0.0000000 1.0000000 1.0000000
 0.0000000 1.0000000 1.0000000
 0.0000000 1.0000000 1.0000000
 0.0000000 1.0000000 1.0000000
 0.0000000 1.0000000 1.0000000
 0.0000000 1.0000000 1.0000000
 0.0000000 1.0000000 1.0000000
 0.0000000 1.0000000 1.0000000
 0.0000000 1.0000000 1.0000000
 0.0000000 1.0000000 1.0000000
 0.0000000 1.0000000 1.0000000
 0.0000000 1.0000000 1.0000000
 0.0000000 1.0000000 1.0000000
 0.0000000 1.0000000 1.0000000
 0.0000000 1.0000000 1.0000000
 0.0000000 1.0000000 1.0000000
 0.0000000 1.0000000 1.0000000
 0.0000000 1.0000000 1.0000000
 0.0000000 1.0000000 1.0000000
 0.0000000 1.0000000 1.0000000
 0.0000000 1.0000000 1.0000000
 0.0000000 1.0000000 1.0000000
 0.0000000 1.0000000 1.0000000
 0.0000000 1.0000000 1.0000000
 0.0000000 1.0000000 1.0000000
 0.0000000 1.0000000 1.0000000
 0.0000000 1.0000000 1.0000000
 0.0000000 1.0000000 1.0000000
 0.0000000 1.0000000 1.0000000
 0.0000000 1.0000000 1.0000000
 0.0000000 1.0000000 1.0000000
 0.0000000 1.0000000 1.0000000
 0.0000000 1.0000000 1.0000000
 0.0000000 1.0000000 1.0000000
 0.0000000 1.0000000 1.0000000
 0.0000000 1.0000000 1.0000000
 0.0000000 1.0000000 1.0000000
 0.0000000 1.0000000 1.0000000
 0.0000000 1.0000000 1.0000000
 0.0000000 1.0000000 1.0000000
 0.0000000 1.0000000 1.0000000
 0.0000000 1.0000000 1.0000000
 0.0000000 1.0000000 1.0000000
 0.0000000 1.0000000 1.0000000
 0.0000000 1.0000000 1.0000000
 0.0000000 1.0000000 1.0000000
 0.0000000 1.0000000 1.0000000
 0.0000000 1.0000000 1.0000000
 0.0000000 1.0000000 1.0000000
 0.0000000 1.0000000 1.0000000
 0.0000000 1.0000000 1.0000000
 0.0000000 1.0000000 1.0000000
 0.0000000 1.0000000 1.0000000
 0.0000000 1.0000000 1.0000000
 0.0000000 1.0000000 1.0000000
 0.0000000 1.0000000 1.0000000
 0.0000000 1.0000000 1.0000000
 0.0000000 1.0000000 1.0000000
 0.0000000 1.0000000 1.0000000
 0.0000000 1.0000000 1.0000000
 0.0000000 1.0000000 1.0000000
 0.0000000 1.0000000 1.0000000
 0.0000000 1.0000000 1.0000000
 0.0000000 1.0000000 1.0000000
 0.0000000 1.0000000 1.0000000
 0.0000000 1.0000000 1.0000000
 0.0000000 1.0000000 1.0000000
 0.0000000 1.0000000 1.0000000
 0.0000000 1.0000000 1.0000000
 0.0000000 1.0000000 1.0000000
 0.0000000 1.0000000 1.0000000
 0.0000000 1.0000000 1.0000000
 0.0000000 1.0000000 1.0000000
 0.0000000 1.0000000 1.0000000
 0.0000000 1.0000000 1.0000000
 0.0000000 1.0000000 1.0000000
 0.0000000 1.0000000 1.0000000
 0.0000000 1.0000000 1.0000000
 0.0000000 1.0000000 1.0000000
 0.0000000 1.0000000 1.0000000
 0.0000000 1.0000000 1.0000000
 0.0000000 1.0000000 1.0000000
 0.0000000 1.0000000 1.0000000
 0.0000000 1.0000000 1.0000000
 0.0000000 1.0000000 1.0000000
 0.0000000 1.0000000 1.0000000
 0.0000000 1.0000000 1.0000000
 0.0000000 1.0000000 1.0000000
 0.0000000 1.0000000 1.0000000
 0.0000000 1.0000000 1.0000000
 0.0000000 1.0000000 1.0000000
 0.0000000 1.0000000 1.0000000
 0.0000000 1.0000000 1.0000000
 0.0000000 1.0000000 1.0000000
 0.0000000 1.0000000 1.0000000
 0.0000000 1.0000000 1.0000000
 0.0000000 1.0000000 1.0000000
 0.0000000 1.0000000 1.0000000
 0.0000000 1.0000000 1.0000000
 0.0000000 1.0000000 1.0000000
 0.0000000 1.0000000 1.0000000
 0.0000000 1.0000000 1.0000000
 0.0000000 1.0000000 0.5000000
 0.0000000 1.0000000 0.5000000
 0.0000000 1.0000000 0.5000000
 0.0000000 1.0000000 0.5000000
 0.0000000 1.0000000 0.5000000
 0.0000000 1.0000000 0.5000000
 0.0000000 1.0000000 0.5000000
 0.0000000 1.0000000 0.5000000
 0.0000000 1.0000000 0.5000000
 0.0000000 1.0000000 0.5000000
 0.0000000 1.0000000 0.5000000
 0.0000000 1.0000000 0.5000000
 0.0000000 1.0000000 0.5000000
 0.0000000 1.0000000 0.5000000
 0.0000000 1.0000000 0.5000000
 0.0000000 1.0000000 0.5000000
 0.0000000 1.0000000 0.5000000
 0.0000000 1.0000000 0.5000000
 0.0000000 1.0000000 0.5000000
 0.0000000 1.0000000 0.5000000
 0.0000000 1.0000000 0.5000000
 0.0000000 1.0000000 0.5000000
 0.0000000 1.0000000 0.5000000
 0.0000000 1.0000000 0.5000000
 0.0000000 1.0000000 0.5000000
 0.0000000 1.0000000 0.5000000
 0.0000000 1.0000000 0.5000000
 0.0000000 1.0000000 0.5000000
 0.0000000 1.0000000 0.5000000
 0.0000000 1.0000000 0.5000000
 0.0000000 1.0000000 0.5000000
 0.0000000 1.0000000 0.5000000
 0.0000000 1.0000000 0.5000000
 0.0000000 1.0000000 0.5000000
 0.0000000 1.0000000 0.5000000
 0.0000000 1.0000000 0.5000000
 0.0000000 1.0000000 0.5000000
 0.0000000 1.0000000 0.5000000
 0.0000000 1.0000000 0.5000000
 0.0000000 1.0000000 0.5000000
 0.0000000 1.0000000 0.5000000
 0.0000000 1.0000000 0.5000000
 0.0000000 1.0000000 0.5000000
 0.0000000 1.0000000 0.5000000
 0.0000000 1.0000000 0.5000000
 0.0000000 1.0000000 0.5000000
 0.0000000 1.0000000 0.5000000
 0.0000000 1.0000000 0.5000000
 0.0000000 1.0000000 0.5000000
 0.0000000 1.0000000 0.5000000
 0.0000000 1.0000000 0.5000000
 0.0000000 1.0000000 0.5000000
 0.0000000 1.0000000 0.5000000
 0.0000000 1.0000000 0.5000000
 0.0000000 1.0000000 0.5000000
 0.0000000 1.0000000 0.5000000
 0.0000000 1.0000000 0.5000000
 0.0000000 1.0000000 0.5000000
 0.0000000 1.0000000 0.5000000
 0.0000000 1.0000000 0.5000000
 0.0000000 1.0000000 0.5000000
 0.0000000 1.0000000 0.5000000
 0.0000000 1.0000000 0.5000000
 0.0000000 1.0000000 0.5000000
 0.0000000 1.0000000 0.5000000
 0.0000000 1.0000000 0.5000000
 0.0000000 1.0000000 0.5000000
 0.0000000 1.0000000 0.5000000
 0.0000000 1.0000000 0.5000000
 0.0000000 1.0000000 0.5000000
 0.0000000 1.0000000 0.5000000
 0.0000000 1.0000000 0.5000000
 0.0000000 1.0000000 0.5000000
 0.0000000 1.0000000 0.5000000
 0.0000000 1.0000000 0.5000000
 0.0000000 1.0000000 0.5000000
 0.0000000 1.0000000 0.5000000
 0.0000000 1.0000000 0.5000000
 0.0000000 1.0000000 0.5000000
 0.0000000 1.0000000 0.5000000
 0.0000000 1.0000000 0.5000000
 0.0000000 1.0000000 0.5000000
 0.0000000 1.0000000 0.5000000
 0.0000000 1.0000000 0.5000000
 0.0000000 1.0000000 0.5000000
 0.0000000 1.0000000 0.5000000
 0.0000000 1.0000000 0.5000000
 0.0000000 1.0000000 0.5000000
 0.0000000 1.0000000 0.5000000
 0.0000000 1.0000000 0.5000000
 0.0000000 1.0000000 0.5000000
 0.0000000 1.0000000 0.5000000
 0.0000000 1.0000000 0.5000000
 0.0000000 1.0000000 0.5000000
 0.0000000 1.0000000 0.5000000
 0.0000000 1.0000000 0.5000000
 0.0000000 1.0000000 0.5000000
 0.0000000 1.0000000 0.5000000
 0.0000000 1.0000000 0.5000000
 0.0000000 1.0000000 0.5000000
 0.0000000 1.0000000 0.5000000
 0.0000000 1.0000000 0.5000000
 0.0000000 1.0000000 0.5000000
 0.0000000 1.0000000 0.5000000
 0.0000000 1.0000000 0.5000000
 0.0000000 1.0000000 0.5000000
 0.0000000 1.0000000 0.5000000
 0.0000000 1.0000000 0.5000000
 0.0000000 1.0000000 0.5000000
 0.0000000 1.0000000 0.5000000
 0.0000000 1.0000000 0.5000000
 0.0000000 1.0000000 0.5000000
 0.0000000 1.0000000 0.5000000
 0.0000000 1.0000000 0.5000000
 0.0000000 1.0000000 0.5000000
 0.0000000 1.0000000 0.5000000
 0.0000000 1.0000000 0.5000000
 0.0000000 1.0000000 0.5000000
 0.0000000 1.0000000 0.5000000
 0.0000000 1.0000000 0.5000000
 0.0000000 1.0000000 0.5000000
 0.0000000 1.0000000 0.5000000
 0.0000000 1.0000000 0.5000000
 0.0000000 1.0000000 0.5000000
 0.0000000 1.0000000 0.5000000
 0.0000000 1.0000000 0.5000000
 0.0000000 1.0000000 0.5000000
 0.0000000 1.0000000 0.5000000
 0.0000000 1.0000000 0.5000000
 0.0000000 1.0000000 0.5000000
 0.0000000 1.0000000 0.5000000
 0.0000000 1.0000000 0.5000000
 0.0000000 1.0000000 0.5000000
 0.0000000 1.0000000 0.5000000
 0.0000000 1.0000000 0.5000000
 0.0000000 1.0000000 0.5000000
 0.0000000 1.0000000 0.5000000
 0.0000000 1.0000000 0.5000000
 0.0000000 1.0000000 0.5000000
 0.0000000 1.0000000 0.5000000
 0.0000000 1.0000000 0.5000000
 0.0000000 1.0000000 0.5000000
 0.0000000 1.0000000 0.5000000
 0.0000000 1.0000000 0.5000000
 0.0000000 1.0000000 0.5000000
 0.0000000 1.0000000 0.5000000
 0.0000000 1.0000000 0.5000000
 0.0000000 1.0000000 0.5000000
 0.0000000 1.0000000 0.5000000
 0.0000000 1.0000000 0.5000000
 0.0000000 1.0000000 0.5000000
 0.0000000 1.0000000 0.5000000
 0.0000000 1.0000000 0.5000000
 0.0000000 1.0000000 0.5000000
 0.0000000 1.0000000 0.5000000
 0.0000000 1.0000000 0.5000000
 0.0000000 1.0000000 0.5000000
 0.0000000 1.0000000 0.5000000
 0.0000000 1.0000000 0.5000000
 0.0000000 1.0000000 0.5000000
 0.0000000 1.0000000 0.5000000
 0.0000000 1.0000000 0.5000000
 0.0000000 1.0000000 0.5000000
 0.0000000 1.0000000 0.5000000
 0.0000000 1.0000000 0.5000000
 0.0000000 1.0000000 0.5000000
 0.0000000 1.0000000 0.5000000
 0.0000000 1.0000000 0.5000000
 0.0000000 1.0000000 0.5000000
 0.0000000 1.0000000 0.5000000
 0.0000000 1.0000000 0.5000000
 0.0000000 1.0000000 0.5000000
 0.0000000 1.0000000 0.5000000
 0.0000000 1.0000000 0.5000000
 0.0000000 1.0000000 0.5000000
 0.0000000 1.0000000 0.5000000
 0.0000000 1.0000000 0.5000000
 0.0000000 1.0000000 0.5000000
 0.0000000 1.0000000 0.5000000
 0.0000000 1.0000000 0.5000000
 0.0000000 1.0000000 0.5000000
 0.0000000 1.0000000 0.5000000
 0.0000000 1.0000000 0.5000000
 0.0000000 1.0000000 0.5000000
 0.0000000 1.0000000 0.5000000
 0.0000000 1.0000000 0.5000000
 0.0000000 1.0000000 0.5000000
 0.0000000 1.0000000 0.5000000
 0.0000000 1.0000000 0.5000000
 0.0000000 1.0000000 0.5000000
 0.0000000 1.0000000 0.5000000
 0.0000000 1.0000000 0.5000000
 0.0000000 1.0000000 0.5000000
 0.0000000 1.0000000 0.5000000
 0.0000000 1.0000000 0.5000000
 0.0000000 1.0000000 0.5000000
 0.0000000 1.0000000 0.5000000
 0.0000000 1.0000000 0.5000000
 0.0000000 1.0000000 0.5000000
 0.0000000 1.0000000 0.5000000
 0.0000000 1.0000000 0.5000000
 0.0000000 1.0000000 0.5000000
 0.0000000 1.0000000 0.5000000
 0.0000000 1.0000000 0.5000000
 0.0000000 1.0000000 0.5000000
 0.0000000 1.0000000 0.5000000
 0.0000000 1.0000000 0.5000000
 0.0000000 1.0000000 0.5000000
 0.0000000 1.0000000 0.5000000
 0.0000000 1.0000000 0.5000000
 0.0000000 1.0000000 0.5000000
 0.0000000 1.0000000 0.5000000
 0.0000000 1.0000000 0.5000000
 0.0000000 1.0000000 0.5000000
 0.0000000 1.0000000 0.5000000
 0.0000000 1.0000000 0.5000000
 0.0000000 1.0000000 0.5000000
 0.0000000 1.0000000 0.5000000
 0.0000000 1.0000000 0.5000000
 0.0000000 1.0000000 0.5000000
 0.0000000 1.0000000 0.5000000
 0.0000000 1.0000000 0.5000000
 0.0000000 1.0000000 0.5000000
 0.0000000 1.0000000 0.5000000
 0.0000000 1.0000000 0.5000000
 0.0000000 1.0000000 0.5000000
 0.0000000 1.0000000 0.5000000
 0.0000000 1.0000000 0.5000000
 0.0000000 1.0000000 0.5000000
 0.0000000 1.0000000 0.5000000
 0.0000000 1.0000000 0.5000000
 0.0000000 1.0000000 0.5000000
 0.0000000 1.0000000 0.5000000
 0.0000000 1.0000000 0.5000000
 0.0000000 1.0000000 0.5000000
 0.0000000 1.0000000 0.5000000
 0.0000000 1.0000000 0.5000000
 0.0000000 1.0000000 0.5000000
 0.0000000 1.0000000 0.5000000
 0.0000000 1.0000000 0.5000000
 0.0000000 1.0000000 0.5000000
 0.0000000 1.0000000 0.5000000
 0.0000000 1.0000000 0.5000000
 0.0000000 1.0000000 0.5000000
 0.0000000 1.0000000 0.5000000
 0.0000000 1.0000000 0.5000000
 0.0000000 1.0000000 0.5000000
 0.0000000 1.0000000 0.5000000
 0.0000000 1.0000000 0.5000000
 0.0000000 1.0000000 0.5000000
 0.0000000 1.0000000 0.5000000
 0.0000000 1.0000000 0.5000000
 0.0000000 1.0000000 0.5000000
 0.0000000 1.0000000 0.5000000
 0.0000000 1.0000000 0.5000000
 0.0000000 1.0000000 0.5000000
 0.0000000 1.0000000 0.5000000
 0.0000000 1.0000000 0.5000000
 0.0000000 1.0000000 0.5000000
 0.0000000 1.0000000 0.5000000
 0.0000000 1.0000000 0.5000000
 0.0000000 1.0000000 0.5000000
 0.0000000 1.0000000 0.5000000
 0.0000000 1.0000000 0.5000000
 0.0000000 1.0000000 0.5000000
 0.0000000 1.0000000 0.5000000
 0.0000000 1.0000000 0.5000000
 0.0000000 1.0000000 0.5000000
 0.0000000 1.0000000 0.5000000
 0.0000000 1.0000000 0.5000000
 0.0000000 1.0000000 0.5000000
 0.0000000 1.0000000 0.5000000
 0.0000000 1.0000000 0.5000000
 0.0000000 1.0000000 0.5000000
 0.0000000 1.0000000 0.5000000
 0.0000000 1.0000000 0.5000000
 0.0000000 1.0000000 0.5000000
 0.0000000 1.0000000 0.5000000
 0.0000000 1.0000000 0.5000000
 0.0000000 1.0000000 0.5000000
 0.0000000 1.0000000 0.5000000
 0.0000000 1.0000000 0.5000000
 0.0000000 1.0000000 0.5000000
 0.0000000 1.0000000 0.5000000
 0.0000000 1.0000000 0.5000000
 0.0000000 1.0000000 0.5000000
 0.0000000 1.0000000 0.5000000
 0.0000000 1.0000000 0.5000000
 0.0000000 1.0000000 0.5000000
 0.0000000 1.0000000 0.5000000
 0.0000000 1.0000000 0.5000000
 0.0000000 1.0000000 0.5000000
 0.0000000 1.0000000 0.5000000
 0.0000000 1.0000000 0.5000000
 0.0000000 1.0000000 0.5000000
 0.0000000 1.0000000 0.5000000
 0.0000000 1.0000000 0.5000000
 0.0000000 1.0000000 0.5000000
 0.0000000 1.0000000 0.5000000
 0.0000000 1.0000000 0.5000000
 0.0000000 1.0000000 0.5000000
 0.0000000 1.0000000 0.5000000
 0.0000000 1.0000000 0.5000000
 0.0000000 1.0000000 0.5000000
 0.0000000 1.0000000 0.5000000
 0.0000000 1.0000000 0.5000000
 0.0000000 1.0000000 0.5000000
 0.0000000 1.0000000 0.5000000
 0.0000000 1.0000000 0.5000000
 0.0000000 1.0000000 0.5000000
 0.0000000 1.0000000 0.5000000
 0.0000000 1.0000000 0.5000000
 0.0000000 1.0000000 0.5000000
 0.0000000 1.0000000 0.5000000
 0.0000000 1.0000000 0.5000000
 0.0000000 1.0000000 0.5000000
 0.0000000 1.0000000 0.5000000
 0.0000000 1.0000000 0.5000000
 0.0000000 1.0000000 0.5000000
 0.0000000 1.0000000 0.5000000
 0.0000000 1.0000000 0.5000000
 0.0000000 1.0000000 0.5000000
 0.0000000 1.0000000 0.5000000
 0.0000000 1.0000000 0.5000000
 0.0000000 1.0000000 0.5000000
 0.0000000 1.0000000 0.5000000
 0.0000000 1.0000000 0.5000000
 0.0000000 1.0000000 0.5000000
 0.0000000 1.0000000 0.5000000
 0.0000000 1.0000000 0.5000000
 0.0000000 1.0000000 0.5000000
 0.0000000 1.0000000 0.5000000
 0.0000000 1.0000000 0.5000000
 0.0000000 1.0000000 0.5000000
 0.0000000 1.0000000 0.5000000
 0.0000000 1.0000000 0.5000000
 0.0000000 1.0000000 0.5000000
 0.0000000 1.0000000 0.5000000
 0.0000000 1.0000000 0.5000000
 0.0000000 1.0000000 0.5000000
 0.0000000 1.0000000 0.5000000
 0.0000000 1.0000000 0.5000000
 0.0000000 1.0000000 0.5000000
 0.0000000 1.0000000 0.5000000
 0.0000000 1.0000000 0.5000000
 0.0000000 1.0000000 0.5000000
 0.0000000 1.0000000 0.5000000
 0.0000000 1.0000000 0.5000000
 0.0000000 1.0000000 0.5000000
 0.0000000 1.0000000 0.5000000
 0.0000000 1.0000000 0.5000000
 0.0000000 1.0000000 0.5000000
 0.0000000 1.0000000 0.5000000
 0.0000000 1.0000000 0.5000000
 0.0000000 1.0000000 0.5000000
 0.0000000 1.0000000 0.5000000
 0.0000000 1.0000000 0.5000000
 0.0000000 1.0000000 0.5000000
 0.0000000 1.0000000 0.5000000
 0.0000000 1.0000000 0.5000000
 0.0000000 1.0000000 0.5000000
 0.0000000 1.0000000 0.5000000
 0.0000000 1.0000000 0.5000000
 0.0000000 1.0000000 0.5000000
 0.0000000 1.0000000 0.5000000
 0.0000000 1.0000000 0.5000000
 0.0000000 1.0000000 0.5000000
 0.0000000 1.0000000 0.5000000
 0.0000000 1.0000000 0.5000000
 0.0000000 1.0000000 0.5000000
 0.0000000 1.0000000 0.5000000
 0.0000000 1.0000000 0.5000000
 0.0000000 1.0000000 0.5000000
 0.0000000 1.0000000 0.5000000
 0.0000000 1.0000000 0.5000000
 0.0000000 1.0000000 0.5000000
 0.0000000 1.0000000 0.5000000
 0.0000000 1.0000000 0.5000000
 0.0000000 1.0000000 0.5000000
 0.0000000 1.0000000 0.5000000
 0.0000000 1.0000000 0.5000000
 0.0000000 1.0000000 0.5000000
 0.0000000 1.0000000 0.5000000
 0.0000000 1.0000000 0.5000000
 0.0000000 1.0000000 0.5000000
 0.0000000 1.0000000 0.5000000
 0.0000000 1.0000000 0.5000000
 0.0000000 1.0000000 0.5000000
 0.0000000 1.0000000 0.5000000
 0.0000000 1.0000000 0.5000000
 0.0000000 1.0000000 0.5000000
 0.0000000 1.0000000 0.5000000
 0.0000000 1.0000000 0.5000000
 0.0000000 1.0000000 0.5000000
 0.0000000 1.0000000 0.5000000
 0.0000000 1.0000000 0.5000000
 0.0000000 1.0000000 0.5000000
 0.0000000 1.0000000 0.5000000
 0.0000000 1.0000000 0.5000000
 0.0000000 1.0000000 0.5000000
 0.0000000 1.0000000 0.5000000
 0.0000000 1.0000000 0.5000000
 0.0000000 1.0000000 0.5000000
 0.0000000 1.0000000 0.5000000
 0.0000000 1.0000000 0.5000000
 0.0000000 1.0000000 0.5000000
 0.0000000 1.0000000 0.5000000
 0.0000000 1.0000000 0.5000000
 0.0000000 1.0000000 0.5000000
 0.0000000 1.0000000 0.5000000
 0.0000000 1.0000000 0.5000000
 0.0000000 1.0000000 0.5000000
 0.0000000 1.0000000 0.5000000
 0.0000000 1.0000000 0.5000000
 0.0000000 1.0000000 0.5000000
 0.0000000 1.0000000 0.5000000
 0.0000000 1.0000000 0.5000000
 0.0000000 1.0000000 0.5000000
 0.0000000 1.0000000 0.5000000
 0.0000000 1.0000000 0.5000000
 0.0000000 1.0000000 0.5000000
 0.0000000 1.0000000 0.5000000
 0.0000000 1.0000000 0.5000000
 0.0000000 1.0000000 0.5000000
 0.0000000 1.0000000 0.5000000
 0.0000000 1.0000000 0.5000000
 0.0000000 1.0000000 0.5000000
 0.0000000 1.0000000 0.5000000
 0.0000000 1.0000000 0.5000000
 0.0000000 1.0000000 0.5000000
 0.0000000 1.0000000 0.5000000
 0.0000000 1.0000000 0.5000000
 0.0000000 1.0000000 0.5000000
 0.0000000 1.0000000 0.5000000
 0.0000000 1.0000000 0.5000000
 0.0000000 1.0000000 0.5000000
 0.0000000 1.0000000 0.5000000
 0.0000000 1.0000000 0.5000000
 0.0000000 1.0000000 0.5000000
 0.0000000 1.0000000 0.5000000
 0.0000000 1.0000000 0.5000000
 0.0000000 1.0000000 0.5000000
 0.0000000 1.0000000 0.5000000
 0.0000000 1.0000000 0.5000000
 0.0000000 1.0000000 0.5000000
 0.0000000 1.0000000 0.5000000
 0.0000000 1.0000000 0.5000000
 0.0000000 1.0000000 0.5000000
 0.0000000 1.0000000 0.5000000
 0.0000000 1.0000000 0.5000000
 0.0000000 1.0000000 0.5000000
 0.5000000 0.5000000 0.5000000
 0.5000000 0.5000000 0.5000000
 0.5000000 0.5000000 0.5000000
 0.5000000 0.5000000 0.5000000
 0.5000000 0.5000000 0.5000000
 0.5000000 0.5000000 0.5000000
 0.5000000 0.5000000 0.5000000
 0.5000000 0.5000000 0.5000000
 0.5000000 0.5000000 0.5000000
 0.5000000 0.5000000 0.5000000
 0.5000000 0.5000000 0.5000000
 0.5000000 0.5000000 0.5000000
 0.5000000 0.5000000 0.5000000
 0.5000000 0.5000000 0.5000000
 0.5000000 0.5000000 0.5000000
 0.5000000 0.5000000 0.5000000
 0.5000000 0.5000000 0.5000000
 0.5000000 0.5000000 0.5000000
 0.5000000 0.5000000 0.5000000
 0.5000000 0.5000000 0.5000000
 0.5000000 0.5000000 0.5000000
 0.5000000 0.5000000 0.5000000
 0.5000000 0.5000000 0.5000000
 0.5000000 0.5000000 0.5000000
 0.5000000 0.5000000 0.5000000
 0.5000000 0.5000000 0.5000000
 0.5000000 0.5000000 0.5000000
 0.5000000 0.5000000 0.5000000
 0.5000000 0.5000000 0.5000000
 0.5000000 0.5000000 0.5000000
 0.5000000 0.5000000 0.5000000
 0.5000000 0.5000000 0.5000000
 0.5000000 0.5000000 0.5000000
 0.5000000 0.5000000 0.5000000
 0.5000000 0.5000000 0.5000000
 0.5000000 0.5000000 0.5000000
 0.5000000 0.5000000 0.5000000
 0.5000000 0.5000000 0.5000000
 0.5000000 0.5000000 0.5000000
 0.5000000 0.5000000 0.5000000
 0.5000000 0.5000000 0.5000000
 0.5000000 0.5000000 0.5000000
 0.5000000 0.5000000 0.5000000
 0.5000000 0.5000000 0.5000000
 0.5000000 0.5000000 0.5000000
 0.5000000 0.5000000 0.5000000
 0.5000000 0.5000000 0.5000000
 0.5000000 0.5000000 0.5000000
 0.5000000 0.5000000 0.5000000
 0.5000000 0.5000000 0.5000000
 0.5000000 0.5000000 0.5000000
 0.5000000 0.5000000 0.5000000
 0.5000000 0.5000000 0.5000000
 0.5000000 0.5000000 0.5000000
 0.5000000 0.5000000 0.5000000
 0.5000000 0.5000000 0.5000000
 0.5000000 0.5000000 0.5000000
 0.5000000 0.5000000 0.5000000
 0.5000000 0.5000000 0.5000000
 0.5000000 0.5000000 0.5000000
 0.5000000 0.5000000 0.5000000
 0.5000000 0.5000000 0.5000000
 0.5000000 0.5000000 0.5000000
 0.5000000 0.5000000 0.5000000
 0.5000000 0.5000000 0.5000000
 0.5000000 0.5000000 0.5000000
 0.5000000 0.5000000 0.5000000
 0.5000000 0.5000000 0.5000000
 0.5000000 0.5000000 0.5000000
 0.5000000 0.5000000 0.5000000
 0.5000000 0.5000000 0.5000000
 0.5000000 0.5000000 0.5000000
 0.5000000 0.5000000 0.5000000
 0.5000000 0.5000000 0.5000000
 0.5000000 0.5000000 0.5000000
 0.5000000 0.5000000 0.5000000
 0.5000000 0.5000000 0.5000000
 0.5000000 0.5000000 0.5000000
 0.5000000 0.5000000 0.5000000
 0.5000000 0.5000000 0.5000000
 0.5000000 0.5000000 0.5000000
 0.5000000 0.5000000 0.5000000
 0.5000000 0.5000000 0.5000000
 0.5000000 0.5000000 0.5000000
 0.5000000 0.5000000 0.5000000
 0.5000000 0.5000000 0.5000000
 0.5000000 0.5000000 0.5000000
 0.5000000 0.5000000 0.5000000
 0.5000000 0.5000000 0.5000000
 0.5000000 0.5000000 0.5000000
 0.5000000 0.5000000 0.5000000
