LUTs/AgX_Formation.cube
TITLE "AgX_Formation"
# AgX Formation LUT
# This LUT expects input to be Log2 encoding from -10 stops to +15 stops
# But the end image formation will be from -10 to 6.5
# The image formed has 30% per-channel shifts
LUT_3D_SIZE 6
0.0000000 0.0000000 0.0000000
0.0901050 0.0000000 0.0000000
0.4894371 0.0000000 0.0000000
0.9437472 0.0000000 0.0000000
1.0000000 0.0000000 0.0000000
1.0000000 0.0000000 0.0000000
0.0000000 0.0901050 0.0000000
0.0901050 0.0901050 0.0000000
0.4894371 0.1068458 0.0000000
0.9437472 0.0633328 0.0000000
1.0000000 0.0361079 0.0000000
1.0000000 0.0291733 0.0000000
0.0000000 0.4894371 0.0000000
0.1068458 0.4894371 0.0000000
0.4894371 0.4894371 0.0000000
0.9437472 0.3026559 0.0000000
1.0000000 0.1857921 0.0000000
1.0000000 0.1560247 0.0000000
0.0000000 0.9437472 0.0000000
0.0633328 0.9437472 0.0000000
0.3026559 0.9437472 0.0000000
0.9437472 0.9437472 0.0000000
1.0000000 0.4483001 0.0000000
1.0000000 0.3221005 0.0000000
0.0000000 1.0000000 0.0000000
0.0361079 1.0000000 0.0000000
0.1857921 1.0000000 0.0000000
0.4483001 1.0000000 0.0000000
1.0000000 1.0000000 0.0000000
1.0000000 0.4651779 0.0000000
0.0000003 1.0000000 0.0000000
0.0291733 1.0000000 0.0000000
0.1560247 1.0000000 0.0000000
0.3221005 1.0000000 0.0000000
0.4651779 1.0000000 0.0000000
1.0000000 1.0000000 0.0000000
0.0000000 0.0000000 0.0901050
0.0901050 0.0000000 0.0901050
0.4894371 0.0000000 0.1068458
0.9437472 0.0000000 0.0633328
1.0000000 0.0000000 0.0361079
1.0000000 0.0000000 0.0291733
0.0000000 0.0901050 0.0901050
0.0901050 0.0901050 0.0901050
0.4894371 0.0901050 0.0901050
0.9437472 0.0901050 0.0901050
1.0000000 0.0901050 0.0901050
1.0000000 0.0901050 0.0901050
0.0000000 0.4894371 0.1068458
0.0901050 0.4894371 0.0901050
0.4894371 0.4894371 0.0901050
0.9437472 0.3078121 0.0901050
1.0000000 0.2172857 0.0901050
1.0000000 0.2101538 0.0901050
0.0000000 0.9437472 0.0633328
0.0901050 0.9437472 0.0901050
0.3078121 0.9437472 0.0901050
0.9437472 0.9437472 0.0901050
1.0000000 0.4546786 0.0901050
1.0000000 0.3537920 0.0901050
0.0000000 1.0000000 0.0361079
0.0901050 1.0000000 0.0901050
0.2172857 1.0000000 0.0901050
0.4546786 1.0000000 0.0901050
1.0000000 1.0000000 0.0901050
1.0000000 0.4716141 0.0901050
0.0000000 1.0000000 0.0291733
0.0901050 1.0000000 0.0901050
0.2101538 1.0000000 0.0901050
0.3537920 1.0000000 0.0901050
0.4716141 1.0000000 0.0901050
1.0000000 1.0000000 0.0901050
0.0000000 0.0000000 0.4894371
0.1068458 0.0000000 0.4894371
0.4894371 0.0000000 0.4894371
0.9437472 0.0000000 0.3026559
1.0000000 0.0000000 0.1857921
1.0000000 0.0000000 0.1560247
0.0000000 0.1068458 0.4894371
0.0901050 0.0901050 0.4894371
0.4894371 0.0901050 0.4894371
0.9437472 0.0901050 0.3078121
1.0000000 0.0901050 0.2172857
1.0000000 0.0901050 0.2101538
0.0000000 0.4894371 0.4894371
0.0901050 0.4894371 0.4894371
0.4894371 0.4894371 0.4894371
0.9437472 0.4894371 0.4894371
1.0000000 0.4894371 0.4894371
1.0000000 0.4894371 0.4894371
0.0000000 0.9437472 0.3026559
0.0901050 0.9437472 0.3078121
0.4894371 0.9437472 0.4894371
0.9437472 0.9437472 0.4894371
1.0000000 0.6446964 0.4894371
1.0000000 0.6263446 0.4894371
0.0000000 1.0000000 0.1857921
0.0901050 1.0000000 0.2172857
0.4894371 1.0000000 0.4894371
0.6446964 1.0000000 0.4894371
1.0000000 1.0000000 0.4894371
1.0000000 0.6621249 0.4894371
0.0000000 1.0000000 0.1560247
0.0901050 1.0000000 0.2101538
0.4894371 1.0000000 0.4894371
0.6263446 1.0000000 0.4894371
0.6621249 1.0000000 0.4894371
1.0000000 1.0000000 0.4894371
0.0000000 0.0000000 0.9437472
0.0633328 0.0000000 0.9437472
0.3026559 0.0000000 0.9437472
0.9437472 0.0000000 0.9437472
1.0000000 0.0000000 0.4483001
1.0000000 0.0000000 0.3221005
0.0000000 0.0633328 0.9437472
0.0901050 0.0901050 0.9437472
0.3078121 0.0901050 0.9437472
0.9437472 0.0901050 0.9437472
1.0000000 0.0901050 0.4546786
1.0000000 0.0901050 0.3537920
0.0000000 0.3026559 0.9437472
0.0901050 0.3078121 0.9437472
0.4894371 0.4894371 0.9437472
0.9437472 0.4894371 0.9437472
1.0000000 0.4894371 0.6446964
1.0000000 0.4894371 0.6263446
0.0000000 0.9437472 0.9437472
0.0901050 0.9437472 0.9437472
0.4894371 0.9437472 0.9437472
0.9437472 0.9437472 0.9437472
1.0000000 0.9437472 0.9437472
1.0000000 0.9437472 0.9437472
0.0000000 1.0000000 0.4483001
0.0901050 1.0000000 0.4546786
0.4894371 1.0000000 0.6446964
0.9437472 1.0000000 0.9437472
1.0000000 1.0000000 0.9437472
1.0000000 0.9618648 0.9437472
0.0000000 1.0000000 0.3221005
0.0901050 1.0000000 0.3537920
0.4894371 1.0000000 0.6263446
0.9437472 1.0000000 0.9437472
0.9618648 1.0000000 0.9437472
1.0000000 1.0000000 0.9437472
0.0000000 0.0000000 1.0000000
0.0361079 0.0000000 1.0000000
0.1857921 0.0000000 1.0000000
0.4483001 0.0000000 1.0000000
1.0000000 0.0000000 1.0000000
1.0000000 0.0000000 0.4651779
0.0000000 0.0361079 1.0000000
0.0901050 0.0901050 1.0000000
0.2172857 0.0901050 1.0000000
0.4546786 0.0901050 1.0000000
1.0000000 0.0901050 1.0000000
1.0000000 0.0901050 0.4716141
0.0000000 0.1857921 1.0000000
0.0901050 0.2172857 1.0000000
0.4894371 0.4894371 1.0000000
0.6446964 0.4894371 1.0000000
1.0000000 0.4894371 1.0000000
1.0000000 0.4894371 0.6621249
0.0000000 0.4483001 1.0000000
0.0901050 0.4546786 1.0000000
0.4894371 0.6446964 1.0000000
0.9437472 0.9437472 1.0000000
1.0000000 0.9437472 1.0000000
1.0000000 0.9437472 0.9618648
0.0000000 1.0000000 1.0000000
0.0901050 1.0000000 1.0000000
0.4894371 1.0000000 1.0000000
0.9437472 1.0000000 1.0000000
1.0000000 1.0000000 1.0000000
1.0000000 1.0000000 1.0000000
0.0000000 1.0000000 0.4651779
0.0901050 1.0000000 0.4716141
0.4894371 1.0000000 0.6621249
0.9437472 1.0000000 0.9618648
1.0000000 1.0000000 1.0000000
1.0000000 1.0000000 1.0000000
0.0000000 0.0000000 1.0000000
0.0291733 0.0000000 1.0000000
0.1560247 0.0000000 1.0000000
0.3221005 0.0000000 1.0000000
0.4651779 0.0000000 1.0000000
1.0000000 0.0000000 1.0000000
0.0000000 0.0291733 1.0000000
0.0901050 0.0901050 1.0000000
0.2101538 0.0901050 1.0000000
0.3537920 0.0901050 1.0000000
0.4716141 0.0901050 1.0000000
1.0000000 0.0901050 1.0000000
0.0000000 0.1560247 1.0000000
0.0901050 0.2101538 1.0000000
0.4894371 0.4894371 1.0000000
0.6263446 0.4894371 1.0000000
0.6621249 0.4894371 1.0000000
1.0000000 0.4894371 1.0000000
0.0000000 0.3221005 1.0000000
0.0901050 0.3537920 1.0000000
0.4894371 0.6263446 1.0000000
0.9437472 0.9437472 1.0000000
0.9618648 0.9437472 1.0000000
1.0000000 0.9437472 1.0000000
0.0000000 0.4651779 1.0000000
0.0901050 0.4716141 1.0000000
0.4894371 0.6621249 1.0000000
0.9437472 0.9618648 1.0000000
1.0000000 1.0000000 1.0000000
1.0000000 1.0000000 1.0000000
0.0000000 1.0000000 1.0000000
0.0901050 1.0000000 1.0000000
0.4894371 1.0000000 1.0000000
0.9437472 1.0000000 1.0000000
1.0000000 1.0000000 1.0000000
1.0000000 1.0000000 1.0000000
