LUTs/guard_rail_p3.cube
TITLE "Guard Rail P3"
# Guard Rail Formation for P3 medium.
# The Guard Rail is designed to leaves valid value as-is, and only touch out of domain valuesModified from python script shared by Sakari Kapanen
# This LUT assumes input and output to be E Gamut encoded in Log2 (-10 stop to +15 stop)
# LUT resolution 40
LUT_3D_SIZE 8
DOMAIN_MIN 0.000000 0.000000 0.000000
DOMAIN_MAX 0.897436 0.897436 0.897436
-0.0000000 0.0000000 -0.0000000
0.1282051 0.0000000 -0.0000000
0.2541393 0.1132640 0.1132640
0.3820211 0.2411458 0.2411458
0.4925581 0.4159841 0.4159841
0.5056930 0.4922337 0.4922337
0.5106106 0.5082726 0.5082726
0.5116210 0.5112236 0.5112236
0.0508705 0.1318988 0.0508705
0.1307115 0.1307115 0.0322275
0.2552181 0.1580157 0.1207292
0.3821689 0.2479683 0.2420209
0.4925779 0.4162683 0.4160872
0.5056944 0.4922398 0.4922380
0.5106107 0.5082728 0.5082727
0.5116210 0.5112236 0.5112236
0.1815441 0.2625724 0.1815441
0.1753829 0.2596637 0.1497461
0.2620746 0.2620746 0.1635906
0.3833847 0.2890393 0.2494709
0.4927595 0.4188185 0.4170260
0.5057081 0.4922958 0.4922768
0.5106110 0.5082739 0.5082736
0.5116210 0.5112236 0.5112236
0.3100106 0.3910389 0.3100106
0.3093961 0.3907297 0.3074707
0.3031693 0.3878212 0.2736010
0.3906120 0.3906120 0.2921280
0.4943637 0.4377802 0.4247340
0.5058320 0.4928020 0.4926280
0.5106143 0.5082848 0.5082817
0.5116210 0.5112238 0.5112237
0.4598360 0.5031425 0.4598360
0.4597963 0.5031324 0.4597228
0.4594272 0.5030383 0.4586560
0.4556995 0.5020667 0.4463342
0.5054829 0.5054829 0.4602902
0.5068214 0.4967333 0.4953770
0.5106439 0.5083823 0.5083549
0.5116216 0.5112257 0.5112252
0.5036885 0.5100173 0.5036885
0.5036878 0.5100171 0.5036870
0.5036820 0.5100147 0.5036736
0.5036276 0.5099928 0.5035476
0.5030801 0.5097640 0.5022118
0.5107197 0.5107197 0.5052123
0.5108719 0.5091306 0.5089152
0.5116270 0.5112426 0.5112380
0.5104623 0.5115142 0.5104623
0.5104622 0.5115142 0.5104622
0.5104621 0.5115142 0.5104620
0.5104611 0.5115138 0.5104598
0.5104519 0.5115098 0.5104392
0.5103588 0.5114685 0.5102224
0.5116447 0.5116447 0.5107509
0.5116678 0.5113722 0.5113361
0.5116025 0.5117799 0.5116025
0.5116025 0.5117799 0.5116025
0.5116025 0.5117798 0.5116024
0.5116024 0.5117798 0.5116024
0.5116023 0.5117798 0.5116020
0.5116007 0.5117791 0.5115986
0.5115849 0.5117720 0.5115621
0.5118023 0.5118023 0.5116521
0.0190801 0.0190801 0.1191859
0.1271941 0.0437334 0.1271941
0.2539062 0.1226977 0.1582781
0.3820135 0.2415138 0.2474991
0.4925435 0.4157542 0.4159365
0.5056917 0.4922286 0.4922305
0.5106106 0.5082725 0.5082726
0.5116210 0.5112235 0.5112235
0.0755479 0.1360385 0.1360385
0.1282051 0.1282051 0.1282051
0.2564103 0.1282051 0.1282051
0.3823445 0.2414692 0.2414692
0.4925622 0.4160283 0.4160283
0.5056932 0.4922347 0.4922347
0.5106106 0.5082727 0.5082727
0.5116210 0.5112236 0.5112236
0.1846811 0.2630138 0.1990319
0.1790756 0.2601039 0.1790756
0.2589166 0.2589166 0.1604326
0.3834233 0.2862209 0.2489343
0.4927440 0.4185905 0.4169674
0.5057069 0.4922907 0.4922735
0.5106110 0.5082738 0.5082735
0.5116210 0.5112236 0.5112236
0.3103579 0.3910867 0.3121768
0.3097492 0.3907775 0.3097492
0.3035880 0.3878688 0.2779513
0.3902797 0.3902797 0.2917957
0.4943493 0.4376272 0.4246788
0.5058308 0.4927971 0.4926249
0.5106143 0.5082846 0.5082816
0.5116210 0.5112238 0.5112237
0.4598520 0.5031500 0.4599253
0.4598124 0.5031399 0.4598124
0.4594435 0.5030459 0.4587483
0.4557183 0.5020753 0.4464628
0.5054798 0.5054798 0.4602527
0.5068205 0.4967298 0.4953746
0.5106439 0.5083822 0.5083548
0.5116216 0.5112257 0.5112251
0.5036888 0.5100175 0.5036896
0.5036881 0.5100173 0.5036881
0.5036823 0.5100149 0.5036747
0.5036279 0.5099930 0.5035487
0.5030804 0.5097642 0.5022132
0.5107197 0.5107197 0.5052119
0.5108718 0.5091305 0.5089151
0.5116270 0.5112426 0.5112380
0.5104623 0.5115142 0.5104623
0.5104623 0.5115142 0.5104623
0.5104621 0.5115142 0.5104620
0.5104612 0.5115138 0.5104598
0.5104519 0.5115098 0.5104392
0.5103588 0.5114685 0.5102224
0.5116447 0.5116447 0.5107508
0.5116678 0.5113722 0.5113361
0.5116025 0.5117799 0.5116025
0.5116025 0.5117799 0.5116025
0.5116025 0.5117798 0.5116024
0.5116024 0.5117798 0.5116024
0.5116023 0.5117798 0.5116020
0.5116007 0.5117791 0.5115986
0.5115849 0.5117720 0.5115621
0.5118023 0.5118023 0.5116521
0.1314152 0.1314152 0.2315210
0.1595817 0.1386185 0.2367596
0.2546177 0.1711570 0.2546177
0.3817995 0.2514971 0.2891063
0.4926366 0.4160902 0.4179170
0.5056828 0.4921895 0.4922086
0.5106103 0.5082715 0.5082719
0.5116210 0.5112235 0.5112235
0.1487863 0.1681000 0.2423896
0.1472852 0.1472852 0.2473910
0.2553993 0.1719385 0.2553993
0.3821114 0.2509028 0.2864832
0.4926307 0.4160983 0.4177503
0.5056826 0.4921896 0.4922069
0.5106103 0.5082717 0.5082720
0.5116210 0.5112235 0.5112235
0.2066060 0.2670965 0.2670965
0.2037530 0.2642436 0.2642436
0.2564103 0.2564103 0.2564103
0.3846154 0.2564103 0.2564103
0.4926001 0.4164338 0.4164338
0.5056957 0.4922435 0.4922435
0.5106107 0.5082728 0.5082728
0.5116210 0.5112236 0.5112236
0.3134452 0.3915279 0.3289334
0.3128862 0.3912189 0.3272370
0.3072808 0.3883091 0.3072808
0.3871218 0.3871218 0.2886377
0.4942157 0.4361876 0.4241726
0.5058199 0.4927516 0.4925959
0.5106140 0.5082837 0.5082810
0.5116210 0.5112238 0.5112237
0.4599992 0.5032186 0.4607420
0.4599598 0.5032086 0.4606318
0.4595932 0.5031156 0.4595932
0.4558912 0.5021549 0.4476357
0.5054518 0.5054518 0.4599034
0.5068122 0.4966971 0.4953528
0.5106436 0.5083813 0.5083541
0.5116216 0.5112256 0.5112251
0.5036914 0.5100192 0.5036998
0.5036907 0.5100189 0.5036984
0.5036849 0.5100166 0.5036849
0.5036306 0.5099947 0.5035592
0.5030835 0.5097662 0.5022256
0.5107191 0.5107191 0.5052085
0.5108716 0.5091298 0.5089146
0.5116270 0.5112426 0.5112380
0.5104623 0.5115143 0.5104625
0.5104623 0.5115143 0.5104624
0.5104622 0.5115142 0.5104622
0.5104612 0.5115138 0.5104600
0.5104520 0.5115098 0.5104394
0.5103589 0.5114685 0.5102226
0.5116446 0.5116446 0.5107508
0.5116678 0.5113722 0.5113361
0.5116025 0.5117799 0.5116025
0.5116025 0.5117799 0.5116025
0.5116025 0.5117799 0.5116025
0.5116024 0.5117798 0.5116024
0.5116023 0.5117798 0.5116020
0.5116007 0.5117791 0.5115986
0.5115849 0.5117720 0.5115621
0.5118023 0.5118023 0.5116521
0.2576049 0.2576049 0.3577107
0.2612796 0.2585308 0.3584404
0.2885823 0.2660164 0.3639704
0.3827375 0.2992767 0.3827375
0.4934908 0.4191228 0.4335775
0.5057206 0.4922628 0.4924405
0.5106082 0.5082641 0.5082672
0.5116209 0.5112234 0.5112234
0.2602114 0.2629290 0.3595663
0.2596204 0.2596204 0.3597262
0.2877868 0.2668236 0.3649647
0.3828229 0.2993621 0.3828229
0.4934855 0.4191299 0.4334610
0.5057205 0.4922629 0.4924387
0.5106082 0.5082641 0.5082671
0.5116209 0.5112234 0.5112234
0.2774200 0.2980839 0.3704475
0.2769915 0.2963052 0.3705947
0.2754903 0.2754903 0.3755961
0.3836044 0.3001437 0.3836044
0.4934358 0.4191953 0.4323629
0.5057188 0.4922638 0.4924226
0.5106081 0.5082641 0.5082669
0.5116209 0.5112234 0.5112234
0.3351121 0.3956027 0.3956027
0.3348111 0.3953017 0.3953017
0.3319581 0.3924487 0.3924487
0.3846154 0.3846154 0.3846154
0.4933112 0.4236079 0.4236079
0.5057182 0.4923245 0.4923245
0.5106113 0.5082745 0.5082745
0.5116210 0.5112236 0.5112236
0.4613395 0.5038476 0.4677728
0.4613023 0.5038385 0.4676841
0.4609556 0.5037542 0.4668503
0.4574640 0.5028836 0.4574640
0.5051790 0.5051790 0.4564042
0.5067347 0.4963908 0.4951491
0.5106410 0.5083725 0.5083480
0.5116216 0.5112255 0.5112250
0.5037156 0.5100346 0.5037939
0.5037149 0.5100343 0.5037925
0.5037091 0.5100320 0.5037792
0.5036551 0.5100103 0.5036551
0.5031117 0.5097844 0.5023395
0.5107140 0.5107140 0.5051766
0.5108698 0.5091237 0.5089102
0.5116269 0.5112424 0.5112379
0.5104628 0.5115146 0.5104641
0.5104628 0.5115146 0.5104641
0.5104626 0.5115145 0.5104639
0.5104617 0.5115141 0.5104617
0.5104524 0.5115101 0.5104411
0.5103594 0.5114689 0.5102246
0.5116445 0.5116445 0.5107502
0.5116677 0.5113721 0.5113360
0.5116025 0.5117799 0.5116025
0.5116025 0.5117799 0.5116025
0.5116025 0.5117799 0.5116025
0.5116024 0.5117798 0.5116024
0.5116023 0.5117798 0.5116021
0.5116007 0.5117791 0.5115986
0.5115849 0.5117720 0.5115622
0.5118023 0.5118023 0.5116521
0.3855872 0.3855872 0.4856929
0.3859724 0.3856671 0.4857710
0.3896566 0.3866222 0.4865086
0.4163724 0.3942768 0.4905952
0.5009356 0.4422071 0.5009356
0.5060637 0.4929268 0.4945045
0.5106164 0.5082785 0.5083065
0.5116205 0.5112221 0.5112226
0.3858833 0.3861881 0.4859070
0.3858100 0.3858100 0.4859158
0.3894847 0.3867359 0.4866456
0.4162688 0.3943669 0.4906301
0.5009363 0.4422152 0.5009363
0.5060636 0.4929269 0.4945030
0.5106164 0.5082785 0.5083065
0.5116205 0.5112221 0.5112226
0.3884837 0.3914802 0.4877590
0.3884165 0.3911341 0.4877715
0.3878255 0.3878255 0.4879313
0.4152837 0.3951970 0.4909550
0.5009430 0.4422902 0.5009430
0.5060621 0.4929278 0.4944890
0.5106163 0.5082785 0.5083062
0.5116205 0.5112221 0.5112226
0.4070613 0.4254928 0.4935270
0.4070006 0.4253038 0.4935228
0.4064522 0.4235242 0.4934925
0.4027387 0.4027387 0.4942134
0.5010039 0.4429720 0.5010039
0.5060485 0.4929355 0.4943580
0.5106160 0.5082787 0.5083037
0.5116205 0.5112221 0.5112225
0.4724044 0.5092922 0.5092922
0.4723838 0.5092912 0.5092912
0.4721936 0.5092825 0.5092825
0.4703336 0.5091986 0.5091986
0.5118344 0.5118344 0.5118344
0.5061269 0.4937817 0.4937817
0.5106166 0.5082902 0.5082902
0.5116211 0.5112239 0.5112239
0.5039357 0.5101747 0.5046457
0.5039351 0.5101744 0.5046444
0.5039296 0.5101724 0.5046327
0.5038788 0.5101529 0.5045236
0.5033686 0.5099500 0.5033686
0.5106643 0.5106643 0.5048658
0.5108524 0.5090660 0.5088689
0.5116265 0.5112409 0.5112368
0.5104669 0.5115173 0.5104794
0.5104669 0.5115173 0.5104794
0.5104668 0.5115173 0.5104791
0.5104658 0.5115168 0.5104770
0.5104567 0.5115129 0.5104567
0.5103643 0.5114721 0.5102429
0.5116437 0.5116437 0.5107452
0.5116674 0.5113710 0.5113353
0.5116025 0.5117799 0.5116028
0.5116025 0.5117799 0.5116028
0.5116025 0.5117799 0.5116028
0.5116025 0.5117799 0.5116027
0.5116024 0.5117798 0.5116024
0.5116008 0.5117792 0.5115989
0.5115850 0.5117721 0.5115625
0.5118022 0.5118022 0.5116520
0.4691607 0.4691607 0.5060836
0.4691615 0.4691551 0.5060833
0.4693188 0.4692539 0.5060952
0.4707295 0.4701443 0.5062030
0.4810905 0.4769545 0.5070757
0.5087474 0.4980779 0.5087474
0.5106902 0.5084085 0.5086603
0.5116220 0.5112246 0.5112293
0.4691868 0.4691932 0.5060864
0.4691706 0.4691706 0.5060845
0.4693117 0.4692531 0.5060948
0.4707228 0.4701436 0.5062027
0.4810861 0.4769541 0.5070754
0.5087474 0.4980780 0.5087474
0.5106902 0.5084085 0.5086603
0.5116220 0.5112246 0.5112293
0.4694267 0.4694912 0.5061126
0.4694106 0.4694689 0.5061107
0.4692621 0.4692621 0.5060933
0.4706603 0.4701369 0.5061997
0.4810455 0.4769506 0.5070732
0.5087477 0.4980797 0.5087477
0.5106901 0.5084085 0.5086600
0.5116220 0.5112246 0.5112293
0.4715186 0.4720773 0.5063452
0.4715041 0.4720573 0.5063435
0.4713697 0.4718718 0.5063272
0.4700837 0.4700837 0.5061726
0.4806621 0.4769149 0.5070520
0.5087509 0.4980951 0.5087509
0.5106899 0.5084087 0.5086578
0.5116220 0.5112246 0.5112292
0.4842291 0.4873219 0.5079268
0.4842222 0.4873128 0.5079258
0.4841581 0.4872289 0.5079164
0.4835512 0.4864307 0.5078279
0.4761842 0.4761842 0.5067940
0.5087796 0.4982355 0.5087796
0.5106873 0.5084100 0.5086367
0.5116219 0.5112246 0.5112288
0.5057496 0.5113294 0.5113294
0.5057493 0.5113294 0.5113294
0.5057465 0.5113292 0.5113292
0.5057207 0.5113271 0.5113271
0.5054708 0.5113074 0.5113074
0.5118344 0.5118344 0.5118344
0.5107112 0.5085708 0.5085708
0.5116220 0.5112266 0.5112266
0.5105049 0.5115423 0.5106183
0.5105048 0.5115423 0.5106182
0.5105047 0.5115423 0.5106180
0.5105038 0.5115419 0.5106161
0.5104952 0.5115384 0.5105981
0.5104087 0.5115019 0.5104087
0.5116352 0.5116352 0.5106961
0.5116643 0.5113610 0.5113281
0.5116032 0.5117804 0.5116053
0.5116032 0.5117804 0.5116053
0.5116032 0.5117804 0.5116053
0.5116032 0.5117804 0.5116053
0.5116031 0.5117803 0.5116049
0.5116015 0.5117796 0.5116015
0.5115859 0.5117726 0.5115656
0.5118021 0.5118021 0.5116512
0.5019007 0.5019007 0.5101540
0.5019001 0.5019000 0.5101539
0.5019009 0.5018997 0.5101539
0.5019439 0.5019326 0.5101598
0.5023275 0.5022269 0.5102123
0.5050377 0.5043242 0.5105923
0.5112447 0.5093948 0.5112447
0.5116351 0.5112472 0.5112894
0.5019017 0.5019018 0.5101541
0.5019011 0.5019011 0.5101540
0.5019007 0.5018996 0.5101539
0.5019437 0.5019326 0.5101598
0.5023273 0.5022268 0.5102122
0.5050376 0.5043241 0.5105923
0.5112447 0.5093948 0.5112447
0.5116351 0.5112472 0.5112894
0.5019103 0.5019115 0.5101556
0.5019097 0.5019107 0.5101555
0.5019041 0.5019041 0.5101545
0.5019421 0.5019320 0.5101596
0.5023258 0.5022264 0.5102121
0.5050366 0.5043239 0.5105922
0.5112447 0.5093948 0.5112447
0.5116350 0.5112472 0.5112894
0.5019889 0.5020001 0.5101689
0.5019883 0.5019994 0.5101688
0.5019829 0.5019929 0.5101678
0.5019322 0.5019322 0.5101589
0.5023117 0.5022219 0.5102107
0.5050279 0.5043216 0.5105914
0.5112448 0.5093951 0.5112448
0.5116350 0.5112472 0.5112894
0.5026614 0.5027572 0.5102830
0.5026609 0.5027565 0.5102829
0.5026562 0.5027508 0.5102821
0.5026120 0.5026979 0.5102742
0.5021827 0.5021827 0.5101984
0.5049450 0.5042992 0.5105834
0.5112455 0.5093980 0.5112455
0.5116350 0.5112472 0.5112890
0.5062608 0.5067837 0.5109122
0.5062606 0.5067835 0.5109121
0.5062588 0.5067813 0.5109118
0.5062421 0.5067613 0.5109087
0.5060827 0.5065698 0.5108788
0.5039610 0.5039610 0.5104830
0.5112517 0.5094240 0.5112517
0.5116346 0.5112475 0.5112854
0.5108155 0.5117464 0.5117464
0.5108155 0.5117464 0.5117464
0.5108155 0.5117464 0.5117464
0.5108150 0.5117463 0.5117463
0.5108107 0.5117460 0.5117460
0.5107694 0.5117424 0.5117424
0.5118344 0.5118344 0.5118344
0.5116390 0.5112753 0.5112753
0.5116097 0.5117846 0.5116287
0.5116097 0.5117846 0.5116287
0.5116097 0.5117846 0.5116287
0.5116097 0.5117846 0.5116286
0.5116095 0.5117846 0.5116283
0.5116081 0.5117840 0.5116253
0.5115934 0.5117777 0.5115934
0.5118006 0.5118006 0.5116430
0.5100255 0.5100255 0.5115103
0.5100255 0.5100255 0.5115103
0.5100254 0.5100254 0.5115103
0.5100255 0.5100253 0.5115103
0.5100338 0.5100319 0.5115115
0.5101071 0.5100900 0.5115230
0.5106171 0.5104960 0.5116031
0.5117324 0.5114181 0.5117324
0.5100255 0.5100255 0.5115103
0.5100255 0.5100255 0.5115103
0.5100254 0.5100254 0.5115103
0.5100255 0.5100253 0.5115103
0.5100338 0.5100319 0.5115115
0.5101071 0.5100900 0.5115230
0.5106171 0.5104960 0.5116031
0.5117324 0.5114181 0.5117324
0.5100257 0.5100257 0.5115103
0.5100257 0.5100257 0.5115103
0.5100256 0.5100256 0.5115103
0.5100255 0.5100253 0.5115103
0.5100337 0.5100319 0.5115115
0.5101071 0.5100900 0.5115230
0.5106171 0.5104960 0.5116031
0.5117324 0.5114181 0.5117324
0.5100274 0.5100276 0.5115106
0.5100274 0.5100276 0.5115106
0.5100273 0.5100275 0.5115106
0.5100262 0.5100262 0.5115104
0.5100334 0.5100317 0.5115115
0.5101068 0.5100899 0.5115230
0.5106169 0.5104960 0.5116030
0.5117324 0.5114182 0.5117324
0.5100430 0.5100449 0.5115136
0.5100430 0.5100449 0.5115136
0.5100428 0.5100447 0.5115135
0.5100418 0.5100435 0.5115133
0.5100317 0.5100317 0.5115114
0.5101042 0.5100890 0.5115227
0.5106153 0.5104955 0.5116029
0.5117324 0.5114182 0.5117324
0.5101751 0.5101913 0.5115384
0.5101751 0.5101913 0.5115384
0.5101750 0.5101912 0.5115384
0.5101740 0.5101901 0.5115382
0.5101653 0.5101799 0.5115365
0.5100806 0.5100806 0.5115200
0.5106004 0.5104909 0.5116013
0.5117326 0.5114187 0.5117326
0.5108570 0.5109454 0.5116672
0.5108570 0.5109454 0.5116672
0.5108569 0.5109453 0.5116672
0.5108566 0.5109449 0.5116672
0.5108535 0.5109413 0.5116666
0.5108240 0.5109064 0.5116607
0.5104226 0.5104226 0.5115807
0.5117337 0.5114232 0.5117337
0.5116624 0.5118194 0.5118194
0.5116624 0.5118194 0.5118194
0.5116624 0.5118194 0.5118194
0.5116623 0.5118194 0.5118194
0.5116623 0.5118194 0.5118194
0.5116615 0.5118193 0.5118193
0.5116546 0.5118187 0.5118187
0.5118344 0.5118344 0.5118344
