LUTs/guard_rail_p3.cube
TITLE "Guard Rail P3"
# Guard Rail Formation for P3 medium.
# The Guard Rail is designed to leaves valid value as-is, and only touch out of domain valuesModified from python script shared by Sakari Kapanen
# This LUT assumes input and output to be E Gamut encoded in Log2 (-10 stop to +15 stop)
# LUT resolution 40
LUT_3D_SIZE 4
-0.0000000 0.0000000 -0.0000000
0.3307955 0.1899202 0.1899202
0.5072826 0.4977654 0.4977654
0.5117826 0.5116867 0.5116867
0.2586831 0.3397114 0.2586831
0.3392722 0.3392722 0.2407882
0.5073119 0.4978764 0.4978446
0.5117826 0.5116867 0.5116867
0.5061348 0.5105422 0.5061348
0.5061236 0.5105376 0.5061094
0.5110513 0.5110513 0.5072493
0.5117830 0.5116879 0.5116876
0.5117784 0.5118212 0.5117784
0.5117784 0.5118212 0.5117784
0.5117783 0.5118212 0.5117782
0.5118266 0.5118266 0.5117904
0.2066789 0.2066789 0.3067847
0.3314703 0.2480096 0.3314703
0.5072796 0.4977424 0.4977745
0.5117826 0.5116867 0.5116867
0.2837778 0.3442683 0.3442683
0.3333333 0.3333333 0.3333333
0.5072879 0.4977829 0.4977829
0.5117826 0.5116867 0.5116867
0.5061398 0.5105454 0.5061539
0.5061287 0.5105409 0.5061287
0.5110503 0.5110503 0.5072429
0.5117830 0.5116879 0.5116876
0.5117784 0.5118212 0.5117784
0.5117784 0.5118212 0.5117784
0.5117783 0.5118212 0.5117782
0.5118266 0.5118266 0.5117904
0.4788411 0.4788411 0.5070836
0.4791700 0.4790585 0.5071132
0.5095777 0.5020361 0.5095777
0.5117826 0.5116864 0.5116867
0.4793959 0.4795059 0.5071526
0.4790485 0.4790485 0.5071067
0.5095784 0.5020394 0.5095784
0.5117826 0.5116864 0.5116867
0.5075856 0.5114767 0.5114767
0.5075803 0.5114762 0.5114762
0.5118344 0.5118344 0.5118344
0.5117827 0.5116869 0.5116869
0.5117785 0.5118212 0.5117786
0.5117785 0.5118212 0.5117786
0.5117784 0.5118212 0.5117784
0.5118266 0.5118266 0.5117904
0.5113926 0.5113926 0.5117544
0.5113925 0.5113925 0.5117544
0.5113978 0.5113967 0.5117553
0.5118097 0.5117338 0.5118097
0.5113926 0.5113926 0.5117544
0.5113926 0.5113926 0.5117544
0.5113978 0.5113967 0.5117553
0.5118097 0.5117338 0.5118097
0.5114029 0.5114040 0.5117564
0.5114029 0.5114040 0.5117564
0.5113962 0.5113962 0.5117551
0.5118097 0.5117338 0.5118097
0.5117929 0.5118308 0.5118308
0.5117929 0.5118308 0.5118308
0.5117928 0.5118308 0.5118308
0.5118344 0.5118344 0.5118344
