LUTs/guard_rail_bt2020.cube
TITLE "Guard Rail BT.2020"
# Guard Rail Formation for ITU-R BT.2020 medium.
# The Guard Rail is designed to leaves valid value as-is, and only touch out of domain valuesModified from python script shared by Sakari Kapanen
# This LUT assumes input and output to be ST2084 (100)
# This LUT expects input primaries of ITU-R BT.2020
# LUT resolution is 33
LUT_3D_SIZE 9
0.0000007 0.0000007 0.0000007
0.1250000 0.0000007 0.0000009
0.2500000 0.0000007 0.0000009
0.3750000 0.0000007 0.0000007
0.5000000 0.0000007 0.0000010
0.5080784 0.4087859 0.4087859
0.5080784 0.4729180 0.4729180
0.5080784 0.4962658 0.4962658
0.5080784 0.5043401 0.5043401
0.0000009 0.1250000 0.0000007
0.1250000 0.1250000 0.0000007
0.2500000 0.1250000 0.0000007
0.3750000 0.1250000 0.0000007
0.5000000 0.1250000 0.0000007
0.5080784 0.4093582 0.4090413
0.5080784 0.4729828 0.4729577
0.5080784 0.4962729 0.4962705
0.5080784 0.5043408 0.5043406
0.0000009 0.2500000 0.0000007
0.1250000 0.2500000 0.0000007
0.2500000 0.2500000 0.0000007
0.3750000 0.2500000 0.0000007
0.5000000 0.2500000 0.0000007
0.5080784 0.4135936 0.4109565
0.5080784 0.4734749 0.4732593
0.5080784 0.4963279 0.4963072
0.5080784 0.5043463 0.5043443
0.0000007 0.3750000 0.0000007
0.1250000 0.3750000 0.0000007
0.2500000 0.3750000 0.0000007
0.3750000 0.3750000 0.0000007
0.5000000 0.3750000 0.0000007
0.5080784 0.4290078 0.4182917
0.5080784 0.4754686 0.4744869
0.5080784 0.4965578 0.4964605
0.5080784 0.5043695 0.5043602
0.0000007 0.5000000 0.0000007
0.1250000 0.5000000 0.0000007
0.2500000 0.5000000 0.0000007
0.3750000 0.5000000 0.0000007
0.5000000 0.5000000 0.0000007
0.5080784 0.4634455 0.4367180
0.5080784 0.4813501 0.4781594
0.5080784 0.4973132 0.4969653
0.5080784 0.5044490 0.5044147
0.4503683 0.5080784 0.4503683
0.4505519 0.5080784 0.4504047
0.4519454 0.5080784 0.4506824
0.4575739 0.5080784 0.4518345
0.4740829 0.5080784 0.4555054
0.5080784 0.5080784 0.4645534
0.5080784 0.4933770 0.4859027
0.5080784 0.4993359 0.4983224
0.5080784 0.5046886 0.5045787
0.4907955 0.5080784 0.4907955
0.4908111 0.5080784 0.4907998
0.4909302 0.5080784 0.4908322
0.4914312 0.5080784 0.4909688
0.4931050 0.5080784 0.4914285
0.4978046 0.5080784 0.4927474
0.5080784 0.5080784 0.4957777
0.5080784 0.5033026 0.5010082
0.5080784 0.5053127 0.5050067
0.5026467 0.5080784 0.5026467
0.5026482 0.5080784 0.5026471
0.5026598 0.5080784 0.5026506
0.5027092 0.5080784 0.5026652
0.5028791 0.5080784 0.5027156
0.5034015 0.5080784 0.5028707
0.5048401 0.5080784 0.5033009
0.5080784 0.5080784 0.5042840
0.5080784 0.5065513 0.5058584
0.5063996 0.5080784 0.5063996
0.5063997 0.5080784 0.5063996
0.5064008 0.5080784 0.5064000
0.5064055 0.5080784 0.5064014
0.5064219 0.5080784 0.5064064
0.5064737 0.5080784 0.5064221
0.5066285 0.5080784 0.5064692
0.5070611 0.5080784 0.5066011
0.5080784 0.5080784 0.5069127
0.0000009 0.0000007 0.1250000
0.1250000 0.0000007 0.1250000
0.2500000 0.0000007 0.1250000
0.3750000 0.0000007 0.1250000
0.5000000 0.0000007 0.1250000
0.5080784 0.4088439 0.4091617
0.5080784 0.4729270 0.4729522
0.5080784 0.4962668 0.4962692
0.5080784 0.5043402 0.5043404
0.0000009 0.1250000 0.1250000
0.1250000 0.1250000 0.1250000
0.2500000 0.1250000 0.1250000
0.3750000 0.1250000 0.1250000
0.5000000 0.1250000 0.1250000
0.5080784 0.4094156 0.4094156
0.5080784 0.4729918 0.4729918
0.5080784 0.4962740 0.4962740
0.5080784 0.5043409 0.5043409
0.0000007 0.2500000 0.1250000
0.1250000 0.2500000 0.1250000
0.2500000 0.2500000 0.1250000
0.3750000 0.2500000 0.1250000
0.5000000 0.2500000 0.1250000
0.5080784 0.4136466 0.4113189
0.5080784 0.4734837 0.4732930
0.5080784 0.4963289 0.4963106
0.5080784 0.5043464 0.5043446
0.0000007 0.3750000 0.1250000
0.1250000 0.3750000 0.1250000
0.2500000 0.3750000 0.1250000
0.3750000 0.3750000 0.1250000
0.5000000 0.3750000 0.1250000
0.5080784 0.4290466 0.4186108
0.5080784 0.4754766 0.4745189
0.5080784 0.4965588 0.4964639
0.5080784 0.5043696 0.5043606
0.0000007 0.5000000 0.1250000
0.1250000 0.5000000 0.1250000
0.2500000 0.5000000 0.1250000
0.3750000 0.5000000 0.1250000
0.5000000 0.5000000 0.1250000
0.5080784 0.4634611 0.4369426
0.5080784 0.4813558 0.4781868
0.5080784 0.4973142 0.4969685
0.5080784 0.5044491 0.5044150
0.4503869 0.5080784 0.4505342
0.4505704 0.5080784 0.4505704
0.4519632 0.5080784 0.4508470
0.4575893 0.5080784 0.4519946
0.4740919 0.5080784 0.4556514
0.5080784 0.5080784 0.4646672
0.5080784 0.4933793 0.4859211
0.5080784 0.4993366 0.4983251
0.5080784 0.5046887 0.5045790
0.4907977 0.5080784 0.4908090
0.4908132 0.5080784 0.4908132
0.4909323 0.5080784 0.4908456
0.4914333 0.5080784 0.4909821
0.4931068 0.5080784 0.4914414
0.4978057 0.5080784 0.4927591
0.5080784 0.5080784 0.4957867
0.5080784 0.5033028 0.5010100
0.5080784 0.5053128 0.5050070
0.5026469 0.5080784 0.5026480
0.5026484 0.5080784 0.5026484
0.5026600 0.5080784 0.5026519
0.5027094 0.5080784 0.5026665
0.5028793 0.5080784 0.5027168
0.5034016 0.5080784 0.5028720
0.5048402 0.5080784 0.5033020
0.5080784 0.5080784 0.5042848
0.5080784 0.5065513 0.5058586
0.5063996 0.5080784 0.5063997
0.5063997 0.5080784 0.5063997
0.5064008 0.5080784 0.5064001
0.5064056 0.5080784 0.5064015
0.5064219 0.5080784 0.5064065
0.5064737 0.5080784 0.5064222
0.5066286 0.5080784 0.5064694
0.5070611 0.5080784 0.5066012
0.5080784 0.5080784 0.5069128
0.0000009 0.0000007 0.2500000
0.1250000 0.0000007 0.2500000
0.2500000 0.0000007 0.2500000
0.3750000 0.0000007 0.2500000
0.5000000 0.0000007 0.2500000
0.5080784 0.4092873 0.4119944
0.5080784 0.4729960 0.4732135
0.5080784 0.4962752 0.4962959
0.5080784 0.5043410 0.5043430
0.0000009 0.1250000 0.2500000
0.1250000 0.1250000 0.2500000
0.2500000 0.1250000 0.2500000
0.3750000 0.1250000 0.2500000
0.5000000 0.1250000 0.2500000
0.5080784 0.4098543 0.4122364
0.5080784 0.4730605 0.4732527
0.5080784 0.4962823 0.4963007
0.5080784 0.5043417 0.5043435
0.0000010 0.2500000 0.2500000
0.1250000 0.2500000 0.2500000
0.2500000 0.2500000 0.2500000
0.3750000 0.2500000 0.2500000
0.5000000 0.2500000 0.2500000
0.5080784 0.4140518 0.4140518
0.5080784 0.4735508 0.4735508
0.5080784 0.4963372 0.4963372
0.5080784 0.5043472 0.5043472
0.0000007 0.3750000 0.2500000
0.1250000 0.3750000 0.2500000
0.2500000 0.3750000 0.2500000
0.3750000 0.3750000 0.2500000
0.5000000 0.3750000 0.2500000
0.5080784 0.4293432 0.4210223
0.5080784 0.4755373 0.4747642
0.5080784 0.4965668 0.4964900
0.5080784 0.5043705 0.5043631
0.0000007 0.5000000 0.2500000
0.1250000 0.5000000 0.2500000
0.2500000 0.5000000 0.2500000
0.3750000 0.5000000 0.2500000
0.5000000 0.5000000 0.2500000
0.5080784 0.4635811 0.4386468
0.5080784 0.4813996 0.4783962
0.5080784 0.4973213 0.4969931
0.5080784 0.5044499 0.5044175
0.4505291 0.5080784 0.4517964
0.4507120 0.5080784 0.4518316
0.4520999 0.5080784 0.4520999
0.4577069 0.5080784 0.4532131
0.4741611 0.5080784 0.4567635
0.5080784 0.5080784 0.4655349
0.5080784 0.4933968 0.4860624
0.5080784 0.4993417 0.4983458
0.5080784 0.5046894 0.5045814
0.4908143 0.5080784 0.4909124
0.4908298 0.5080784 0.4909166
0.4909487 0.5080784 0.4909487
0.4914490 0.5080784 0.4910842
0.4931205 0.5080784 0.4915401
0.4978142 0.5080784 0.4928484
0.5080784 0.5080784 0.4958555
0.5080784 0.5033048 0.5010237
0.5080784 0.5053133 0.5050090
0.5026487 0.5080784 0.5026579
0.5026502 0.5080784 0.5026584
0.5026618 0.5080784 0.5026618
0.5027111 0.5080784 0.5026764
0.5028810 0.5080784 0.5027266
0.5034031 0.5080784 0.5028814
0.5048411 0.5080784 0.5033105
0.5080784 0.5080784 0.5042914
0.5080784 0.5065515 0.5058599
0.5063998 0.5080784 0.5064006
0.5063999 0.5080784 0.5064007
0.5064010 0.5080784 0.5064010
0.5064057 0.5080784 0.5064025
0.5064221 0.5080784 0.5064074
0.5064738 0.5080784 0.5064232
0.5066287 0.5080784 0.5064702
0.5070612 0.5080784 0.5066020
0.5080784 0.5080784 0.5069134
0.0000010 0.0000007 0.3750000
0.1250000 0.0000007 0.3750000
0.2500000 0.0000007 0.3750000
0.3750000 0.0000007 0.3750000
0.5000000 0.0000007 0.3750000
0.5080784 0.4111276 0.4230999
0.5080784 0.4732866 0.4743093
0.5080784 0.4963105 0.4964091
0.5080784 0.5043447 0.5043540
0.0000010 0.1250000 0.3750000
0.1250000 0.1250000 0.3750000
0.2500000 0.1250000 0.3750000
0.3750000 0.1250000 0.3750000
0.5000000 0.1250000 0.3750000
0.5080784 0.4116755 0.4232988
0.5080784 0.4733503 0.4743468
0.5080784 0.4963176 0.4964138
0.5080784 0.5043454 0.5043545
0.0000010 0.2500000 0.3750000
0.1250000 0.2500000 0.3750000
0.2500000 0.2500000 0.3750000
0.3750000 0.2500000 0.3750000
0.5000000 0.2500000 0.3750000
0.5080784 0.4157355 0.4247934
0.5080784 0.4738337 0.4746320
0.5080784 0.4963722 0.4964498
0.5080784 0.5043508 0.5043582
0.0000010 0.3750000 0.3750000
0.1250000 0.3750000 0.3750000
0.2500000 0.3750000 0.3750000
0.3750000 0.3750000 0.3750000
0.5000000 0.3750000 0.3750000
0.5080784 0.4305800 0.4305800
0.5080784 0.4757936 0.4757936
0.5080784 0.4966007 0.4966007
0.5080784 0.5043741 0.5043741
0.0000007 0.5000000 0.3750000
0.1250000 0.5000000 0.3750000
0.2500000 0.5000000 0.3750000
0.3750000 0.5000000 0.3750000
0.5000000 0.5000000 0.3750000
0.5080784 0.4640843 0.4455295
0.5080784 0.4815846 0.4792764
0.5080784 0.4973515 0.4970973
0.5080784 0.5044534 0.5044282
0.4511266 0.5080784 0.4569571
0.4513067 0.5080784 0.4569880
0.4526740 0.5080784 0.4572234
0.4582013 0.5080784 0.4582013
0.4744524 0.5080784 0.4613300
0.5080784 0.5080784 0.4691234
0.5080784 0.4934706 0.4866584
0.5080784 0.4993632 0.4984336
0.5080784 0.5046925 0.5045915
0.4908844 0.5080784 0.4913493
0.4908999 0.5080784 0.4913534
0.4910182 0.5080784 0.4913845
0.4915158 0.5080784 0.4915158
0.4931786 0.5080784 0.4919577
0.4978504 0.5080784 0.4932263
0.5080784 0.5080784 0.4961466
0.5080784 0.5033133 0.5010820
0.5080784 0.5053155 0.5050175
0.5026561 0.5080784 0.5027002
0.5026576 0.5080784 0.5027007
0.5026693 0.5080784 0.5027041
0.5027185 0.5080784 0.5027185
0.5028881 0.5080784 0.5027683
0.5034092 0.5080784 0.5029217
0.5048450 0.5080784 0.5033469
0.5080784 0.5080784 0.5043192
0.5080784 0.5065524 0.5058655
0.5064005 0.5080784 0.5064047
0.5064006 0.5080784 0.5064047
0.5064018 0.5080784 0.5064050
0.5064065 0.5080784 0.5064065
0.5064228 0.5080784 0.5064114
0.5064745 0.5080784 0.5064271
0.5066293 0.5080784 0.5064741
0.5070616 0.5080784 0.5066055
0.5080784 0.5080784 0.5069161
0.0000011 0.0000007 0.5000000
0.1250000 0.0000007 0.5000000
0.2500000 0.0000007 0.5000000
0.3750000 0.0000007 0.5000000
0.5000000 0.0000007 0.5000000
0.5080784 0.4170047 0.4532022
0.5080784 0.4742629 0.4779310
0.5080784 0.4964320 0.4967976
0.5080784 0.5043572 0.5043922
0.0000011 0.1250000 0.5000000
0.1250000 0.1250000 0.5000000
0.2500000 0.1250000 0.5000000
0.3750000 0.1250000 0.5000000
0.5000000 0.1250000 0.5000000
0.5080784 0.4174944 0.4533073
0.5080784 0.4743235 0.4779631
0.5080784 0.4964390 0.4968021
0.5080784 0.5043580 0.5043926
0.0000011 0.2500000 0.5000000
0.1250000 0.2500000 0.5000000
0.2500000 0.2500000 0.5000000
0.3750000 0.2500000 0.5000000
0.5000000 0.2500000 0.5000000
0.5080784 0.4211334 0.4541011
0.5080784 0.4747845 0.4782073
0.5080784 0.4964926 0.4968365
0.5080784 0.5043634 0.5043963
0.0000011 0.3750000 0.5000000
0.1250000 0.3750000 0.5000000
0.2500000 0.3750000 0.5000000
0.3750000 0.3750000 0.5000000
0.5000000 0.3750000 0.5000000
0.5080784 0.4345910 0.4572325
0.5080784 0.4766558 0.4792039
0.5080784 0.4967172 0.4969807
0.5080784 0.5043865 0.5044120
0.0000011 0.5000000 0.5000000
0.1250000 0.5000000 0.5000000
0.2500000 0.5000000 0.5000000
0.3750000 0.5000000 0.5000000
0.5000000 0.5000000 0.5000000
0.5080784 0.4657520 0.4657520
0.5080784 0.4822097 0.4822097
0.5080784 0.4974557 0.4974557
0.5080784 0.5044654 0.5044654
0.4531134 0.5080784 0.4726821
0.4532846 0.5080784 0.4727013
0.4545844 0.5080784 0.4728479
0.4598502 0.5080784 0.4734584
0.4754296 0.5080784 0.4754296
0.5080784 0.5080784 0.4804568
0.5080784 0.4937224 0.4886682
0.5080784 0.4994373 0.4987360
0.5080784 0.5047032 0.5046265
0.4911246 0.5080784 0.4928339
0.4911398 0.5080784 0.4928375
0.4912559 0.5080784 0.4928653
0.4917444 0.5080784 0.4929826
0.4933776 0.5080784 0.4933776
0.4979743 0.5080784 0.4945141
0.5080784 0.5080784 0.4971434
0.5080784 0.5033426 0.5012835
0.5080784 0.5053232 0.5050470
0.5026821 0.5080784 0.5028467
0.5026836 0.5080784 0.5028471
0.5026951 0.5080784 0.5028504
0.5027440 0.5080784 0.5028644
0.5029125 0.5080784 0.5029125
0.5034306 0.5080784 0.5030610
0.5048585 0.5080784 0.5034727
0.5080784 0.5080784 0.5044156
0.5080784 0.5065554 0.5058851
0.5064030 0.5080784 0.5064186
0.5064032 0.5080784 0.5064187
0.5064043 0.5080784 0.5064190
0.5064090 0.5080784 0.5064204
0.5064253 0.5080784 0.5064253
0.5064769 0.5080784 0.5064408
0.5066314 0.5080784 0.5064874
0.5070629 0.5080784 0.5066175
0.5080784 0.5080784 0.5069252
0.3656718 0.3656718 0.5080784
0.3665164 0.3659276 0.5080784
0.3727289 0.3678568 0.5080784
0.3948905 0.3754298 0.5080784
0.4432910 0.3958736 0.5080784
0.5080784 0.4316163 0.5080784
0.5080784 0.4770484 0.4878008
0.5080784 0.4968048 0.4979835
0.5080784 0.5043970 0.5045127
0.3662463 0.3668325 0.5080784
0.3670840 0.3670840 0.5080784
0.3732478 0.3689804 0.5080784
0.3952601 0.3764312 0.5080784
0.4434389 0.3965929 0.5080784
0.5080784 0.4319780 0.5080784
0.5080784 0.4771009 0.4878200
0.5080784 0.4968114 0.4979874
0.5080784 0.5043977 0.5045131
0.3704830 0.3751899 0.5080784
0.3712711 0.3754113 0.5080784
0.3770834 0.3770834 0.5080784
0.3980116 0.3836935 0.5080784
0.4445518 0.4018784 0.5080784
0.5080784 0.4346839 0.5080784
0.5080784 0.4775006 0.4879656
0.5080784 0.4968622 0.4980171
0.5080784 0.5044030 0.5045166
0.3856815 0.4027655 0.5080784
0.3863097 0.4029058 0.5080784
0.3909769 0.4039698 0.5080784
0.4082488 0.4082488 0.5080784
0.4488786 0.4206064 0.5080784
0.5080784 0.4449612 0.5080784
0.5080784 0.4791297 0.4885626
0.5080784 0.4970749 0.4981416
0.5080784 0.5044257 0.5045316
0.4184670 0.4539292 0.5080784
0.4188296 0.4539747 0.5080784
0.4215568 0.4543214 0.5080784
0.4321611 0.4557478 0.5080784
0.4601688 0.4601688 0.5080784
0.5080784 0.4703253 0.5080784
0.5080784 0.4840262 0.4903922
0.5080784 0.4977758 0.4985525
0.5080784 0.5045032 0.5045827
0.4586206 0.5080784 0.5080784
0.4587680 0.5080784 0.5080784
0.4598892 0.5080784 0.5080784
0.4644572 0.5080784 0.5080784
0.4782069 0.5080784 0.5080784
0.5080784 0.5080784 0.5080784
0.5080784 0.4944734 0.4944734
0.5080784 0.4996664 0.4996664
0.5080784 0.5047369 0.5047369
0.4918505 0.5080784 0.4972187
0.4918648 0.5080784 0.4972211
0.4919744 0.5080784 0.4972398
0.4924357 0.5080784 0.4973184
0.4939807 0.5080784 0.4975838
0.4983519 0.5080784 0.4983519
0.5080784 0.5080784 0.5001559
0.5080784 0.5034340 0.5019102
0.5080784 0.5053474 0.5051403
0.5027634 0.5080784 0.5033053
0.5027649 0.5080784 0.5033057
0.5027762 0.5080784 0.5033087
0.5028242 0.5080784 0.5033212
0.5029894 0.5080784 0.5033644
0.5034977 0.5080784 0.5034977
0.5049010 0.5080784 0.5038680
0.5080784 0.5080784 0.5047198
0.5080784 0.5065651 0.5059473
0.5064112 0.5080784 0.5064631
0.5064113 0.5080784 0.5064631
0.5064124 0.5080784 0.5064634
0.5064171 0.5080784 0.5064648
0.5064333 0.5080784 0.5064695
0.5064846 0.5080784 0.5064846
0.5066381 0.5080784 0.5065296
0.5070672 0.5080784 0.5066557
0.5080784 0.5080784 0.5069544
0.4485432 0.4485432 0.5080784
0.4486429 0.4485947 0.5080784
0.4494008 0.4489870 0.5080784
0.4524885 0.4505992 0.5080784
0.4617633 0.4555773 0.5080784
0.4816343 0.4669152 0.5080784
0.5080784 0.4833677 0.5080784
0.5080784 0.4978257 0.5011864
0.5080784 0.5045154 0.5048711
0.4486590 0.4487071 0.5080784
0.4487583 0.4487583 0.5080784
0.4495138 0.4491486 0.5080784
0.4525917 0.4507528 0.5080784
0.4618398 0.4557077 0.5080784
0.4816669 0.4670001 0.5080784
0.5080784 0.4834040 0.5080784
0.5080784 0.4978314 0.5011888
0.5080784 0.5045161 0.5048715
0.4495329 0.4499417 0.5080784
0.4496297 0.4499910 0.5080784
0.4503666 0.4503666 0.5080784
0.4533709 0.4519114 0.5080784
0.4624186 0.4566925 0.5080784
0.4819144 0.4676434 0.5080784
0.5080784 0.4836805 0.5080784
0.5080784 0.4978748 0.5012071
0.5080784 0.5045212 0.5048746
0.4529755 0.4547653 0.5080784
0.4530630 0.4548074 0.5080784
0.4537291 0.4551285 0.5080784
0.4564521 0.4564521 0.5080784
0.4647262 0.4605817 0.5080784
0.4829177 0.4702270 0.5080784
0.5080784 0.4848173 0.5080784
0.5080784 0.4980567 0.5012837
0.5080784 0.5045426 0.5048875
0.4623055 0.4675396 0.5080784
0.4623701 0.4675655 0.5080784
0.4628626 0.4677636 0.5080784
0.4648909 0.4685855 0.5080784
0.4712033 0.4712033 0.5080784
0.4858829 0.4776461 0.5080784
0.5080784 0.4883350 0.5080784
0.5080784 0.4986592 0.5015380
0.5080784 0.5046160 0.5049320
0.4783015 0.4885795 0.5080784
0.4783348 0.4885873 0.5080784
0.4785897 0.4886474 0.5080784
0.4796520 0.4888992 0.5080784
0.4830933 0.4897278 0.5080784
0.4919574 0.4919574 0.5080784
0.5080784 0.4963773 0.5080784
0.5080784 0.5003075 0.5022381
0.5080784 0.5048378 0.5050665
0.4937577 0.5080784 0.5080784
0.4937699 0.5080784 0.5080784
0.4938630 0.5080784 0.5080784
0.4942555 0.5080784 0.5080784
0.4955762 0.5080784 0.5080784
0.4993649 0.5080784 0.5080784
0.5080784 0.5080784 0.5080784
0.5080784 0.5036971 0.5036971
0.5080784 0.5054201 0.5054201
0.5030016 0.5080784 0.5046387
0.5030030 0.5080784 0.5046390
0.5030136 0.5080784 0.5046410
0.5030588 0.5080784 0.5046496
0.5032146 0.5080784 0.5046792
0.5036946 0.5080784 0.5047707
0.5050264 0.5080784 0.5050264
0.5080784 0.5080784 0.5056219
0.5080784 0.5065945 0.5061355
0.5064359 0.5080784 0.5065985
0.5064360 0.5080784 0.5065986
0.5064371 0.5080784 0.5065988
0.5064417 0.5080784 0.5066001
0.5064576 0.5080784 0.5066044
0.5065079 0.5080784 0.5066179
0.5066586 0.5080784 0.5066586
0.5070805 0.5080784 0.5067727
0.5080784 0.5080784 0.5070438
0.4861966 0.4861966 0.5080784
0.4862086 0.4862039 0.5080784
0.4863001 0.4862599 0.5080784
0.4866845 0.4864951 0.5080784
0.4879579 0.4872766 0.5080784
0.4914484 0.4894373 0.5080784
0.4986622 0.4939871 0.5080784
0.5080784 0.5000935 0.5080784
0.5080784 0.5048420 0.5058554
0.4862131 0.4862177 0.5080784
0.4862250 0.4862250 0.5080784
0.4863165 0.4862809 0.5080784
0.4867003 0.4865157 0.5080784
0.4879722 0.4872959 0.5080784
0.4914590 0.4894532 0.5080784
0.4986667 0.4939968 0.5080784
0.5080784 0.5000973 0.5080784
0.5080784 0.5048426 0.5058557
0.4863386 0.4863787 0.5080784
0.4863504 0.4863859 0.5080784
0.4864411 0.4864411 0.5080784
0.4868213 0.4866727 0.5080784
0.4880816 0.4874429 0.5080784
0.4915395 0.4895741 0.5080784
0.4987007 0.4940710 0.5080784
0.5080784 0.5001262 0.5080784
0.5080784 0.5048469 0.5058576
0.4868573 0.4870432 0.5080784
0.4868687 0.4870500 0.5080784
0.4869557 0.4871022 0.5080784
0.4873213 0.4873213 0.5080784
0.4885343 0.4880506 0.5080784
0.4918737 0.4900753 0.5080784
0.4988429 0.4943803 0.5080784
0.5080784 0.5002479 0.5080784
0.5080784 0.5048652 0.5058657
0.4884864 0.4891244 0.5080784
0.4884963 0.4891300 0.5080784
0.4885727 0.4891733 0.5080784
0.4888938 0.4893553 0.5080784
0.4899634 0.4899634 0.5080784
0.4929399 0.4916693 0.5080784
0.4993067 0.4953859 0.5080784
0.5080784 0.5006553 0.5080784
0.5080784 0.5049279 0.5058937
0.4923498 0.4940258 0.5080784
0.4923568 0.4940291 0.5080784
0.4924106 0.4940547 0.5080784
0.4926372 0.4941627 0.5080784
0.4933985 0.4945266 0.5080784
0.4955737 0.4955737 0.5080784
0.5005217 0.4979966 0.5080784
0.5080784 0.5018067 0.5080784
0.5080784 0.5051182 0.5059788
0.4983263 0.5015179 0.5080784
0.4983297 0.5015188 0.5080784
0.4983558 0.5015262 0.5080784
0.4984662 0.5015573 0.5080784
0.4988425 0.5016637 0.5080784
0.4999635 0.5019820 0.5080784
0.5027974 0.5027974 0.5080784
0.5080784 0.5043581 0.5080784
0.5080784 0.5056249 0.5062056
0.5036273 0.5080784 0.5080784
0.5036285 0.5080784 0.5080784
0.5036375 0.5080784 0.5080784
0.5036756 0.5080784 0.5080784
0.5038074 0.5080784 0.5080784
0.5042154 0.5080784 0.5080784
0.5053625 0.5080784 0.5080784
0.5080784 0.5080784 0.5080784
0.5080784 0.5066797 0.5066797
0.5065089 0.5080784 0.5069977
0.5065090 0.5080784 0.5069977
0.5065100 0.5080784 0.5069980
0.5065144 0.5080784 0.5069988
0.5065294 0.5080784 0.5070018
0.5065768 0.5080784 0.5070113
0.5067192 0.5080784 0.5070397
0.5071197 0.5080784 0.5071197
0.5080784 0.5080784 0.5073123
0.5008910 0.5008910 0.5080784
0.5008922 0.5008918 0.5080784
0.5009018 0.5008980 0.5080784
0.5009423 0.5009241 0.5080784
0.5010812 0.5010139 0.5080784
0.5015031 0.5012866 0.5080784
0.5026267 0.5020151 0.5080784
0.5049679 0.5035414 0.5080784
0.5080784 0.5055870 0.5080784
0.5008928 0.5008932 0.5080784
0.5008941 0.5008941 0.5080784
0.5009036 0.5009002 0.5080784
0.5009441 0.5009264 0.5080784
0.5010829 0.5010160 0.5080784
0.5015046 0.5012887 0.5080784
0.5026279 0.5020167 0.5080784
0.5049684 0.5035424 0.5080784
0.5080784 0.5055874 0.5080784
0.5009067 0.5009105 0.5080784
0.5009079 0.5009113 0.5080784
0.5009175 0.5009175 0.5080784
0.5009578 0.5009435 0.5080784
0.5010962 0.5010328 0.5080784
0.5015166 0.5013043 0.5080784
0.5026367 0.5020295 0.5080784
0.5049722 0.5035500 0.5080784
0.5080784 0.5055902 0.5080784
0.5009652 0.5009832 0.5080784
0.5009664 0.5009840 0.5080784
0.5009758 0.5009901 0.5080784
0.5010156 0.5010156 0.5080784
0.5011522 0.5011033 0.5080784
0.5015671 0.5013700 0.5080784
0.5026741 0.5020831 0.5080784
0.5049881 0.5035824 0.5080784
0.5080784 0.5056021 0.5080784
0.5011618 0.5012277 0.5080784
0.5011630 0.5012284 0.5080784
0.5011720 0.5012341 0.5080784
0.5012100 0.5012581 0.5080784
0.5013404 0.5013404 0.5080784
0.5017374 0.5015912 0.5080784
0.5028005 0.5022646 0.5080784
0.5050425 0.5036925 0.5080784
0.5080784 0.5056433 0.5080784
0.5017243 0.5019264 0.5080784
0.5017254 0.5019270 0.5080784
0.5017332 0.5019317 0.5080784
0.5017663 0.5019515 0.5080784
0.5018800 0.5020195 0.5080784
0.5022274 0.5022274 0.5080784
0.5031684 0.5027919 0.5080784
0.5052043 0.5040202 0.5080784
0.5080784 0.5057697 0.5080784
0.5030075 0.5035169 0.5080784
0.5030082 0.5035172 0.5080784
0.5030136 0.5035200 0.5080784
0.5030367 0.5035317 0.5080784
0.5031162 0.5035720 0.5080784
0.5033615 0.5036965 0.5080784
0.5040433 0.5040433 0.5080784
0.5056131 0.5048458 0.5080784
0.5080784 0.5061178 0.5080784
0.5049738 0.5059455 0.5080784
0.5049742 0.5059456 0.5080784
0.5049768 0.5059464 0.5080784
0.5049878 0.5059498 0.5080784
0.5050258 0.5059614 0.5080784
0.5051449 0.5059976 0.5080784
0.5054901 0.5061030 0.5080784
0.5063737 0.5063737 0.5080784
0.5080784 0.5069003 0.5080784
0.5067077 0.5080784 0.5080784
0.5067078 0.5080784 0.5080784
0.5067086 0.5080784 0.5080784
0.5067122 0.5080784 0.5080784
0.5067249 0.5080784 0.5080784
0.5067649 0.5080784 0.5080784
0.5068854 0.5080784 0.5080784
0.5072288 0.5080784 0.5080784
0.5080784 0.5080784 0.5080784
