LUTs/guard_rail_bt2020.cube
TITLE "Guard Rail BT.2020"
# Guard Rail Formation for ITU-R BT.2020 medium.
# The Guard Rail is designed to leaves valid value as-is, and only touch out of domain valuesModified from python script shared by Sakari Kapanen
# This LUT assumes input and output to be ST2084 (100)
# This LUT expects input primaries of ITU-R BT.2020
# LUT resolution is 33
LUT_3D_SIZE 33
0.0000007 0.0000007 0.0000007
0.0312500 0.0000007 0.0000008
0.0625000 0.0000007 0.0000007
0.0937500 0.0000007 0.0000008
0.1250000 0.0000007 0.0000009
0.1562500 0.0000007 0.0000009
0.1875000 0.0000007 0.0000009
0.2187500 0.0000007 0.0000007
0.2500000 0.0000007 0.0000009
0.2812500 0.0000007 0.0000009
0.3125000 0.0000007 0.0000009
0.3437500 0.0000007 0.0000010
0.3750000 0.0000007 0.0000007
0.4062500 0.0000007 0.0000010
0.4375000 0.0000007 0.0000007
0.4687500 0.0000007 0.0000010
0.5000000 0.0000007 0.0000010
0.5080784 0.2657449 0.2657449
0.5080784 0.3367932 0.3367932
0.5080784 0.3789043 0.3789043
0.5080784 0.4087859 0.4087859
0.5080784 0.4313295 0.4313295
0.5080784 0.4487517 0.4487517
0.5080784 0.4623282 0.4623282
0.5080784 0.4729180 0.4729180
0.5080784 0.4811582 0.4811582
0.5080784 0.4875456 0.4875456
0.5080784 0.4924759 0.4924759
0.5080784 0.4962658 0.4962658
0.5080784 0.4991677 0.4991677
0.5080784 0.5013816 0.5013816
0.5080784 0.5030647 0.5030647
0.5080784 0.5043401 0.5043401
0.0000007 0.0312500 0.0000007
0.0312500 0.0312500 0.0000007
0.0625000 0.0312500 0.0000007
0.0937500 0.0312500 0.0000007
0.1250000 0.0312500 0.0000007
0.1562500 0.0312500 0.0000007
0.1875000 0.0312500 0.0000007
0.2187500 0.0312500 0.0000007
0.2500000 0.0312500 0.0000007
0.2812500 0.0312500 0.0000007
0.3125000 0.0312500 0.0000007
0.3437500 0.0312500 0.0000007
0.3750000 0.0312500 0.0000007
0.4062500 0.0312500 0.0000007
0.4375000 0.0312500 0.0000007
0.4687500 0.0312500 0.0000007
0.5000000 0.0312500 0.0000007
0.5080784 0.2659555 0.2657715
0.5080784 0.3368699 0.3368133
0.5080784 0.3789423 0.3789182
0.5080784 0.4088067 0.4087951
0.5080784 0.4313414 0.4313355
0.5080784 0.4487586 0.4487555
0.5080784 0.4623322 0.4623305
0.5080784 0.4729204 0.4729195
0.5080784 0.4811596 0.4811591
0.5080784 0.4875463 0.4875461
0.5080784 0.4924763 0.4924762
0.5080784 0.4962660 0.4962659
0.5080784 0.4991678 0.4991678
0.5080784 0.5013817 0.5013816
0.5080784 0.5030648 0.5030648
0.5080784 0.5043401 0.5043401
0.0000007 0.0625000 0.0000007
0.0312500 0.0625000 0.0000007
0.0625000 0.0625000 0.0000007
0.0937500 0.0625000 0.0000007
0.1250000 0.0625000 0.0000007
0.1562500 0.0625000 0.0000007
0.1875000 0.0625000 0.0000007
0.2187500 0.0625000 0.0000007
0.2500000 0.0625000 0.0000007
0.2812500 0.0625000 0.0000007
0.3125000 0.0625000 0.0000007
0.3437500 0.0625000 0.0000007
0.3750000 0.0625000 0.0000007
0.4062500 0.0625000 0.0000007
0.4375000 0.0625000 0.0000007
0.4687500 0.0625000 0.0000007
0.5000000 0.0625000 0.0000007
0.5080784 0.2667245 0.2658690
0.5080784 0.3371509 0.3368871
0.5080784 0.3790819 0.3789694
0.5080784 0.4088832 0.4088292
0.5080784 0.4313851 0.4313576
0.5080784 0.4487839 0.4487695
0.5080784 0.4623470 0.4623392
0.5080784 0.4729290 0.4729247
0.5080784 0.4811646 0.4811622
0.5080784 0.4875493 0.4875479
0.5080784 0.4924780 0.4924773
0.5080784 0.4962670 0.4962666
0.5080784 0.4991684 0.4991681
0.5080784 0.5013820 0.5013818
0.5080784 0.5030649 0.5030649
0.5080784 0.5043402 0.5043401
0.0000009 0.0937500 0.0000007
0.0312500 0.0937500 0.0000007
0.0625000 0.0937500 0.0000007
0.0937500 0.0937500 0.0000007
0.1250000 0.0937500 0.0000007
0.1562500 0.0937500 0.0000007
0.1875000 0.0937500 0.0000007
0.2187500 0.0937500 0.0000007
0.2500000 0.0937500 0.0000007
0.2812500 0.0937500 0.0000007
0.3125000 0.0937500 0.0000007
0.3437500 0.0937500 0.0000007
0.3750000 0.0937500 0.0000007
0.4062500 0.0937500 0.0000007
0.4375000 0.0937500 0.0000007
0.4687500 0.0937500 0.0000007
0.5000000 0.0937500 0.0000007
0.5080784 0.2683891 0.2660827
0.5080784 0.3377646 0.3370488
0.5080784 0.3793874 0.3790815
0.5080784 0.4090508 0.4089040
0.5080784 0.4314808 0.4314061
0.5080784 0.4488395 0.4488001
0.5080784 0.4623795 0.4623582
0.5080784 0.4729480 0.4729364
0.5080784 0.4811756 0.4811692
0.5080784 0.4875556 0.4875521
0.5080784 0.4924817 0.4924797
0.5080784 0.4962691 0.4962680
0.5080784 0.4991696 0.4991689
0.5080784 0.5013826 0.5013823
0.5080784 0.5030653 0.5030651
0.5080784 0.5043404 0.5043403
0.0000009 0.1250000 0.0000007
0.0312500 0.1250000 0.0000007
0.0625000 0.1250000 0.0000007
0.0937500 0.1250000 0.0000007
0.1250000 0.1250000 0.0000007
0.1562500 0.1250000 0.0000007
0.1875000 0.1250000 0.0000007
0.2187500 0.1250000 0.0000007
0.2500000 0.1250000 0.0000007
0.2812500 0.1250000 0.0000007
0.3125000 0.1250000 0.0000007
0.3437500 0.1250000 0.0000007
0.3750000 0.1250000 0.0000007
0.4062500 0.1250000 0.0000007
0.4375000 0.1250000 0.0000007
0.4687500 0.1250000 0.0000007
0.5000000 0.1250000 0.0000007
0.5080784 0.2713719 0.2664744
0.5080784 0.3388831 0.3373453
0.5080784 0.3799467 0.3792874
0.5080784 0.4093582 0.4090413
0.5080784 0.4316565 0.4314951
0.5080784 0.4489417 0.4488565
0.5080784 0.4624391 0.4623932
0.5080784 0.4729828 0.4729577
0.5080784 0.4811959 0.4811820
0.5080784 0.4875674 0.4875597
0.5080784 0.4924884 0.4924841
0.5080784 0.4962729 0.4962705
0.5080784 0.4991718 0.4991704
0.5080784 0.5013839 0.5013831
0.5080784 0.5030660 0.5030656
0.5080784 0.5043408 0.5043406
0.0000009 0.1562500 0.0000007
0.0312500 0.1562500 0.0000007
0.0625000 0.1562500 0.0000007
0.0937500 0.1562500 0.0000007
0.1250000 0.1562500 0.0000007
0.1562500 0.1562500 0.0000007
0.1875000 0.1562500 0.0000007
0.2187500 0.1562500 0.0000007
0.2500000 0.1562500 0.0000007
0.2812500 0.1562500 0.0000007
0.3125000 0.1562500 0.0000007
0.3437500 0.1562500 0.0000007
0.3750000 0.1562500 0.0000007
0.4062500 0.1562500 0.0000007
0.4375000 0.1562500 0.0000007
0.4687500 0.1562500 0.0000007
0.5000000 0.1562500 0.0000007
0.5080784 0.2761523 0.2671265
0.5080784 0.3407260 0.3378395
0.5080784 0.3808752 0.3796307
0.5080784 0.4098702 0.4092706
0.5080784 0.4319498 0.4316438
0.5080784 0.4491124 0.4489508
0.5080784 0.4625389 0.4624518
0.5080784 0.4730411 0.4729934
0.5080784 0.4812298 0.4812035
0.5080784 0.4875870 0.4875724
0.5080784 0.4924997 0.4924916
0.5080784 0.4962794 0.4962749
0.5080784 0.4991754 0.4991729
0.5080784 0.5013859 0.5013845
0.5080784 0.5030672 0.5030664
0.5080784 0.5043414 0.5043410
0.0000007 0.1875000 0.0000007
0.0312500 0.1875000 0.0000007
0.0625000 0.1875000 0.0000007
0.0937500 0.1875000 0.0000007
0.1250000 0.1875000 0.0000007
0.1562500 0.1875000 0.0000007
0.1875000 0.1875000 0.0000007
0.2187500 0.1875000 0.0000007
0.2500000 0.1875000 0.0000007
0.2812500 0.1875000 0.0000007
0.3125000 0.1875000 0.0000007
0.3437500 0.1875000 0.0000007
0.3750000 0.1875000 0.0000007
0.4062500 0.1875000 0.0000007
0.4375000 0.1875000 0.0000007
0.4687500 0.1875000 0.0000007
0.5000000 0.1875000 0.0000007
0.5080784 0.2832106 0.2681456
0.5080784 0.3435606 0.3386131
0.5080784 0.3823202 0.3801691
0.5080784 0.4106713 0.4096305
0.5080784 0.4324101 0.4318777
0.5080784 0.4493807 0.4490991
0.5080784 0.4626961 0.4625440
0.5080784 0.4731330 0.4730497
0.5080784 0.4812833 0.4812373
0.5080784 0.4876180 0.4875924
0.5080784 0.4925176 0.4925033
0.5080784 0.4962896 0.4962817
0.5080784 0.4991812 0.4991768
0.5080784 0.5013892 0.5013868
0.5080784 0.5030690 0.5030676
0.5080784 0.5043424 0.5043417
0.0000007 0.2187500 0.0000007
0.0312500 0.2187500 0.0000007
0.0625000 0.2187500 0.0000007
0.0937500 0.2187500 0.0000007
0.1250000 0.2187500 0.0000007
0.1562500 0.2187500 0.0000007
0.1875000 0.2187500 0.0000007
0.2187500 0.2187500 0.0000007
0.2500000 0.2187500 0.0000007
0.2812500 0.2187500 0.0000007
0.3125000 0.2187500 0.0000007
0.3437500 0.2187500 0.0000007
0.3750000 0.2187500 0.0000007
0.4062500 0.2187500 0.0000007
0.4375000 0.2187500 0.0000007
0.4687500 0.2187500 0.0000007
0.5000000 0.2187500 0.0000007
0.5080784 0.2929443 0.2696664
0.5080784 0.3476919 0.3397702
0.5080784 0.3844628 0.3809762
0.5080784 0.4118687 0.4101713
0.5080784 0.4331012 0.4322297
0.5080784 0.4497847 0.4493228
0.5080784 0.4629331 0.4626831
0.5080784 0.4732718 0.4731347
0.5080784 0.4813643 0.4812885
0.5080784 0.4876649 0.4876228
0.5080784 0.4925446 0.4925211
0.5080784 0.4963051 0.4962920
0.5080784 0.4991900 0.4991827
0.5080784 0.5013942 0.5013901
0.5080784 0.5030718 0.5030695
0.5080784 0.5043440 0.5043428
0.0000009 0.2500000 0.0000007
0.0312500 0.2500000 0.0000007
0.0625000 0.2500000 0.0000007
0.0937500 0.2500000 0.0000007
0.1250000 0.2500000 0.0000007
0.1562500 0.2500000 0.0000007
0.1875000 0.2500000 0.0000007
0.2187500 0.2500000 0.0000007
0.2500000 0.2500000 0.0000007
0.2812500 0.2500000 0.0000007
0.3125000 0.2500000 0.0000007
0.3437500 0.2500000 0.0000007
0.3750000 0.2500000 0.0000007
0.4062500 0.2500000 0.0000007
0.4375000 0.2500000 0.0000007
0.4687500 0.2500000 0.0000007
0.5000000 0.2500000 0.0000007
0.5080784 0.3055840 0.2718524
0.5080784 0.3534391 0.3414392
0.5080784 0.3875146 0.3821445
0.5080784 0.4135936 0.4109565
0.5080784 0.4341031 0.4327421
0.5080784 0.4503730 0.4496491
0.5080784 0.4632792 0.4628866
0.5080784 0.4734749 0.4732593
0.5080784 0.4814829 0.4813635
0.5080784 0.4877338 0.4876674
0.5080784 0.4925843 0.4925473
0.5080784 0.4963279 0.4963072
0.5080784 0.4992030 0.4991914
0.5080784 0.5014015 0.5013951
0.5080784 0.5030759 0.5030723
0.5080784 0.5043463 0.5043443
0.0000007 0.2812500 0.0000007
0.0312500 0.2812500 0.0000007
0.0625000 0.2812500 0.0000007
0.0937500 0.2812500 0.0000007
0.1250000 0.2812500 0.0000007
0.1562500 0.2812500 0.0000007
0.1875000 0.2812500 0.0000007
0.2187500 0.2812500 0.0000007
0.2500000 0.2812500 0.0000007
0.2812500 0.2812500 0.0000007
0.3125000 0.2812500 0.0000007
0.3437500 0.2812500 0.0000007
0.3750000 0.2812500 0.0000007
0.4062500 0.2812500 0.0000007
0.4375000 0.2812500 0.0000007
0.4687500 0.2812500 0.0000007
0.5000000 0.2812500 0.0000007
0.5080784 0.3211418 0.2748939
0.5080784 0.3610961 0.3437719
0.5080784 0.3917072 0.3837851
0.5080784 0.4160001 0.4120640
0.5080784 0.4355138 0.4334676
0.5080784 0.4512062 0.4501127
0.5080784 0.4637714 0.4631765
0.5080784 0.4737647 0.4734372
0.5080784 0.4816525 0.4814709
0.5080784 0.4878325 0.4877312
0.5080784 0.4926413 0.4925848
0.5080784 0.4963605 0.4963290
0.5080784 0.4992216 0.4992040
0.5080784 0.5014120 0.5014022
0.5080784 0.5030818 0.5030764
0.5080784 0.5043495 0.5043466
0.0000007 0.3125000 0.0000007
0.0312500 0.3125000 0.0000007
0.0625000 0.3125000 0.0000007
0.0937500 0.3125000 0.0000007
0.1250000 0.3125000 0.0000007
0.1562500 0.3125000 0.0000007
0.1875000 0.3125000 0.0000007
0.2187500 0.3125000 0.0000007
0.2500000 0.3125000 0.0000007
0.2812500 0.3125000 0.0000007
0.3125000 0.3125000 0.0000007
0.3437500 0.3125000 0.0000007
0.3750000 0.3125000 0.0000007
0.4062500 0.3125000 0.0000007
0.4375000 0.3125000 0.0000007
0.4687500 0.3125000 0.0000007
0.5000000 0.3125000 0.0000007
0.5080784 0.3394166 0.2789989
0.5080784 0.3708826 0.3469385
0.5080784 0.3972710 0.3860263
0.5080784 0.4192589 0.4135860
0.5080784 0.4374477 0.4344700
0.5080784 0.4523579 0.4507562
0.5080784 0.4644558 0.4635805
0.5080784 0.4741693 0.4736859
0.5080784 0.4818901 0.4816214
0.5080784 0.4879710 0.4878210
0.5080784 0.4927215 0.4926376
0.5080784 0.4964066 0.4963597
0.5080784 0.4992478 0.4992216
0.5080784 0.5014268 0.5014123
0.5080784 0.5030901 0.5030820
0.5080784 0.5043542 0.5043497
0.0000007 0.3437500 0.0000007
0.0312500 0.3437500 0.0000007
0.0625000 0.3437500 0.0000007
0.0937500 0.3437500 0.0000007
0.1250000 0.3437500 0.0000007
0.1562500 0.3437500 0.0000007
0.1875000 0.3437500 0.0000007
0.2187500 0.3437500 0.0000007
0.2500000 0.3437500 0.0000007
0.2812500 0.3437500 0.0000007
0.3125000 0.3437500 0.0000007
0.3437500 0.3437500 0.0000007
0.3750000 0.3437500 0.0000007
0.4062500 0.3437500 0.0000007
0.4375000 0.3437500 0.0000007
0.4687500 0.3437500 0.0000007
0.5000000 0.3437500 0.0000007
0.5080784 0.3600477 0.2843772
0.5080784 0.3828956 0.3511157
0.5080784 0.4044038 0.3890068
0.5080784 0.4235433 0.4156259
0.5080784 0.4400314 0.4358232
0.5080784 0.4539135 0.4516303
0.5080784 0.4653876 0.4641322
0.5080784 0.4747234 0.4740270
0.5080784 0.4822170 0.4818286
0.5080784 0.4881622 0.4879449
0.5080784 0.4928324 0.4927107
0.5080784 0.4964704 0.4964022
0.5080784 0.4992843 0.4992462
0.5080784 0.5014475 0.5014263
0.5080784 0.5031017 0.5030899
0.5080784 0.5043606 0.5043541
0.0000007 0.3750000 0.0000007
0.0312500 0.3750000 0.0000007
0.0625000 0.3750000 0.0000007
0.0937500 0.3750000 0.0000007
0.1250000 0.3750000 0.0000007
0.1562500 0.3750000 0.0000007
0.1875000 0.3750000 0.0000007
0.2187500 0.3750000 0.0000007
0.2500000 0.3750000 0.0000007
0.2812500 0.3750000 0.0000007
0.3125000 0.3750000 0.0000007
0.3437500 0.3750000 0.0000007
0.3750000 0.3750000 0.0000007
0.4062500 0.3750000 0.0000007
0.4375000 0.3750000 0.0000007
0.4687500 0.3750000 0.0000007
0.5000000 0.3750000 0.0000007
0.5080784 0.3825871 0.2912160
0.5080784 0.3970775 0.3564674
0.5080784 0.4132319 0.3928631
0.5080784 0.4290078 0.4182917
0.5080784 0.4433941 0.4376081
0.5080784 0.4559673 0.4527930
0.5080784 0.4666308 0.4648713
0.5080784 0.4754686 0.4744869
0.5080784 0.4826593 0.4821094
0.5080784 0.4884222 0.4881135
0.5080784 0.4929838 0.4928105
0.5080784 0.4965578 0.4964605
0.5080784 0.4993342 0.4992798
0.5080784 0.5014758 0.5014455
0.5080784 0.5031176 0.5031008
0.5080784 0.5043695 0.5043602
0.0000010 0.4062500 0.0000007
0.0312500 0.4062500 0.0000007
0.0625000 0.4062500 0.0000007
0.0937500 0.4062500 0.0000007
0.1250000 0.4062500 0.0000007
0.1562500 0.4062500 0.0000007
0.1875000 0.4062500 0.0000007
0.2187500 0.4062500 0.0000007
0.2500000 0.4062500 0.0000007
0.2812500 0.4062500 0.0000007
0.3125000 0.4062500 0.0000007
0.3437500 0.4062500 0.0000007
0.3750000 0.4062500 0.0000007
0.4062500 0.4062500 0.0000007
0.4375000 0.4062500 0.0000007
0.4687500 0.4062500 0.0000007
0.5000000 0.4062500 0.0000007
0.5080784 0.4065619 0.2996514
0.5080784 0.4132109 0.3631178
0.5080784 0.4237721 0.3977101
0.5080784 0.4357585 0.4216837
0.5080784 0.4476511 0.4399062
0.5080784 0.4586146 0.4543061
0.5080784 0.4682552 0.4658424
0.5080784 0.4764527 0.4750960
0.5080784 0.4832481 0.4824838
0.5080784 0.4887704 0.4883396
0.5080784 0.4931876 0.4929448
0.5080784 0.4966758 0.4965393
0.5080784 0.4994020 0.4993254
0.5080784 0.5015143 0.5014716
0.5080784 0.5031393 0.5031156
0.5080784 0.5043816 0.5043685
0.0000007 0.4375000 0.0000007
0.0312500 0.4375000 0.0000007
0.0625000 0.4375000 0.0000007
0.0937500 0.4375000 0.0000007
0.1250000 0.4375000 0.0000007
0.1562500 0.4375000 0.0000007
0.1875000 0.4375000 0.0000007
0.2187500 0.4375000 0.0000007
0.2500000 0.4375000 0.0000007
0.2812500 0.4375000 0.0000007
0.3125000 0.4375000 0.0000007
0.3437500 0.4375000 0.0000007
0.3750000 0.4375000 0.0000007
0.4062500 0.4375000 0.0000007
0.4375000 0.4375000 0.0000007
0.4687500 0.4375000 0.0000007
0.5000000 0.4375000 0.0000007
0.5080784 0.4315132 0.3097393
0.5080784 0.4309400 0.3711208
0.5080784 0.4359062 0.4036164
0.5080784 0.4438216 0.4258770
0.5080784 0.4528827 0.4427888
0.5080784 0.4619405 0.4562301
0.5080784 0.4703314 0.4670923
0.5080784 0.4777274 0.4758883
0.5080784 0.4840190 0.4829751
0.5080784 0.4892302 0.4886384
0.5080784 0.4934584 0.4931236
0.5080784 0.4968335 0.4966446
0.5080784 0.4994928 0.4993866
0.5080784 0.5015661 0.5015067
0.5080784 0.5031686 0.5031355
0.5080784 0.5043980 0.5043797
0.0000007 0.4687500 0.0000007
0.0312500 0.4687500 0.0000007
0.0625000 0.4687500 0.0000007
0.0937500 0.4687500 0.0000007
0.1250000 0.4687500 0.0000007
0.1562500 0.4687500 0.0000007
0.1875000 0.4687500 0.0000007
0.2187500 0.4687500 0.0000007
0.2500000 0.4687500 0.0000007
0.2812500 0.4687500 0.0000007
0.3125000 0.4687500 0.0000007
0.3437500 0.4687500 0.0000007
0.3750000 0.4687500 0.0000007
0.4062500 0.4687500 0.0000007
0.4375000 0.4687500 0.0000007
0.4687500 0.4687500 0.0000007
0.5000000 0.4687500 0.0000007
0.5080784 0.4570115 0.3214352
0.5080784 0.4498089 0.3804335
0.5080784 0.4493761 0.4105778
0.5080784 0.4531167 0.4309009
0.5080784 0.4591084 0.4463022
0.5080784 0.4660027 0.4586145
0.5080784 0.4729214 0.4686650
0.5080784 0.4793448 0.4768988
0.5080784 0.4850105 0.4836090
0.5080784 0.4898281 0.4890277
0.5080784 0.4938136 0.4933582
0.5080784 0.4970417 0.4967837
0.5080784 0.4996134 0.4994679
0.5080784 0.5016352 0.5015536
0.5080784 0.5032077 0.5031622
0.5080784 0.5044199 0.5043947
0.0000007 0.5000000 0.0000007
0.0312500 0.5000000 0.0000007
0.0625000 0.5000000 0.0000007
0.0937500 0.5000000 0.0000007
0.1250000 0.5000000 0.0000007
0.1562500 0.5000000 0.0000007
0.1875000 0.5000000 0.0000007
0.2187500 0.5000000 0.0000007
0.2500000 0.5000000 0.0000007
0.2812500 0.5000000 0.0000007
0.3125000 0.5000000 0.0000007
0.3437500 0.5000000 0.0000007
0.3750000 0.5000000 0.0000007
0.4062500 0.5000000 0.0000007
0.4375000 0.5000000 0.0000007
0.4687500 0.5000000 0.0000007
0.5000000 0.5000000 0.0000007
0.5080784 0.4826581 0.3345863
0.5080784 0.4693047 0.3909000
0.5080784 0.4638023 0.4184975
0.5080784 0.4634455 0.4367180
0.5080784 0.4662652 0.4504513
0.5080784 0.4708129 0.4614863
0.5080784 0.4760661 0.4705948
0.5080784 0.4813501 0.4781594
0.5080784 0.4862610 0.4844114
0.5080784 0.4905926 0.4895266
0.5080784 0.4942728 0.4936620
0.5080784 0.4973132 0.4969653
0.5080784 0.4997717 0.4995747
0.5080784 0.5017263 0.5016154
0.5080784 0.5032595 0.5031975
0.5080784 0.5044490 0.5044147
0.3229771 0.5080784 0.3229771
0.3230737 0.5080784 0.3229825
0.3234275 0.5080784 0.3230024
0.3241995 0.5080784 0.3230460
0.3256042 0.5080784 0.3231262
0.3279121 0.5080784 0.3232603
0.3314471 0.5080784 0.3234719
0.3365689 0.5080784 0.3237916
0.3436403 0.5080784 0.3242601
0.3529786 0.5080784 0.3249294
0.3648031 0.5080784 0.3258660
0.3791945 0.5080784 0.3271526
0.3960811 0.5080784 0.3288902
0.4152551 0.5080784 0.3311982
0.4364104 0.5080784 0.3342123
0.4591857 0.5080784 0.3380788
0.4832006 0.5080784 0.3429439
0.5080784 0.5080784 0.3489376
0.5080784 0.4888984 0.4022543
0.5080784 0.4787221 0.4271796
0.5080784 0.4745005 0.4432121
0.5080784 0.4741962 0.4551845
0.5080784 0.4763192 0.4648374
0.5080784 0.4797713 0.4728966
0.5080784 0.4837723 0.4796940
0.5080784 0.4878036 0.4854059
0.5080784 0.4915521 0.4901546
0.5080784 0.4948574 0.4940493
0.5080784 0.4976629 0.4971993
0.5080784 0.4999774 0.4997134
0.5080784 0.5018456 0.5016964
0.5080784 0.5033277 0.5032441
0.5080784 0.5044875 0.5044410
0.3918392 0.5080784 0.3918392
0.3918698 0.5080784 0.3918427
0.3919822 0.5080784 0.3918558
0.3922285 0.5080784 0.3918846
0.3926802 0.5080784 0.3919374
0.3934322 0.5080784 0.3920259
0.3946082 0.5080784 0.3921654
0.3963642 0.5080784 0.3923764
0.3988911 0.5080784 0.3926857
0.4024118 0.5080784 0.3931280
0.4071726 0.5080784 0.3937477
0.4134252 0.5080784 0.3946005
0.4213994 0.5080784 0.3957546
0.4312702 0.5080784 0.3972919
0.4431242 0.5080784 0.3993064
0.4569357 0.5080784 0.4019010
0.4725562 0.5080784 0.4051801
0.4897227 0.5080784 0.4092379
0.5080784 0.5080784 0.4141420
0.5080784 0.4936399 0.4363425
0.5080784 0.4858973 0.4501890
0.5080784 0.4826567 0.4603874
0.5080784 0.4823974 0.4686143
0.5080784 0.4839945 0.4755568
0.5080784 0.4866138 0.4815103
0.5080784 0.4896590 0.4866088
0.5080784 0.4927311 0.4909287
0.5080784 0.4955884 0.4945347
0.5080784 0.4981064 0.4974965
0.5080784 0.5002414 0.4998916
0.5080784 0.5020000 0.5018013
0.5080784 0.5034167 0.5033048
0.5080784 0.5045380 0.5044756
0.4276546 0.5080784 0.4276546
0.4276682 0.5080784 0.4276568
0.4277177 0.5080784 0.4276649
0.4278265 0.5080784 0.4276826
0.4280263 0.5080784 0.4277152
0.4283601 0.5080784 0.4277698
0.4288849 0.5080784 0.4278558
0.4296748 0.5080784 0.4279860
0.4308246 0.5080784 0.4281770
0.4324526 0.5080784 0.4284505
0.4347019 0.5080784 0.4288343
0.4377395 0.5080784 0.4293635
0.4417499 0.5080784 0.4300820
0.4469238 0.5080784 0.4310428
0.4534382 0.5080784 0.4323084
0.4614307 0.5080784 0.4339490
0.4709711 0.5080784 0.4360393
0.4820347 0.5080784 0.4386512
0.4944864 0.5080784 0.4418440
0.5080784 0.5080784 0.4456503
0.5080784 0.4972211 0.4573958
0.5080784 0.4913396 0.4658880
0.5080784 0.4888555 0.4727150
0.5080784 0.4886384 0.4785265
0.5080784 0.4898405 0.4835938
0.5080784 0.4918279 0.4880242
0.5080784 0.4941446 0.4918608
0.5080784 0.4964839 0.4951308
0.5080784 0.4986596 0.4978677
0.5080784 0.5005755 0.5001174
0.5080784 0.5021977 0.5019356
0.5080784 0.5035316 0.5033832
0.5080784 0.5046038 0.5045206
0.4503683 0.5080784 0.4503683
0.4503750 0.5080784 0.4503697
0.4503995 0.5080784 0.4503745
0.4504532 0.5080784 0.4503852
0.4505519 0.5080784 0.4504047
0.4507171 0.5080784 0.4504375
0.4509774 0.5080784 0.4504892
0.4513704 0.5080784 0.4505675
0.4519454 0.5080784 0.4506824
0.4527651 0.5080784 0.4508472
0.4539086 0.5080784 0.4510787
0.4554730 0.5080784 0.4513988
0.4575739 0.5080784 0.4518345
0.4603436 0.5080784 0.4524196
0.4639253 0.5080784 0.4531943
0.4684628 0.5080784 0.4542056
0.4740829 0.5080784 0.4555054
0.4808737 0.5080784 0.4571474
0.4888600 0.5080784 0.4591815
0.4979811 0.5080784 0.4616452
0.5080784 0.5080784 0.4645534
0.5080784 0.4999157 0.4714765
0.5080784 0.4954542 0.4769965
0.5080784 0.4935543 0.4817201
0.5080784 0.4933770 0.4859027
0.5080784 0.4942838 0.4896389
0.5080784 0.4957928 0.4929528
0.5080784 0.4975553 0.4958461
0.5080784 0.4993359 0.4983224
0.5080784 0.5009914 0.5003987
0.5080784 0.5024476 0.5021055
0.5080784 0.5036786 0.5034835
0.5080784 0.5046886 0.5045787
0.4658990 0.5080784 0.4658990
0.4659025 0.5080784 0.4658998
0.4659153 0.5080784 0.4659027
0.4659432 0.5080784 0.4659090
0.4659947 0.5080784 0.4659205
0.4660809 0.5080784 0.4659399
0.4662169 0.5080784 0.4659705
0.4664225 0.5080784 0.4660169
0.4667241 0.5080784 0.4660850
0.4671557 0.5080784 0.4661827
0.4677608 0.5080784 0.4663203
0.4685944 0.5080784 0.4665108
0.4697244 0.5080784 0.4667708
0.4712326 0.5080784 0.4671213
0.4732143 0.5080784 0.4675876
0.4757756 0.5080784 0.4682001
0.4790266 0.5080784 0.4689939
0.4830713 0.5080784 0.4700073
0.4879913 0.5080784 0.4712792
0.4938265 0.5080784 0.4728445
0.5005550 0.5080784 0.4747277
0.5080784 0.5080784 0.4769351
0.5080784 0.5019395 0.4812925
0.5080784 0.4985588 0.4850232
0.5080784 0.4971097 0.4883681
0.5080784 0.4969689 0.4914186
0.5080784 0.4976552 0.4941937
0.5080784 0.4988025 0.4966818
0.5080784 0.5001441 0.4988670
0.5080784 0.5014994 0.5007429
0.5080784 0.5027584 0.5023170
0.5080784 0.5038641 0.5036103
0.5080784 0.5047970 0.5046530
0.4769244 0.5080784 0.4769244
0.4769262 0.5080784 0.4769248
0.4769331 0.5080784 0.4769265
0.4769481 0.5080784 0.4769302
0.4769758 0.5080784 0.4769370
0.4770221 0.5080784 0.4769483
0.4770952 0.5080784 0.4769662
0.4772059 0.5080784 0.4769934
0.4773685 0.5080784 0.4770334
0.4776017 0.5080784 0.4770907
0.4779296 0.5080784 0.4771715
0.4783832 0.5080784 0.4772836
0.4790016 0.5080784 0.4774371
0.4798333 0.5080784 0.4776444
0.4809370 0.5080784 0.4779216
0.4823819 0.5080784 0.4782876
0.4842464 0.5080784 0.4787654
0.4866136 0.5080784 0.4793811
0.4895653 0.5080784 0.4801629
0.4931697 0.5080784 0.4811393
0.4974682 0.5080784 0.4823353
0.5024579 0.5080784 0.4837673
0.5080784 0.5080784 0.4854375
0.5080784 0.5034586 0.4883070
0.5080784 0.5008991 0.4909003
0.5080784 0.4997971 0.4933093
0.5080784 0.4996884 0.4955564
0.5080784 0.5002103 0.4976289
0.5080784 0.5010842 0.4995022
0.5080784 0.5021062 0.5011546
0.5080784 0.5031379 0.5025756
0.5080784 0.5040950 0.5037681
0.5080784 0.5049338 0.5047468
0.4849201 0.5080784 0.4849201
0.4849211 0.5080784 0.4849204
0.4849249 0.5080784 0.4849213
0.4849331 0.5080784 0.4849235
0.4849482 0.5080784 0.4849274
0.4849736 0.5080784 0.4849340
0.4850136 0.5080784 0.4849444
0.4850742 0.5080784 0.4849602
0.4851634 0.5080784 0.4849835
0.4852914 0.5080784 0.4850169
0.4854717 0.5080784 0.4850640
0.4857219 0.5080784 0.4851294
0.4860641 0.5080784 0.4852191
0.4865267 0.5080784 0.4853407
0.4871446 0.5080784 0.4855037
0.4879606 0.5080784 0.4857201
0.4890254 0.5080784 0.4860042
0.4903966 0.5080784 0.4863731
0.4921372 0.5080784 0.4868465
0.4943100 0.5080784 0.4874452
0.4969702 0.5080784 0.4881903
0.5001547 0.5080784 0.4890999
0.5038698 0.5080784 0.4901855
0.5080784 0.5080784 0.4914475
0.5080784 0.5045991 0.4934011
0.5080784 0.5026628 0.4952418
0.5080784 0.5018274 0.4969991
0.5080784 0.5017462 0.4986668
