LUTs/guard_rail_high_side.cube
TITLE "High Side Attenuation for Guard Rail"
# High Side Attenuation for Guard Rail
# This LUT assumes input and output to be encoded in ST2084 (15)
# LUT resolution 50
LUT_3D_SIZE 50
0.0000007 0.0000007 0.0000007
0.0204082 0.0000007 0.0000007
0.0408163 0.0000007 0.0000007
0.0612245 0.0000007 0.0000007
0.0816327 0.0000007 0.0000007
0.1020408 0.0000007 0.0000007
0.1224490 0.0000007 0.0000007
0.1428571 0.0000007 0.0000007
0.1632653 0.0000007 0.0000007
0.1836735 0.0000007 0.0000007
0.2040816 0.0000007 0.0000007
0.2244898 0.0000007 0.0000007
0.2448980 0.0000007 0.0000007
0.2653061 0.0000007 0.0000007
0.2857143 0.0000007 0.0000007
0.3061224 0.0000007 0.0000007
0.3265306 0.0000007 0.0000007
0.3469388 0.0000007 0.0000007
0.3673469 0.0000007 0.0000007
0.3877551 0.0000007 0.0000007
0.4081633 0.0000007 0.0000007
0.4285714 0.0000007 0.0000007
0.4489796 0.0000007 0.0000007
0.4693878 0.0000007 0.0000007
0.4897959 0.0000007 0.0000007
0.5102041 0.0000007 0.0000007
0.5306122 0.0000007 0.0000007
0.5510204 0.0000007 0.0000007
0.5714286 0.0000007 0.0000007
0.5918367 0.0000007 0.0000007
0.6122449 0.0000007 0.0000007
0.6326531 0.0000007 0.0000007
0.6530612 0.0000007 0.0000007
0.6734694 0.0000007 0.0000007
0.6938776 0.0000007 0.0000007
0.7085536 0.3219517 0.3219517
0.7119027 0.4553169 0.4553169
0.7119727 0.5148711 0.5148711
0.7119727 0.5546998 0.5546998
0.7119727 0.5845725 0.5845725
0.7119727 0.6081434 0.6081434
0.7119727 0.6272142 0.6272142
0.7119727 0.6428337 0.6428337
0.7119727 0.6556920 0.6556920
0.7119727 0.6662874 0.6662874
0.7119727 0.6750058 0.6750058
0.7119727 0.6821600 0.6821600
0.7119727 0.6880105 0.6880105
0.7119727 0.6927772 0.6927772
0.7119727 0.6966462 0.6966462
0.0000007 0.0204082 0.0000007
0.0204082 0.0204082 0.0000007
0.0408163 0.0204082 0.0000007
0.0612245 0.0204082 0.0000007
0.0816327 0.0204082 0.0000007
0.1020408 0.0204082 0.0000007
0.1224490 0.0204082 0.0000007
0.1428571 0.0204082 0.0000007
0.1632653 0.0204082 0.0000007
0.1836735 0.0204082 0.0000007
0.2040816 0.0204082 0.0000007
0.2244898 0.0204082 0.0000007
0.2448980 0.0204082 0.0000007
0.2653061 0.0204082 0.0000007
0.2857143 0.0204082 0.0000007
0.3061224 0.0204082 0.0000007
0.3265306 0.0204082 0.0000007
0.3469388 0.0204082 0.0000007
0.3673469 0.0204082 0.0000007
0.3877551 0.0204082 0.0000007
0.4081633 0.0204082 0.0000007
0.4285714 0.0204082 0.0000007
0.4489796 0.0204082 0.0000007
0.4693878 0.0204082 0.0000007
0.4897959 0.0204082 0.0000007
0.5102041 0.0204082 0.0000007
0.5306122 0.0204082 0.0000007
0.5510204 0.0204082 0.0000007
0.5714286 0.0204082 0.0000007
0.5918367 0.0204082 0.0000007
0.6122449 0.0204082 0.0000007
0.6326531 0.0204082 0.0000007
0.6530612 0.0204082 0.0000007
0.6734694 0.0204082 0.0000007
0.6938776 0.0204082 0.0000007
0.7085537 0.3220062 0.3219541
0.7119029 0.4553303 0.4553192
0.7119727 0.5148777 0.5148728
0.7119727 0.5547036 0.5547011
0.7119727 0.5845750 0.5845735
0.7119727 0.6081450 0.6081442
0.7119727 0.6272153 0.6272147
0.7119727 0.6428345 0.6428341
0.7119727 0.6556925 0.6556923
0.7119727 0.6662877 0.6662876
0.7119727 0.6750060 0.6750059
0.7119727 0.6821602 0.6821601
0.7119727 0.6880106 0.6880106
0.7119727 0.6927773 0.6927772
0.7119727 0.6966462 0.6966462
0.0000007 0.0408163 0.0000007
0.0204082 0.0408163 0.0000007
0.0408163 0.0408163 0.0000007
0.0612245 0.0408163 0.0000007
0.0816327 0.0408163 0.0000007
0.1020408 0.0408163 0.0000007
0.1224490 0.0408163 0.0000007
0.1428571 0.0408163 0.0000007
0.1632653 0.0408163 0.0000007
0.1836735 0.0408163 0.0000007
0.2040816 0.0408163 0.0000007
0.2244898 0.0408163 0.0000007
0.2448980 0.0408163 0.0000007
0.2653061 0.0408163 0.0000007
0.2857143 0.0408163 0.0000007
0.3061224 0.0408163 0.0000007
0.3265306 0.0408163 0.0000007
0.3469388 0.0408163 0.0000007
0.3673469 0.0408163 0.0000007
0.3877551 0.0408163 0.0000007
0.4081633 0.0408163 0.0000007
0.4285714 0.0408163 0.0000007
0.4489796 0.0408163 0.0000007
0.4693878 0.0408163 0.0000007
0.4897959 0.0408163 0.0000007
0.5102041 0.0408163 0.0000007
0.5306122 0.0408163 0.0000007
0.5510204 0.0408163 0.0000007
0.5714286 0.0408163 0.0000007
0.5918367 0.0408163 0.0000007
0.6122449 0.0408163 0.0000007
0.6326531 0.0408163 0.0000007
0.6530612 0.0408163 0.0000007
0.6734694 0.0408163 0.0000007
0.6938776 0.0408163 0.0000007
0.7085539 0.3221820 0.3219617
0.7119036 0.4553733 0.4553266
0.7119727 0.5148987 0.5148782
0.7119727 0.5547160 0.5547053
0.7119727 0.5845828 0.5845767
0.7119727 0.6081502 0.6081465
0.7119727 0.6272187 0.6272165
0.7119727 0.6428368 0.6428354
0.7119727 0.6556941 0.6556932
0.7119727 0.6662888 0.6662882
0.7119727 0.6750067 0.6750064
0.7119727 0.6821606 0.6821604
0.7119727 0.6880110 0.6880108
0.7119727 0.6927775 0.6927774
0.7119727 0.6966464 0.6966463
0.0000007 0.0612245 0.0000007
0.0204082 0.0612245 0.0000007
0.0408163 0.0612245 0.0000007
0.0612245 0.0612245 0.0000007
0.0816327 0.0612245 0.0000007
0.1020408 0.0612245 0.0000007
0.1224490 0.0612245 0.0000007
0.1428571 0.0612245 0.0000007
0.1632653 0.0612245 0.0000007
0.1836735 0.0612245 0.0000007
0.2040816 0.0612245 0.0000007
0.2244898 0.0612245 0.0000007
0.2448980 0.0612245 0.0000007
0.2653061 0.0612245 0.0000007
0.2857143 0.0612245 0.0000007
0.3061224 0.0612245 0.0000007
0.3265306 0.0612245 0.0000007
0.3469388 0.0612245 0.0000007
0.3673469 0.0612245 0.0000007
0.3877551 0.0612245 0.0000007
0.4081633 0.0612245 0.0000007
0.4285714 0.0612245 0.0000007
0.4489796 0.0612245 0.0000007
0.4693878 0.0612245 0.0000007
0.4897959 0.0612245 0.0000007
0.5102041 0.0612245 0.0000007
0.5306122 0.0612245 0.0000007
0.5510204 0.0612245 0.0000007
0.5714286 0.0612245 0.0000007
0.5918367 0.0612245 0.0000007
0.6122449 0.0612245 0.0000007
0.6326531 0.0612245 0.0000007
0.6530612 0.0612245 0.0000007
0.6734694 0.0612245 0.0000007
0.6938776 0.0612245 0.0000007
0.7085543 0.3225287 0.3219767
0.7119050 0.4554584 0.4553413
0.7119727 0.5149403 0.5148890
0.7119727 0.5547406 0.5547136
0.7119727 0.5845984 0.5845830
0.7119727 0.6081604 0.6081512
0.7119727 0.6272255 0.6272199
0.7119727 0.6428414 0.6428379
0.7119727 0.6556972 0.6556950
0.7119727 0.6662909 0.6662895
0.7119727 0.6750082 0.6750073
0.7119727 0.6821616 0.6821610
0.7119727 0.6880116 0.6880112
0.7119727 0.6927779 0.6927776
0.7119727 0.6966466 0.6966465
0.0000007 0.0816327 0.0000007
0.0204082 0.0816327 0.0000007
0.0408163 0.0816327 0.0000007
0.0612245 0.0816327 0.0000007
0.0816327 0.0816327 0.0000007
0.1020408 0.0816327 0.0000007
0.1224490 0.0816327 0.0000007
0.1428571 0.0816327 0.0000007
0.1632653 0.0816327 0.0000007
0.1836735 0.0816327 0.0000007
0.2040816 0.0816327 0.0000007
0.2244898 0.0816327 0.0000007
0.2448980 0.0816327 0.0000007
0.2653061 0.0816327 0.0000007
0.2857143 0.0816327 0.0000007
0.3061224 0.0816327 0.0000007
0.3265306 0.0816327 0.0000007
0.3469388 0.0816327 0.0000007
0.3673469 0.0816327 0.0000007
0.3877551 0.0816327 0.0000007
0.4081633 0.0816327 0.0000007
0.4285714 0.0816327 0.0000007
0.4489796 0.0816327 0.0000007
0.4693878 0.0816327 0.0000007
0.4897959 0.0816327 0.0000007
0.5102041 0.0816327 0.0000007
0.5306122 0.0816327 0.0000007
0.5510204 0.0816327 0.0000007
0.5714286 0.0816327 0.0000007
0.5918367 0.0816327 0.0000007
0.6122449 0.0816327 0.0000007
0.6326531 0.0816327 0.0000007
0.6530612 0.0816327 0.0000007
0.6734694 0.0816327 0.0000007
0.6938776 0.0816327 0.0000007
0.7085549 0.3231089 0.3220019
0.7119073 0.4556012 0.4553659
0.7119727 0.5150103 0.5149070
0.7119727 0.5547818 0.5547276
0.7119727 0.5846245 0.5845937
0.7119727 0.6081776 0.6081592
0.7119727 0.6272370 0.6272257
0.7119727 0.6428492 0.6428421
0.7119727 0.6557024 0.6556980
0.7119727 0.6662944 0.6662916
0.7119727 0.6750106 0.6750087
0.7119727 0.6821632 0.6821620
0.7119727 0.6880127 0.6880119
0.7119727 0.6927786 0.6927781
0.7119727 0.6966471 0.6966468
0.0000007 0.1020408 0.0000007
0.0204082 0.1020408 0.0000007
0.0408163 0.1020408 0.0000007
0.0612245 0.1020408 0.0000007
0.0816327 0.1020408 0.0000007
0.1020408 0.1020408 0.0000007
0.1224490 0.1020408 0.0000007
0.1428571 0.1020408 0.0000007
0.1632653 0.1020408 0.0000007
0.1836735 0.1020408 0.0000007
0.2040816 0.1020408 0.0000007
0.2244898 0.1020408 0.0000007
0.2448980 0.1020408 0.0000007
0.2653061 0.1020408 0.0000007
0.2857143 0.1020408 0.0000007
0.3061224 0.1020408 0.0000007
0.3265306 0.1020408 0.0000007
0.3469388 0.1020408 0.0000007
0.3673469 0.1020408 0.0000007
0.3877551 0.1020408 0.0000007
0.4081633 0.1020408 0.0000007
0.4285714 0.1020408 0.0000007
0.4489796 0.1020408 0.0000007
0.4693878 0.1020408 0.0000007
0.4897959 0.1020408 0.0000007
0.5102041 0.1020408 0.0000007
0.5306122 0.1020408 0.0000007
0.5510204 0.1020408 0.0000007
0.5714286 0.1020408 0.0000007
0.5918367 0.1020408 0.0000007
0.6122449 0.1020408 0.0000007
0.6326531 0.1020408 0.0000007
0.6530612 0.1020408 0.0000007
0.6734694 0.1020408 0.0000007
0.6938776 0.1020408 0.0000007
0.7085559 0.3239968 0.3220409
0.7119109 0.4558213 0.4554038
0.7119727 0.5151181 0.5149349
0.7119727 0.5548454 0.5547492
0.7119727 0.5846648 0.5846100
0.7119727 0.6082040 0.6081714
0.7119727 0.6272547 0.6272347
0.7119727 0.6428611 0.6428486
0.7119727 0.6557105 0.6557026
0.7119727 0.6662999 0.6662949
0.7119727 0.6750142 0.6750110
0.7119727 0.6821657 0.6821636
0.7119727 0.6880143 0.6880130
0.7119727 0.6927797 0.6927788
0.7119727 0.6966478 0.6966473
0.0000007 0.1224490 0.0000007
0.0204082 0.1224490 0.0000007
0.0408163 0.1224490 0.0000007
0.0612245 0.1224490 0.0000007
0.0816327 0.1224490 0.0000007
0.1020408 0.1224490 0.0000007
0.1224490 0.1224490 0.0000007
0.1428571 0.1224490 0.0000007
0.1632653 0.1224490 0.0000007
0.1836735 0.1224490 0.0000007
0.2040816 0.1224490 0.0000007
0.2244898 0.1224490 0.0000007
0.2448980 0.1224490 0.0000007
0.2653061 0.1224490 0.0000007
0.2857143 0.1224490 0.0000007
0.3061224 0.1224490 0.0000007
0.3265306 0.1224490 0.0000007
0.3469388 0.1224490 0.0000007
0.3673469 0.1224490 0.0000007
0.3877551 0.1224490 0.0000007
0.4081633 0.1224490 0.0000007
0.4285714 0.1224490 0.0000007
0.4489796 0.1224490 0.0000007
0.4693878 0.1224490 0.0000007
0.4897959 0.1224490 0.0000007
0.5102041 0.1224490 0.0000007
0.5306122 0.1224490 0.0000007
0.5510204 0.1224490 0.0000007
0.5714286 0.1224490 0.0000007
0.5918367 0.1224490 0.0000007
0.6122449 0.1224490 0.0000007
0.6326531 0.1224490 0.0000007
0.6530612 0.1224490 0.0000007
0.6734694 0.1224490 0.0000007
0.6938776 0.1224490 0.0000007
0.7085574 0.3252793 0.3220977
0.7119162 0.4561418 0.4554592
0.7119727 0.5152754 0.5149755
0.7119727 0.5549382 0.5547807
0.7119727 0.5847236 0.5846339
0.7119727 0.6082427 0.6081892
0.7119727 0.6272806 0.6272478
0.7119727 0.6428785 0.6428581
0.7119727 0.6557223 0.6557093
0.7119727 0.6663079 0.6662996
0.7119727 0.6750196 0.6750143
0.7119727 0.6821693 0.6821659
0.7119727 0.6880167 0.6880145
0.7119727 0.6927813 0.6927799
0.7119727 0.6966489 0.6966480
0.0000007 0.1428571 0.0000007
0.0204082 0.1428571 0.0000007
0.0408163 0.1428571 0.0000007
0.0612245 0.1428571 0.0000007
0.0816327 0.1428571 0.0000007
0.1020408 0.1428571 0.0000007
0.1224490 0.1428571 0.0000007
0.1428571 0.1428571 0.0000007
0.1632653 0.1428571 0.0000007
0.1836735 0.1428571 0.0000007
0.2040816 0.1428571 0.0000007
0.2244898 0.1428571 0.0000007
0.2448980 0.1428571 0.0000007
0.2653061 0.1428571 0.0000007
0.2857143 0.1428571 0.0000007
0.3061224 0.1428571 0.0000007
0.3265306 0.1428571 0.0000007
0.3469388 0.1428571 0.0000007
0.3673469 0.1428571 0.0000007
0.3877551 0.1428571 0.0000007
0.4081633 0.1428571 0.0000007
0.4285714 0.1428571 0.0000007
0.4489796 0.1428571 0.0000007
0.4693878 0.1428571 0.0000007
0.4897959 0.1428571 0.0000007
0.5102041 0.1428571 0.0000007
0.5306122 0.1428571 0.0000007
0.5510204 0.1428571 0.0000007
0.5714286 0.1428571 0.0000007
0.5918367 0.1428571 0.0000007
0.6122449 0.1428571 0.0000007
0.6326531 0.1428571 0.0000007
0.6530612 0.1428571 0.0000007
0.6734694 0.1428571 0.0000007
0.6938776 0.1428571 0.0000007
0.7085595 0.3270547 0.3221776
0.7119236 0.4565912 0.4555371
0.7119727 0.5154963 0.5150327
0.7119727 0.5550685 0.5548250
0.7119727 0.5848063 0.5846676
0.7119727 0.6082970 0.6082143
0.7119727 0.6273169 0.6272662
0.7119727 0.6429031 0.6428714
0.7119727 0.6557389 0.6557188
0.7119727 0.6663191 0.6663063
0.7119727 0.6750272 0.6750190
0.7119727 0.6821744 0.6821691
0.7119727 0.6880201 0.6880167
0.7119727 0.6927836 0.6927814
0.7119727 0.6966504 0.6966490
0.0000007 0.1632653 0.0000007
0.0204082 0.1632653 0.0000007
0.0408163 0.1632653 0.0000007
0.0612245 0.1632653 0.0000007
0.0816327 0.1632653 0.0000007
0.1020408 0.1632653 0.0000007
0.1224490 0.1632653 0.0000007
0.1428571 0.1632653 0.0000007
0.1632653 0.1632653 0.0000007
0.1836735 0.1632653 0.0000007
0.2040816 0.1632653 0.0000007
0.2244898 0.1632653 0.0000007
0.2448980 0.1632653 0.0000007
0.2653061 0.1632653 0.0000007
0.2857143 0.1632653 0.0000007
0.3061224 0.1632653 0.0000007
0.3265306 0.1632653 0.0000007
0.3469388 0.1632653 0.0000007
0.3673469 0.1632653 0.0000007
0.3877551 0.1632653 0.0000007
0.4081633 0.1632653 0.0000007
0.4285714 0.1632653 0.0000007
0.4489796 0.1632653 0.0000007
0.4693878 0.1632653 0.0000007
0.4897959 0.1632653 0.0000007
0.5102041 0.1632653 0.0000007
0.5306122 0.1632653 0.0000007
0.5510204 0.1632653 0.0000007
0.5714286 0.1632653 0.0000007
0.5918367 0.1632653 0.0000007
0.6122449 0.1632653 0.0000007
0.6326531 0.1632653 0.0000007
0.6530612 0.1632653 0.0000007
0.6734694 0.1632653 0.0000007
0.6938776 0.1632653 0.0000007
0.7085624 0.3294317 0.3222869
0.7119338 0.4572031 0.4556436
0.7119727 0.5157978 0.5151108
0.7119727 0.5552466 0.5548856
0.7119727 0.5849193 0.5847135
0.7119727 0.6083713 0.6082486
0.7119727 0.6273667 0.6272914
0.7119727 0.6429366 0.6428896
0.7119727 0.6557616 0.6557318
0.7119727 0.6663345 0.6663155
0.7119727 0.6750375 0.6750253
0.7119727 0.6821813 0.6821735
0.7119727 0.6880248 0.6880197
0.7119727 0.6927867 0.6927834
0.7119727 0.6966524 0.6966503
0.0000007 0.1836735 0.0000007
0.0204082 0.1836735 0.0000007
0.0408163 0.1836735 0.0000007
0.0612245 0.1836735 0.0000007
0.0816327 0.1836735 0.0000007
0.1020408 0.1836735 0.0000007
0.1224490 0.1836735 0.0000007
0.1428571 0.1836735 0.0000007
0.1632653 0.1836735 0.0000007
0.1836735 0.1836735 0.0000007
0.2040816 0.1836735 0.0000007
0.2244898 0.1836735 0.0000007
0.2448980 0.1836735 0.0000007
0.2653061 0.1836735 0.0000007
0.2857143 0.1836735 0.0000007
0.3061224 0.1836735 0.0000007
0.3265306 0.1836735 0.0000007
0.3469388 0.1836735 0.0000007
0.3673469 0.1836735 0.0000007
0.3877551 0.1836735 0.0000007
0.4081633 0.1836735 0.0000007
0.4285714 0.1836735 0.0000007
0.4489796 0.1836735 0.0000007
0.4693878 0.1836735 0.0000007
0.4897959 0.1836735 0.0000007
0.5102041 0.1836735 0.0000007
0.5306122 0.1836735 0.0000007
0.5510204 0.1836735 0.0000007
0.5714286 0.1836735 0.0000007
0.5918367 0.1836735 0.0000007
0.6122449 0.1836735 0.0000007
0.6326531 0.1836735 0.0000007
0.6530612 0.1836735 0.0000007
0.6734694 0.1836735 0.0000007
0.6938776 0.1836735 0.0000007
0.7085662 0.3325257 0.3224330
0.7119474 0.4580170 0.4557861
0.7119727 0.5162001 0.5152154
0.7119727 0.5554846 0.5549666
0.7119727 0.5850704 0.5847751
0.7119727 0.6084706 0.6082944
0.7119727 0.6274332 0.6273251
0.7119727 0.6429815 0.6429140
0.7119727 0.6557920 0.6557492
0.7119727 0.6663550 0.6663277
0.7119727 0.6750514 0.6750339
0.7119727 0.6821906 0.6821793
0.7119727 0.6880310 0.6880237
0.7119727 0.6927908 0.6927861
0.7119727 0.6966552 0.6966521
0.0000007 0.2040816 0.0000007
0.0204082 0.2040816 0.0000007
0.0408163 0.2040816 0.0000007
0.0612245 0.2040816 0.0000007
0.0816327 0.2040816 0.0000007
0.1020408 0.2040816 0.0000007
0.1224490 0.2040816 0.0000007
0.1428571 0.2040816 0.0000007
0.1632653 0.2040816 0.0000007
0.1836735 0.2040816 0.0000007
0.2040816 0.2040816 0.0000007
0.2244898 0.2040816 0.0000007
0.2448980 0.2040816 0.0000007
0.2653061 0.2040816 0.0000007
0.2857143 0.2040816 0.0000007
0.3061224 0.2040816 0.0000007
0.3265306 0.2040816 0.0000007
0.3469388 0.2040816 0.0000007
0.3673469 0.2040816 0.0000007
0.3877551 0.2040816 0.0000007
0.4081633 0.2040816 0.0000007
0.4285714 0.2040816 0.0000007
0.4489796 0.2040816 0.0000007
0.4693878 0.2040816 0.0000007
0.4897959 0.2040816 0.0000007
0.5102041 0.2040816 0.0000007
0.5306122 0.2040816 0.0000007
0.5510204 0.2040816 0.0000007
0.5714286 0.2040816 0.0000007
0.5918367 0.2040816 0.0000007
0.6122449 0.2040816 0.0000007
0.6326531 0.2040816 0.0000007
0.6530612 0.2040816 0.0000007
0.6734694 0.2040816 0.0000007
0.6938776 0.2040816 0.0000007
0.7085712 0.3364534 0.3226250
0.7119653 0.4590795 0.4559735
0.7119727 0.5167274 0.5153528
0.7119727 0.5557971 0.5550732
0.7119727 0.5852690 0.5848560
0.7119727 0.6086013 0.6083548
0.7119727 0.6275207 0.6273694
0.7119727 0.6430406 0.6429460
0.7119727 0.6558320 0.6557721
0.7119727 0.6663821 0.6663438
0.7119727 0.6750696 0.6750451
0.7119727 0.6822029 0.6821871
0.7119727 0.6880392 0.6880290
0.7119727 0.6927962 0.6927896
0.7119727 0.6966588 0.6966545
0.0000007 0.2244898 0.0000007
0.0204082 0.2244898 0.0000007
0.0408163 0.2244898 0.0000007
0.0612245 0.2244898 0.0000007
0.0816327 0.2244898 0.0000007
0.1020408 0.2244898 0.0000007
0.1224490 0.2244898 0.0000007
0.1428571 0.2244898 0.0000007
0.1632653 0.2244898 0.0000007
0.1836735 0.2244898 0.0000007
0.2040816 0.2244898 0.0000007
0.2244898 0.2244898 0.0000007
0.2448980 0.2244898 0.0000007
0.2653061 0.2244898 0.0000007
0.2857143 0.2244898 0.0000007
0.3061224 0.2244898 0.0000007
0.3265306 0.2244898 0.0000007
0.3469388 0.2244898 0.0000007
0.3673469 0.2244898 0.0000007
0.3877551 0.2244898 0.0000007
0.4081633 0.2244898 0.0000007
0.4285714 0.2244898 0.0000007
0.4489796 0.2244898 0.0000007
0.4693878 0.2244898 0.0000007
0.4897959 0.2244898 0.0000007
0.5102041 0.2244898 0.0000007
0.5306122 0.2244898 0.0000007
0.5510204 0.2244898 0.0000007
0.5714286 0.2244898 0.0000007
0.5918367 0.2244898 0.0000007
0.6122449 0.2244898 0.0000007
0.6326531 0.2244898 0.0000007
0.6530612 0.2244898 0.0000007
0.6734694 0.2244898 0.0000007
0.6938776 0.2244898 0.0000007
0.7085777 0.3413270 0.3228740
0.7119727 0.4604296 0.4562023
0.7119727 0.5174081 0.5155310
0.7119727 0.5562014 0.5552114
0.7119727 0.5855261 0.5849609
0.7119727 0.6087706 0.6084331
0.7119727 0.6276341 0.6274269
0.7119727 0.6431172 0.6429876
0.7119727 0.6558839 0.6558018
0.7119727 0.6664172 0.6663648
0.7119727 0.6750933 0.6750597
0.7119727 0.6822188 0.6821971
0.7119727 0.6880498 0.6880358
0.7119727 0.6928033 0.6927943
0.7119727 0.6966634 0.6966576
0.0000007 0.2448980 0.0000007
0.0204082 0.2448980 0.0000007
0.0408163 0.2448980 0.0000007
0.0612245 0.2448980 0.0000007
0.0816327 0.2448980 0.0000007
0.1020408 0.2448980 0.0000007
0.1224490 0.2448980 0.0000007
0.1428571 0.2448980 0.0000007
0.1632653 0.2448980 0.0000007
0.1836735 0.2448980 0.0000007
0.2040816 0.2448980 0.0000007
0.2244898 0.2448980 0.0000007
0.2448980 0.2448980 0.0000007
0.2653061 0.2448980 0.0000007
0.2857143 0.2448980 0.0000007
0.3061224 0.2448980 0.0000007
0.3265306 0.2448980 0.0000007
0.3469388 0.2448980 0.0000007
0.3673469 0.2448980 0.0000007
0.3877551 0.2448980 0.0000007
0.4081633 0.2448980 0.0000007
0.4285714 0.2448980 0.0000007
0.4489796 0.2448980 0.0000007
0.4693878 0.2448980 0.0000007
0.4897959 0.2448980 0.0000007
0.5102041 0.2448980 0.0000007
0.5306122 0.2448980 0.0000007
0.5510204 0.2448980 0.0000007
0.5714286 0.2448980 0.0000007
0.5918367 0.2448980 0.0000007
0.6122449 0.2448980 0.0000007
0.6326531 0.2448980 0.0000007
0.6530612 0.2448980 0.0000007
0.6734694 0.2448980 0.0000007
0.6938776 0.2448980 0.0000007
0.7085861 0.3472457 0.3231927
0.7119727 0.4621294 0.4564868
0.7119727 0.5182754 0.5157592
0.7119727 0.5567179 0.5553885
0.7119727 0.5858552 0.5850954
0.7119727 0.6089875 0.6085335
0.7119727 0.6277795 0.6275006
0.7119727 0.6432155 0.6430410
0.7119727 0.6559504 0.6558399
0.7119727 0.6664622 0.6663916
0.7119727 0.6751237 0.6750784
0.7119727 0.6822392 0.6822100
0.7119727 0.6880635 0.6880446
0.7119727 0.6928124 0.6928002
0.7119727 0.6966694 0.6966616
0.0000007 0.2653061 0.0000007
0.0204082 0.2653061 0.0000007
0.0408163 0.2653061 0.0000007
0.0612245 0.2653061 0.0000007
0.0816327 0.2653061 0.0000007
0.1020408 0.2653061 0.0000007
0.1224490 0.2653061 0.0000007
0.1428571 0.2653061 0.0000007
0.1632653 0.2653061 0.0000007
0.1836735 0.2653061 0.0000007
0.2040816 0.2653061 0.0000007
0.2244898 0.2653061 0.0000007
0.2448980 0.2653061 0.0000007
0.2653061 0.2653061 0.0000007
0.2857143 0.2653061 0.0000007
0.3061224 0.2653061 0.0000007
0.3265306 0.2653061 0.0000007
0.3469388 0.2653061 0.0000007
0.3673469 0.2653061 0.0000007
0.3877551 0.2653061 0.0000007
0.4081633 0.2653061 0.0000007
0.4285714 0.2653061 0.0000007
0.4489796 0.2653061 0.0000007
0.4693878 0.2653061 0.0000007
0.4897959 0.2653061 0.0000007
0.5102041 0.2653061 0.0000007
0.5306122 0.2653061 0.0000007
0.5510204 0.2653061 0.0000007
0.5714286 0.2653061 0.0000007
0.5918367 0.2653061 0.0000007
0.6122449 0.2653061 0.0000007
0.6326531 0.2653061 0.0000007
0.6530612 0.2653061 0.0000007
0.6734694 0.2653061 0.0000007
0.6938776 0.2653061 0.0000007
0.7085968 0.3542887 0.3235965
0.7119727 0.4642514 0.4568474
0.7119727 0.5193676 0.5160485
0.7119727 0.5573706 0.5556130
0.7119727 0.5862718 0.5852660
0.7119727 0.6092623 0.6086608
0.7119727 0.6279639 0.6275942
0.7119727 0.6433401 0.6431088
0.7119727 0.6560349 0.6558883
0.7119727 0.6665194 0.6664257
0.7119727 0.6751623 0.6751021
0.7119727 0.6822651 0.6822263
0.7119727 0.6880808 0.6880558
0.7119727 0.6928239 0.6928077
0.7119727 0.6966771 0.6966666
0.0000007 0.2857143 0.0000007
0.0204082 0.2857143 0.0000007
0.0408163 0.2857143 0.0000007
0.0612245 0.2857143 0.0000007
0.0816327 0.2857143 0.0000007
0.1020408 0.2857143 0.0000007
0.1224490 0.2857143 0.0000007
0.1428571 0.2857143 0.0000007
0.1632653 0.2857143 0.0000007
0.1836735 0.2857143 0.0000007
0.2040816 0.2857143 0.0000007
0.2244898 0.2857143 0.0000007
0.2448980 0.2857143 0.0000007
0.2653061 0.2857143 0.0000007
0.2857143 0.2857143 0.0000007
0.3061224 0.2857143 0.0000007
0.3265306 0.2857143 0.0000007
0.3469388 0.2857143 0.0000007
0.3673469 0.2857143 0.0000007
0.3877551 0.2857143 0.0000007
0.4081633 0.2857143 0.0000007
0.4285714 0.2857143 0.0000007
0.4489796 0.2857143 0.0000007
0.4693878 0.2857143 0.0000007
0.4897959 0.2857143 0.0000007
0.5102041 0.2857143 0.0000007
0.5306122 0.2857143 0.0000007
0.5510204 0.2857143 0.0000007
0.5714286 0.2857143 0.0000007
0.5918367 0.2857143 0.0000007
0.6122449 0.2857143 0.0000007
0.6326531 0.2857143 0.0000007
0.6530612 0.2857143 0.0000007
0.6734694 0.2857143 0.0000007
0.6938776 0.2857143 0.0000007
0.7086102 0.3625085 0.3241036
0.7119727 0.4668674 0.4573003
0.7119727 0.5207285 0.5164120
0.7119727 0.5581875 0.5558953
0.7119727 0.5867944 0.5854805
0.7119727 0.6096075 0.6088211
0.7119727 0.6281957 0.6277120
0.7119727 0.6434970 0.6431941
0.7119727 0.6561412 0.6559492
0.7119727 0.6665914 0.6664687
0.7119727 0.6752109 0.6751321
0.7119727 0.6822978 0.6822470
0.7119727 0.6881027 0.6880698
0.7119727 0.6928384 0.6928172
0.7119727 0.6966867 0.6966730
0.0000007 0.3061224 0.0000007
0.0204082 0.3061224 0.0000007
0.0408163 0.3061224 0.0000007
0.0612245 0.3061224 0.0000007
0.0816327 0.3061224 0.0000007
0.1020408 0.3061224 0.0000007
0.1224490 0.3061224 0.0000007
0.1428571 0.3061224 0.0000007
0.1632653 0.3061224 0.0000007
0.1836735 0.3061224 0.0000007
0.2040816 0.3061224 0.0000007
0.2244898 0.3061224 0.0000007
0.2448980 0.3061224 0.0000007
0.2653061 0.3061224 0.0000007
0.2857143 0.3061224 0.0000007
0.3061224 0.3061224 0.0000007
0.3265306 0.3061224 0.0000007
0.3469388 0.3061224 0.0000007
0.3673469 0.3061224 0.0000007
0.3877551 0.3061224 0.0000007
0.4081633 0.3061224 0.0000007
0.4285714 0.3061224 0.0000007
0.4489796 0.3061224 0.0000007
0.4693878 0.3061224 0.0000007
0.4897959 0.3061224 0.0000007
0.5102041 0.3061224 0.0000007
0.5306122 0.3061224 0.0000007
0.5510204 0.3061224 0.0000007
0.5714286 0.3061224 0.0000007
0.5918367 0.3061224 0.0000007
0.6122449 0.3061224 0.0000007
0.6326531 0.3061224 0.0000007
0.6530612 0.3061224 0.0000007
0.6734694 0.3061224 0.0000007
0.6938776 0.3061224 0.0000007
0.7086270 0.3719268 0.3247353
0.7119727 0.4700535 0.4578644
0.7119727 0.5224075 0.5168651
0.7119727 0.5592006 0.5562473
0.7119727 0.5874444 0.5857482
0.7119727 0.6100377 0.6090211
0.7119727 0.6284849 0.6278591
0.7119727 0.6436928 0.6433006
