LUTs/guard_rail_high_side.cube
TITLE "High Side Attenuation for Guard Rail"
# High Side Attenuation for Guard Rail
# This LUT assumes input and output to be encoded in ST2084 (15)
# LUT resolution 50
LUT_3D_SIZE 8
0.0000007 0.0000007 0.0000007
0.1428571 0.0000007 0.0000007
0.2857143 0.0000007 0.0000007
0.4285714 0.0000007 0.0000007
0.5714286 0.0000007 0.0000007
0.7085536 0.3219517 0.3219517
0.7119727 0.6428337 0.6428337
0.7119727 0.6966462 0.6966462
0.0000007 0.1428571 0.0000007
0.1428571 0.1428571 0.0000007
0.2857143 0.1428571 0.0000007
0.4285714 0.1428571 0.0000007
0.5714286 0.1428571 0.0000007
0.7085595 0.3270547 0.3221776
0.7119727 0.6429031 0.6428714
0.7119727 0.6966504 0.6966490
0.0000007 0.2857143 0.0000007
0.1428571 0.2857143 0.0000007
0.2857143 0.2857143 0.0000007
0.4285714 0.2857143 0.0000007
0.5714286 0.2857143 0.0000007
0.7086102 0.3625085 0.3241036
0.7119727 0.6434970 0.6431941
0.7119727 0.6966867 0.6966730
0.0000007 0.4285714 0.0000007
0.1428571 0.4285714 0.0000007
0.2857143 0.4285714 0.0000007
0.4285714 0.4285714 0.0000007
0.5714286 0.4285714 0.0000007
0.7088524 0.4513149 0.3328145
0.7119727 0.6462420 0.6446959
0.7119727 0.6968587 0.6967868
0.0000007 0.5714286 0.0000007
0.1428571 0.5714286 0.0000007
0.2857143 0.5714286 0.0000007
0.4285714 0.5714286 0.0000007
0.5714286 0.5714286 0.0000007
0.7098044 0.5758019 0.3611401
0.7119727 0.6557461 0.6500257
0.7119727 0.6975135 0.6972207
0.3919453 0.7111878 0.3919453
0.3944205 0.7111903 0.3919945
0.4135842 0.7112123 0.3924176
0.4749377 0.7113174 0.3944177
0.5821683 0.7117319 0.4019585
0.7119727 0.7119727 0.4246813
0.7119727 0.6790769 0.6639523
0.7119727 0.6996279 0.6986277
0.6756259 0.7119727 0.6756259
0.6756446 0.7119727 0.6756304
0.6758058 0.7119727 0.6756693
0.6765698 0.7119727 0.6758541
0.6794776 0.7119727 0.6765664
0.6888750 0.7119727 0.6789669
0.7119727 0.7119727 0.6855395
0.7119727 0.7047746 0.7020901
0.7048921 0.7119727 0.7048921
0.7048930 0.7119727 0.7048923
0.7049007 0.7119727 0.7048946
0.7049377 0.7119727 0.7049055
0.7050828 0.7119727 0.7049481
0.7056022 0.7119727 0.7051012
0.7073187 0.7119727 0.7056107
0.7119727 0.7119727 0.7070202
0.0000007 0.0000007 0.1428571
0.1428571 0.0000007 0.1428571
0.2857143 0.0000007 0.1428571
0.4285714 0.0000007 0.1428571
0.5714286 0.0000007 0.1428571
0.7085550 0.3220030 0.3268888
0.7119727 0.6428423 0.6428740
0.7119727 0.6966468 0.6966482
0.0000007 0.1428571 0.1428571
0.1428571 0.1428571 0.1428571
0.2857143 0.1428571 0.1428571
0.4285714 0.1428571 0.1428571
0.5714286 0.1428571 0.1428571
0.7085608 0.3271033 0.3271033
0.7119727 0.6429116 0.6429116
0.7119727 0.6966510 0.6966510
0.0000007 0.2857143 0.1428571
0.1428571 0.2857143 0.1428571
0.2857143 0.2857143 0.1428571
0.4285714 0.2857143 0.1428571
0.5714286 0.2857143 0.1428571
0.7086115 0.3625422 0.3289330
0.7119727 0.6435054 0.6432340
0.7119727 0.6966873 0.6966750
0.0000007 0.4285714 0.1428571
0.1428571 0.4285714 0.1428571
0.2857143 0.4285714 0.1428571
0.4285714 0.4285714 0.1428571
0.5714286 0.4285714 0.1428571
0.7088537 0.4513290 0.3372328
0.7119727 0.6462499 0.6447345
0.7119727 0.6968593 0.6967889
0.0000007 0.5714286 0.1428571
0.1428571 0.5714286 0.1428571
0.2857143 0.5714286 0.1428571
0.4285714 0.5714286 0.1428571
0.5714286 0.5714286 0.1428571
0.7098057 0.5758063 0.3644621
0.7119727 0.6557521 0.6500599
0.7119727 0.6975141 0.6972227
0.3919705 0.7111891 0.3943970
0.3944450 0.7111916 0.3944450
0.4136045 0.7112136 0.3948580
0.4749490 0.7113187 0.3968110
0.5821725 0.7117332 0.4041824
0.7119727 0.7119727 0.4264459
0.7119727 0.6790795 0.6639762
0.7119727 0.6996283 0.6986294
0.6756282 0.7119727 0.6756424
0.6756469 0.7119727 0.6756469
0.6758081 0.7119727 0.6756858
0.6765721 0.7119727 0.6758705
0.6794796 0.7119727 0.6765824
0.6888763 0.7119727 0.6789815
0.7119727 0.7119727 0.6855506
0.7119727 0.7047748 0.7020912
0.7048922 0.7119727 0.7048928
0.7048931 0.7119727 0.7048931
0.7049009 0.7119727 0.7048954
0.7049379 0.7119727 0.7049063
0.7050829 0.7119727 0.7049489
0.7056024 0.7119727 0.7051020
0.7073188 0.7119727 0.7056114
0.7119727 0.7119727 0.7070207
0.0000007 0.0000007 0.2857143
0.1428571 0.0000007 0.2857143
0.2857143 0.0000007 0.2857143
0.4285714 0.0000007 0.2857143
0.5714286 0.0000007 0.2857143
0.7085665 0.3224440 0.3613957
0.7119727 0.6429158 0.6432204
0.7119727 0.6966523 0.6966660
0.0000007 0.1428571 0.2857143
0.1428571 0.1428571 0.2857143
0.2857143 0.1428571 0.2857143
0.4285714 0.1428571 0.2857143
0.5714286 0.1428571 0.2857143
0.7085723 0.3275213 0.3615460
0.7119727 0.6429850 0.6432577
0.7119727 0.6966565 0.6966688
0.0000007 0.2857143 0.2857143
0.1428571 0.2857143 0.2857143
0.2857143 0.2857143 0.2857143
0.4285714 0.2857143 0.2857143
0.5714286 0.2857143 0.2857143
0.7086230 0.3628325 0.3628325
0.7119727 0.6435777 0.6435777
0.7119727 0.6966927 0.6966927
0.0000007 0.4285714 0.2857143
0.1428571 0.4285714 0.2857143
0.2857143 0.4285714 0.2857143
0.4285714 0.4285714 0.2857143
0.5714286 0.4285714 0.2857143
0.7088652 0.4514507 0.3687658
0.7119727 0.6463172 0.6450671
0.7119727 0.6968647 0.6968064
0.0000007 0.5714286 0.2857143
0.1428571 0.5714286 0.2857143
0.2857143 0.5714286 0.2857143
0.4285714 0.5714286 0.2857143
0.5714286 0.5714286 0.2857143
0.7098171 0.5758446 0.3892701
0.7119727 0.6558038 0.6503545
0.7119727 0.6975191 0.6972396
0.3921867 0.7112003 0.4133966
0.3946561 0.7112028 0.4134365
0.4137794 0.7112248 0.4137794
0.4750463 0.7113299 0.4154045
0.5822086 0.7117444 0.4215878
0.7119727 0.7119727 0.4405324
0.7119727 0.6791017 0.6641820
0.7119727 0.6996321 0.6986442
0.6756480 0.7119727 0.6757847
0.6756667 0.7119727 0.6757892
0.6758278 0.7119727 0.6758278
0.6765912 0.7119727 0.6760116
0.6794966 0.7119727 0.6767199
0.6888872 0.7119727 0.6791073
0.7119727 0.7119727 0.6856460
0.7119727 0.7047764 0.7021012
0.7048934 0.7119727 0.7048995
0.7048943 0.7119727 0.7048997
0.7049020 0.7119727 0.7049020
0.7049390 0.7119727 0.7049129
0.7050840 0.7119727 0.7049555
0.7056034 0.7119727 0.7051084
0.7073195 0.7119727 0.7056172
0.7119727 0.7119727 0.7070251
0.0000007 0.0000007 0.4285714
0.1428571 0.0000007 0.4285714
0.2857143 0.0000007 0.4285714
0.4285714 0.0000007 0.4285714
0.5714286 0.0000007 0.4285714
0.7086214 0.3245260 0.4488356
0.7119727 0.6432653 0.6448553
0.7119727 0.6966783 0.6967507
0.0000007 0.1428571 0.4285714
0.1428571 0.1428571 0.4285714
0.2857143 0.1428571 0.4285714
0.4285714 0.1428571 0.4285714
0.5714286 0.1428571 0.4285714
0.7086273 0.3294962 0.4488994
0.7119727 0.6433339 0.6448913
0.7119727 0.6966825 0.6967535
0.0000007 0.2857143 0.4285714
0.1428571 0.2857143 0.4285714
0.2857143 0.2857143 0.4285714
0.4285714 0.2857143 0.4285714
0.5714286 0.2857143 0.4285714
0.7086780 0.3642095 0.4494475
0.7119727 0.6439214 0.6452000
0.7119727 0.6967187 0.6967773
0.0000007 0.4285714 0.4285714
0.1428571 0.4285714 0.4285714
0.2857143 0.4285714 0.4285714
0.4285714 0.4285714 0.4285714
0.5714286 0.4285714 0.4285714
0.7089200 0.4520310 0.4520310
0.7119727 0.6466376 0.6466376
0.7119727 0.6968901 0.6968901
0.0000007 0.5714286 0.4285714
0.1428571 0.5714286 0.4285714
0.2857143 0.5714286 0.4285714
0.4285714 0.5714286 0.4285714
0.5714286 0.5714286 0.4285714
0.7098714 0.5760277 0.4616633
0.7119727 0.6560501 0.6517476
0.7119727 0.6975427 0.6973201
0.3932152 0.7112540 0.4743855
0.3956598 0.7112565 0.4744077
0.4146123 0.7112785 0.4745992
0.4755107 0.7113836 0.4755107
0.5823814 0.7117978 0.4790390
0.7119727 0.7119727 0.4899101
0.7119727 0.6792077 0.6651585
0.7119727 0.6996503 0.6987146
0.6757427 0.7119727 0.6764611
0.6757614 0.7119727 0.6764655
0.6759219 0.7119727 0.6765032
0.6766826 0.7119727 0.6766826
0.6795780 0.7119727 0.6773740
0.6889393 0.7119727 0.6797056
0.7119727 0.7119727 0.6861006
0.7119727 0.7047842 0.7021490
0.7048989 0.7119727 0.7049312
0.7048998 0.7119727 0.7049315
0.7049076 0.7119727 0.7049337
0.7049445 0.7119727 0.7049445
0.7050894 0.7119727 0.7049869
0.7056082 0.7119727 0.7051390
0.7073228 0.7119727 0.7056451
0.7119727 0.7119727 0.7070459
0.0000007 0.0000007 0.5714286
0.1428571 0.0000007 0.5714286
0.2857143 0.0000007 0.5714286
0.4285714 0.0000007 0.5714286
0.5714286 0.0000007 0.5714286
0.7088385 0.3323363 0.5725113
0.7119727 0.6446117 0.6509825
0.7119727 0.6967804 0.6970825
0.0000007 0.1428571 0.5714286
0.1428571 0.1428571 0.5714286
0.2857143 0.1428571 0.5714286
0.4285714 0.1428571 0.5714286
0.5714286 0.1428571 0.5714286
0.7088444 0.3369258 0.5725315
0.7119727 0.6446780 0.6510138
0.7119727 0.6967845 0.6970852
0.0000007 0.2857143 0.5714286
0.1428571 0.2857143 0.5714286
0.2857143 0.2857143 0.5714286
0.4285714 0.2857143 0.5714286
0.5714286 0.2857143 0.5714286
0.7088949 0.3694720 0.5727054
0.7119727 0.6452458 0.6512822
0.7119727 0.6968203 0.6971083
0.0000007 0.4285714 0.5714286
0.1428571 0.4285714 0.5714286
0.2857143 0.4285714 0.5714286
0.4285714 0.4285714 0.5714286
0.5714286 0.4285714 0.5714286
0.7091365 0.4542939 0.5735339
0.7119727 0.6478730 0.6525334
0.7119727 0.6969898 0.6972178
0.0000007 0.5714286 0.5714286
0.1428571 0.5714286 0.5714286
0.2857143 0.5714286 0.5714286
0.4285714 0.5714286 0.5714286
0.5714286 0.5714286 0.5714286
0.7100860 0.5767485 0.5767485
0.7119727 0.6570023 0.6570023
0.7119727 0.6976353 0.6976353
0.3971808 0.7114659 0.5813049
0.3995328 0.7114685 0.5813132
0.4178399 0.7114904 0.5813845
0.4773267 0.7115952 0.5817252
0.5830270 0.7119727 0.5830270
0.7119727 0.7119727 0.5863628
0.7119727 0.6796197 0.6688852
0.7119727 0.6997216 0.6989906
0.6761123 0.7119727 0.6790666
0.6761306 0.7119727 0.6790706
0.6762889 0.7119727 0.6791048
0.6770390 0.7119727 0.6792676
0.6798954 0.7119727 0.6798954
0.6891430 0.7119727 0.6820164
0.7119727 0.7119727 0.6878648
0.7119727 0.7048148 0.7023367
0.7049208 0.7119727 0.7050560
0.7049217 0.7119727 0.7050563
0.7049294 0.7119727 0.7050585
0.7049662 0.7119727 0.7050690
0.7051105 0.7119727 0.7051105
0.7056273 0.7119727 0.7052594
0.7073356 0.7119727 0.7057550
0.7119727 0.7119727 0.7071281
0.2694173 0.2694173 0.7075060
0.2780626 0.2695954 0.7075086
0.3306745 0.2711164 0.7075314
0.4376552 0.2780534 0.7076401
0.5698371 0.3012017 0.7080686
0.7096359 0.3566733 0.7096359
0.7119727 0.6491433 0.6698747
0.7119727 0.6971455 0.6982638
0.2698178 0.2782648 0.7075119
0.2784260 0.2784260 0.7075146
0.3308806 0.2798045 0.7075373
0.4377262 0.2861222 0.7076460
0.5698577 0.3075257 0.7080745
0.7096417 0.3602645 0.7096417
0.7119727 0.6492021 0.6698934
0.7119727 0.6971495 0.6982662
0.2731978 0.3317720 0.7075631
0.2815003 0.3318625 0.7075658
0.3326400 0.3326400 0.7075885
0.4383360 0.3362749 0.7076971
0.5700360 0.3494350 0.7081254
0.7096919 0.3867925 0.7096919
0.7119727 0.6497064 0.6700541
0.7119727 0.6971838 0.6982869
0.2878049 0.4396432 0.7078076
0.2949146 0.4396741 0.7078102
0.3406383 0.4399404 0.7078329
0.4412049 0.4412049 0.7079413
0.5708848 0.4460586 0.7083686
0.7099317 0.4622477 0.7099317
0.7119727 0.6520453 0.6708058
0.7119727 0.6973466 0.6983849
0.3298892 0.5722705 0.7087686
0.3344844 0.5722795 0.7087712
0.3670502 0.5723569 0.7087937
0.4518319 0.5727269 0.7089011
0.5741769 0.5741769 0.7093248
0.7108745 0.5793681 0.7108745
0.7119727 0.6602475 0.6735282
0.7119727 0.6979669 0.6987591
0.4103772 0.7119727 0.7119727
0.4124395 0.7119727 0.7119727
0.4286904 0.7119727 0.7119727
0.4834090 0.7119727 0.7119727
0.5847544 0.7119727 0.7119727
0.7119727 0.7119727 0.7119727
0.7119727 0.6810541 0.6810541
0.7119727 0.6999779 0.6999779
0.6774126 0.7119727 0.6878394
0.6774301 0.7119727 0.6878421
0.6775806 0.7119727 0.6878655
0.6782940 0.7119727 0.6879766
0.6810147 0.7119727 0.6884057
0.6898643 0.7119727 0.6898643
0.7119727 0.7119727 0.6939583
0.7119727 0.7049256 0.7030136
0.7050004 0.7119727 0.7055090
0.7050013 0.7119727 0.7055092
0.7050089 0.7119727 0.7055113
0.7050452 0.7119727 0.7055210
0.7051873 0.7119727 0.7055593
0.7056967 0.7119727 0.7056967
0.7073823 0.7119727 0.7061546
0.7119727 0.7119727 0.7074277
0.6030775 0.6030775 0.7119727
0.6031822 0.6031210 0.7119727
0.6040797 0.6034946 0.7119727
0.6082276 0.6052447 0.7119727
0.6226037 0.6116068 0.7119727
0.6583798 0.6294603 0.7119727
0.7119727 0.6615253 0.7119727
0.7119727 0.6983487 0.7020957
0.6031754 0.6032366 0.7119727
0.6032800 0.6032800 0.7119727
0.6041760 0.6036526 0.7119727
0.6083173 0.6053978 0.7119727
0.6226728 0.6117430 0.7119727
0.6584103 0.6295551 0.7119727
0.7119727 0.6615662 0.7119727
0.7119727 0.6983521 0.7020973
0.6040118 0.6045926 0.7119727
0.6041150 0.6046349 0.7119727
0.6049986 0.6049986 0.7119727
0.6090841 0.6067026 0.7119727
0.6232642 0.6129044 0.7119727
0.6586723 0.6303658 0.7119727
0.7119727 0.6619167 0.7119727
0.7119727 0.6983819 0.7021108
0.6078295 0.6107023 0.7119727
0.6079261 0.6107402 0.7119727
0.6087545 0.6110654 0.7119727
0.6125909 0.6125909 0.7119727
0.6259832 0.6181692 0.7119727
0.6598902 0.6340836 0.7119727
0.7119727 0.6635535 0.7119727
0.7119727 0.6985234 0.7021750
0.6204696 0.6301051 0.7119727
0.6205466 0.6301307 0.7119727
0.6212073 0.6303503 0.7119727
0.6242829 0.6313843 0.7119727
0.6352173 0.6352173 0.7119727
0.6641968 0.6466013 0.7119727
0.7119727 0.6694358 0.7119727
0.7119727 0.6990639 0.7024207
0.6482856 0.6693561 0.7119727
0.6483282 0.6693646 0.7119727
0.6486939 0.6694380 0.7119727
0.6504132 0.6697853 0.7119727
0.6567528 0.6711039 0.7119727
0.6753247 0.6753247 0.7119727
0.7119727 0.6853813 0.7119727
0.7119727 0.7008339 0.7032298
0.6814719 0.7119727 0.7119727
0.6814867 0.7119727 0.7119727
0.6816139 0.7119727 0.7119727
0.6822177 0.7119727 0.7119727
0.6845303 0.7119727 0.7119727
0.6921633 0.7119727 0.7119727
0.7119727 0.7119727 0.7119727
0.7119727 0.7053049 0.7053049
0.7052781 0.7119727 0.7070775
0.7052790 0.7119727 0.7070776
0.7052862 0.7119727 0.7070791
0.7053206 0.7119727 0.7070862
0.7054554 0.7119727 0.7071138
0.7059391 0.7119727 0.7072133
0.7075463 0.7119727 0.7075463
0.7119727 0.7119727 0.7084835
0.6837741 0.6837741 0.7119727
0.6837811 0.6837783 0.7119727
0.6838414 0.6838146 0.7119727
0.6841274 0.6839868 0.7119727
0.6852215 0.6846471 0.7119727
0.6888164 0.6868348 0.7119727
0.6979908 0.6925436 0.7119727
0.7119727 0.7015838 0.7119727
0.6837836 0.6837864 0.7119727
0.6837906 0.6837906 0.7119727
0.6838508 0.6838268 0.7119727
0.6841367 0.6839989 0.7119727
0.6852302 0.6846587 0.7119727
0.6888233 0.6868448 0.7119727
0.6979940 0.6925499 0.7119727
0.7119727 0.7015860 0.7119727
0.6838651 0.6838918 0.7119727
0.6838720 0.6838960 0.7119727
0.6839320 0.6839320 0.7119727
0.6842164 0.6841028 0.7119727
0.6853049 0.6847583 0.7119727
0.6888823 0.6869306 0.7119727
0.6980211 0.6926044 0.7119727
0.7119727 0.7016052 0.7119727
0.6842484 0.6843875 0.7119727
0.6842552 0.6843915 0.7119727
0.6843138 0.6844264 0.7119727
0.6845919 0.6845919 0.7119727
0.6856564 0.6852269 0.7119727
0.6891607 0.6873346 0.7119727
0.6981492 0.6928619 0.7119727
0.7119727 0.7016963 0.7119727
0.6856659 0.6862163 0.7119727
0.6856721 0.6862199 0.7119727
0.6857258 0.6862507 0.7119727
0.6859810 0.6863970 0.7119727
0.6869593 0.6869593 0.7119727
0.6901980 0.6888361 0.7119727
0.6986336 0.6938324 0.7119727
0.7119727 0.7020475 0.7119727
0.6898383 0.6915607 0.7119727
0.6898430 0.6915631 0.7119727
0.6898836 0.6915835 0.7119727
0.6900768 0.6916805 0.7119727
0.6908209 0.6920552 0.7119727
0.6933256 0.6933256 0.7119727
0.7001608 0.6968646 0.7119727
0.7119727 0.7032290 0.7119727
0.6979794 0.7018328 0.7119727
0.6979817 0.7018335 0.7119727
0.6980018 0.7018398 0.7119727
0.6980974 0.7018700 0.7119727
0.6984692 0.7019877 0.7119727
0.6997627 0.7023990 0.7119727
0.7036578 0.7036578 0.7119727
0.7119727 0.7064466 0.7119727
0.7061660 0.7119727 0.7119727
0.7061667 0.7119727 0.7119727
0.7061727 0.7119727 0.7119727
0.7062013 0.7119727 0.7119727
0.7063137 0.7119727 0.7119727
0.7067184 0.7119727 0.7119727
0.7080801 0.7119727 0.7119727
0.7119727 0.7119727 0.7119727
