LUTs/guard_rail_high_side.cube
TITLE "High Side Attenuation for Guard Rail"
# High Side Attenuation for Guard Rail
# This LUT assumes input and output to be encoded in ST2084 (15)
# LUT resolution 50
LUT_3D_SIZE 5
DOMAIN_MIN 0.000000 0.000000 0.000000
DOMAIN_MAX 0.816327 0.816327 0.816327
0.0000007 0.0000007 0.0000007
0.2040816 0.0000007 0.0000007
0.4081633 0.0000007 0.0000007
0.6122449 0.0000007 0.0000007
0.7119727 0.6081434 0.6081434
0.0000007 0.2040816 0.0000007
0.2040816 0.2040816 0.0000007
0.4081633 0.2040816 0.0000007
0.6122449 0.2040816 0.0000007
0.7119727 0.6086013 0.6083548
0.0000007 0.4081633 0.0000007
0.2040816 0.4081633 0.0000007
0.4081633 0.4081633 0.0000007
0.6122449 0.4081633 0.0000007
0.7119727 0.6141549 0.6109566
0.0000007 0.6122449 0.0000007
0.2040816 0.6122449 0.0000007
0.4081633 0.6122449 0.0000007
0.6122449 0.6122449 0.0000007
0.7119727 0.6444157 0.6263590
0.6531450 0.7119727 0.6531450
0.6532851 0.7119727 0.6531737
0.6550376 0.7119727 0.6535353
0.6665589 0.7119727 0.6560284
0.7119727 0.7119727 0.6680115
0.0000007 0.0000007 0.2040816
0.2040816 0.0000007 0.2040816
0.4081633 0.0000007 0.2040816
0.6122449 0.0000007 0.2040816
0.7119727 0.6081914 0.6084385
0.0000007 0.2040816 0.2040816
0.2040816 0.2040816 0.2040816
0.4081633 0.2040816 0.2040816
0.6122449 0.2040816 0.2040816
0.7119727 0.6086489 0.6086489
0.0000007 0.4081633 0.2040816
0.2040816 0.4081633 0.2040816
0.4081633 0.4081633 0.2040816
0.6122449 0.4081633 0.2040816
0.7119727 0.6141980 0.6112387
0.0000007 0.6122449 0.2040816
0.2040816 0.6122449 0.2040816
0.4081633 0.6122449 0.2040816
0.6122449 0.6122449 0.2040816
0.7119727 0.6444387 0.6265764
0.6531596 0.7119727 0.6532711
0.6532997 0.7119727 0.6532997
0.6550516 0.7119727 0.6536603
0.6665691 0.7119727 0.6561462
0.7119727 0.7119727 0.6680971
0.0000007 0.0000007 0.4081633
0.2040816 0.0000007 0.4081633
0.4081633 0.0000007 0.4081633
0.6122449 0.0000007 0.4081633
0.7119727 0.6087960 0.6120983
0.0000007 0.2040816 0.4081633
0.2040816 0.2040816 0.4081633
0.4081633 0.2040816 0.4081633
0.6122449 0.2040816 0.4081633
0.7119727 0.6092486 0.6122967
0.0000007 0.4081633 0.4081633
0.2040816 0.4081633 0.4081633
0.4081633 0.4081633 0.4081633
0.6122449 0.4081633 0.4081633
0.7119727 0.6147410 0.6147410
0.0000007 0.6122449 0.4081633
0.2040816 0.6122449 0.4081633
0.4081633 0.6122449 0.4081633
0.6122449 0.6122449 0.4081633
0.7119727 0.6447285 0.6292859
0.6533449 0.7119727 0.6548535
0.6534844 0.7119727 0.6548810
0.6552283 0.7119727 0.6552283
0.6666981 0.7119727 0.6576243
0.7119727 0.7119727 0.6691742
0.0000007 0.0000007 0.6122449
0.2040816 0.0000007 0.6122449
0.4081633 0.0000007 0.6122449
0.6122449 0.0000007 0.6122449
0.7119727 0.6129659 0.6349358
0.0000007 0.2040816 0.6122449
0.2040816 0.2040816 0.6122449
0.4081633 0.2040816 0.6122449
0.6122449 0.2040816 0.6122449
0.7119727 0.6133861 0.6350685
0.0000007 0.4081633 0.6122449
0.2040816 0.4081633 0.6122449
0.4081633 0.4081633 0.6122449
0.6122449 0.4081633 0.6122449
0.7119727 0.6184965 0.6367112
0.0000007 0.6122449 0.6122449
0.2040816 0.6122449 0.6122449
0.4081633 0.6122449 0.6122449
0.6122449 0.6122449 0.6122449
0.7119727 0.6467565 0.6467565
0.6546541 0.7119727 0.6655005
0.6547891 0.7119727 0.6655215
0.6564779 0.7119727 0.6657853
0.6676120 0.7119727 0.6676120
0.7119727 0.7119727 0.6765765
0.5593423 0.5593423 0.7119727
0.5600356 0.5595635 0.7119727
0.5683892 0.5623045 0.7119727
0.6126537 0.5792700 0.7119727
0.7119727 0.6331085 0.7119727
0.5598393 0.5603098 0.7119727
0.5605281 0.5605281 0.7119727
0.5688298 0.5632335 0.7119727
0.6128803 0.5799985 0.7119727
0.7119727 0.6333916 0.7119727
0.5658303 0.5716626 0.7119727
0.5664666 0.5718486 0.7119727
0.5741593 0.5741593 0.7119727
0.6156592 0.5886757 0.7119727
0.7119727 0.6368706 0.7119727
0.5973592 0.6243270 0.7119727
0.5977640 0.6244043 0.7119727
0.6027319 0.6253720 0.7119727
0.6317737 0.6317737 0.7119727
0.7119727 0.6572924 0.7119727
0.6618246 0.7119727 0.7119727
0.6619364 0.7119727 0.7119727
0.6633376 0.7119727 0.7119727
0.6726964 0.7119727 0.7119727
0.7119727 0.7119727 0.7119727
