LUTs/guard_rail_srgb.cube
TITLE "Guard Rail sRGB"
# Guard Rail Formation for sRGB medium.
# The Guard Rail is designed to leaves valid value as-is, and only touch out of domain valuesModified from python script shared by Sakari Kapanen
# This LUT assumes input and output to be E Gamut encoded in Log2 (-10 stop to +15 stop)
# LUT resolution 45
LUT_3D_SIZE 5
-0.0000000 0.0000000 -0.0000000
0.2472130 0.1336636 0.1336636
0.4725769 0.4138129 0.4138129
0.4986168 0.4982393 0.4982393
0.4989554 0.4989533 0.4989533
0.2121419 0.2636898 0.2121419
0.2591418 0.2591418 0.1827724
0.4725411 0.4139206 0.4125692
0.4986168 0.4982393 0.4982392
0.4989554 0.4989533 0.4989533
0.4653195 0.4915241 0.4653195
0.4649234 0.4914121 0.4644801
0.4931442 0.4931442 0.4537653
0.4986166 0.4982400 0.4982350
0.4989554 0.4989533 0.4989533
0.4987785 0.4989084 0.4987785
0.4987785 0.4989084 0.4987785
0.4987764 0.4989076 0.4987747
0.4989234 0.4989234 0.4987650
0.4989554 0.4989533 0.4989532
0.4989563 0.4989570 0.4989563
0.4989563 0.4989570 0.4989563
0.4989563 0.4989570 0.4989563
0.4989562 0.4989570 0.4989562
0.4989571 0.4989571 0.4989562
0.1252709 0.1252709 0.2253718
0.2491310 0.1743369 0.2491310
0.4726818 0.4141106 0.4154124
0.4986169 0.4982393 0.4982394
0.4989554 0.4989533 0.4989533
0.2251174 0.2679943 0.2679943
0.2500000 0.2500000 0.2500000
0.4726465 0.4142165 0.4142165
0.4986169 0.4982393 0.4982393
0.4989554 0.4989533 0.4989533
0.4654149 0.4915832 0.4658427
0.4650206 0.4914723 0.4650206
0.4930945 0.4930945 0.4532060
0.4986167 0.4982401 0.4982351
0.4989554 0.4989533 0.4989533
0.4987786 0.4989084 0.4987786
0.4987785 0.4989084 0.4987785
0.4987764 0.4989076 0.4987747
0.4989234 0.4989234 0.4987650
0.4989554 0.4989533 0.4989532
0.4989563 0.4989570 0.4989563
0.4989563 0.4989570 0.4989563
0.4989563 0.4989570 0.4989563
0.4989562 0.4989570 0.4989562
0.4989571 0.4989571 0.4989562
0.3727792 0.3727792 0.4728801
0.3775166 0.3741559 0.4738194
0.4801322 0.4331982 0.4801322
0.4986191 0.4982429 0.4982479
0.4989554 0.4989533 0.4989533
0.3771652 0.3804234 0.4753207
0.3752709 0.3752709 0.4753718
0.4801409 0.4332464 0.4801409
0.4986191 0.4982430 0.4982478
0.4989554 0.4989533 0.4989533
0.4722175 0.4958855 0.4958855
0.4719535 0.4958611 0.4958611
0.4989572 0.4989572 0.4989572
0.4986189 0.4982437 0.4982437
0.4989554 0.4989533 0.4989533
0.4987791 0.4989088 0.4987808
0.4987791 0.4989088 0.4987808
0.4987770 0.4989080 0.4987770
0.4989231 0.4989231 0.4987632
0.4989554 0.4989533 0.4989532
0.4989563 0.4989570 0.4989563
0.4989563 0.4989570 0.4989563
0.4989563 0.4989570 0.4989563
0.4989562 0.4989570 0.4989562
0.4989571 0.4989571 0.4989562
0.4965322 0.4965322 0.4983215
0.4965324 0.4965321 0.4983215
0.4966586 0.4966357 0.4983503
0.4987539 0.4984593 0.4987539
0.4989554 0.4989533 0.4989533
0.4965364 0.4965367 0.4983226
0.4965338 0.4965338 0.4983219
0.4966585 0.4966359 0.4983503
0.4987539 0.4984593 0.4987539
0.4989554 0.4989533 0.4989533
0.4968216 0.4968427 0.4983999
0.4968196 0.4968404 0.4983993
0.4966538 0.4966538 0.4983529
0.4987541 0.4984597 0.4987541
0.4989554 0.4989533 0.4989533
0.4988197 0.4989380 0.4989380
0.4988197 0.4989380 0.4989380
0.4988184 0.4989379 0.4989379
0.4989572 0.4989572 0.4989572
0.4989554 0.4989533 0.4989533
0.4989563 0.4989570 0.4989563
0.4989563 0.4989570 0.4989563
0.4989563 0.4989570 0.4989563
0.4989563 0.4989570 0.4989563
0.4989571 0.4989571 0.4989562
0.4989436 0.4989436 0.4989536
0.4989436 0.4989436 0.4989536
0.4989436 0.4989436 0.4989536
0.4989443 0.4989442 0.4989538
0.4989561 0.4989545 0.4989561
0.4989436 0.4989436 0.4989536
0.4989436 0.4989436 0.4989536
0.4989436 0.4989436 0.4989536
0.4989443 0.4989442 0.4989538
0.4989561 0.4989545 0.4989561
0.4989436 0.4989436 0.4989536
0.4989436 0.4989436 0.4989536
0.4989436 0.4989436 0.4989536
0.4989443 0.4989442 0.4989538
0.4989561 0.4989545 0.4989561
0.4989452 0.4989454 0.4989541
0.4989452 0.4989454 0.4989541
0.4989452 0.4989453 0.4989541
0.4989443 0.4989443 0.4989538
0.4989561 0.4989545 0.4989561
0.4989565 0.4989571 0.4989571
0.4989565 0.4989571 0.4989571
0.4989565 0.4989571 0.4989571
0.4989565 0.4989571 0.4989571
0.4989572 0.4989572 0.4989572
