LUTs/guard_rail_bt2020.cube
TITLE "Guard Rail BT.2020"
# Guard Rail Formation for ITU-R BT.2020 medium.
# The Guard Rail is designed to leaves valid value as-is, and only touch out of domain valuesModified from python script shared by Sakari Kapanen
# This LUT assumes input and output to be ST2084 (100)
# This LUT expects input primaries of ITU-R BT.2020
# LUT resolution is 33
LUT_3D_SIZE 5
0.0000007 0.0000007 0.0000007
0.2500000 0.0000007 0.0000009
0.5000000 0.0000007 0.0000010
0.5080784 0.4729180 0.4729180
0.5080784 0.5043401 0.5043401
0.0000009 0.2500000 0.0000007
0.2500000 0.2500000 0.0000007
0.5000000 0.2500000 0.0000007
0.5080784 0.4734749 0.4732593
0.5080784 0.5043463 0.5043443
0.0000007 0.5000000 0.0000007
0.2500000 0.5000000 0.0000007
0.5000000 0.5000000 0.0000007
0.5080784 0.4813501 0.4781594
0.5080784 0.5044490 0.5044147
0.4907955 0.5080784 0.4907955
0.4909302 0.5080784 0.4908322
0.4931050 0.5080784 0.4914285
0.5080784 0.5080784 0.4957777
0.5080784 0.5053127 0.5050067
0.5063996 0.5080784 0.5063996
0.5064008 0.5080784 0.5064000
0.5064219 0.5080784 0.5064064
0.5066285 0.5080784 0.5064692
0.5080784 0.5080784 0.5069127
0.0000009 0.0000007 0.2500000
0.2500000 0.0000007 0.2500000
0.5000000 0.0000007 0.2500000
0.5080784 0.4729960 0.4732135
0.5080784 0.5043410 0.5043430
0.0000010 0.2500000 0.2500000
0.2500000 0.2500000 0.2500000
0.5000000 0.2500000 0.2500000
0.5080784 0.4735508 0.4735508
0.5080784 0.5043472 0.5043472
0.0000007 0.5000000 0.2500000
0.2500000 0.5000000 0.2500000
0.5000000 0.5000000 0.2500000
0.5080784 0.4813996 0.4783962
0.5080784 0.5044499 0.5044175
0.4908143 0.5080784 0.4909124
0.4909487 0.5080784 0.4909487
0.4931205 0.5080784 0.4915401
0.5080784 0.5080784 0.4958555
0.5080784 0.5053133 0.5050090
0.5063998 0.5080784 0.5064006
0.5064010 0.5080784 0.5064010
0.5064221 0.5080784 0.5064074
0.5066287 0.5080784 0.5064702
0.5080784 0.5080784 0.5069134
0.0000011 0.0000007 0.5000000
0.2500000 0.0000007 0.5000000
0.5000000 0.0000007 0.5000000
0.5080784 0.4742629 0.4779310
0.5080784 0.5043572 0.5043922
0.0000011 0.2500000 0.5000000
0.2500000 0.2500000 0.5000000
0.5000000 0.2500000 0.5000000
0.5080784 0.4747845 0.4782073
0.5080784 0.5043634 0.5043963
0.0000011 0.5000000 0.5000000
0.2500000 0.5000000 0.5000000
0.5000000 0.5000000 0.5000000
0.5080784 0.4822097 0.4822097
0.5080784 0.5044654 0.5044654
0.4911246 0.5080784 0.4928339
0.4912559 0.5080784 0.4928653
0.4933776 0.5080784 0.4933776
0.5080784 0.5080784 0.4971434
0.5080784 0.5053232 0.5050470
0.5064030 0.5080784 0.5064186
0.5064043 0.5080784 0.5064190
0.5064253 0.5080784 0.5064253
0.5066314 0.5080784 0.5064874
0.5080784 0.5080784 0.5069252
0.4485432 0.4485432 0.5080784
0.4494008 0.4489870 0.5080784
0.4617633 0.4555773 0.5080784
0.5080784 0.4833677 0.5080784
0.5080784 0.5045154 0.5048711
0.4495329 0.4499417 0.5080784
0.4503666 0.4503666 0.5080784
0.4624186 0.4566925 0.5080784
0.5080784 0.4836805 0.5080784
0.5080784 0.5045212 0.5048746
0.4623055 0.4675396 0.5080784
0.4628626 0.4677636 0.5080784
0.4712033 0.4712033 0.5080784
0.5080784 0.4883350 0.5080784
0.5080784 0.5046160 0.5049320
0.4937577 0.5080784 0.5080784
0.4938630 0.5080784 0.5080784
0.4955762 0.5080784 0.5080784
0.5080784 0.5080784 0.5080784
0.5080784 0.5054201 0.5054201
0.5064359 0.5080784 0.5065985
0.5064371 0.5080784 0.5065988
0.5064576 0.5080784 0.5066044
0.5066586 0.5080784 0.5066586
0.5080784 0.5080784 0.5070438
0.5008910 0.5008910 0.5080784
0.5009018 0.5008980 0.5080784
0.5010812 0.5010139 0.5080784
0.5026267 0.5020151 0.5080784
0.5080784 0.5055870 0.5080784
0.5009067 0.5009105 0.5080784
0.5009175 0.5009175 0.5080784
0.5010962 0.5010328 0.5080784
0.5026367 0.5020295 0.5080784
0.5080784 0.5055902 0.5080784
0.5011618 0.5012277 0.5080784
0.5011720 0.5012341 0.5080784
0.5013404 0.5013404 0.5080784
0.5028005 0.5022646 0.5080784
0.5080784 0.5056433 0.5080784
0.5030075 0.5035169 0.5080784
0.5030136 0.5035200 0.5080784
0.5031162 0.5035720 0.5080784
0.5040433 0.5040433 0.5080784
0.5080784 0.5061178 0.5080784
0.5067077 0.5080784 0.5080784
0.5067086 0.5080784 0.5080784
0.5067249 0.5080784 0.5080784
0.5068854 0.5080784 0.5080784
0.5080784 0.5080784 0.5080784
