LUTs/guard_rail_srgb.cube
TITLE "Guard Rail sRGB"
# Guard Rail Formation for sRGB medium.
# The Guard Rail is designed to leaves valid value as-is, and only touch out of domain valuesModified from python script shared by Sakari Kapanen
# This LUT assumes input and output to be E Gamut encoded in Log2 (-10 stop to +15 stop)
# LUT resolution 45
LUT_3D_SIZE 45
-0.0000000 0.0000000 -0.0000000
0.0227273 0.0000000 -0.0000000
0.0454545 0.0000000 -0.0000000
0.0681818 0.0000000 -0.0000000
0.0909091 0.0000000 -0.0000000
0.1136318 0.0000824 0.0000824
0.1353746 0.0218252 0.0218252
0.1574282 0.0438788 0.0438788
0.1796966 0.0661472 0.0661472
0.2021123 0.0885629 0.0885629
0.2246285 0.1110791 0.1110791
0.2472130 0.1336636 0.1336636
0.2698437 0.1562943 0.1562943
0.2925058 0.1789564 0.1789564
0.3151891 0.2016397 0.2016397
0.3378866 0.2243372 0.2243372
0.3605939 0.2470445 0.2470445
0.3833076 0.2697582 0.2697582
0.4060258 0.2924764 0.2924764
0.4287469 0.3151975 0.3151975
0.4514700 0.3379206 0.3379206
0.4674259 0.3741595 0.3741595
0.4725769 0.4138129 0.4138129
0.4780245 0.4400697 0.4400697
0.4832114 0.4587253 0.4587253
0.4876779 0.4719975 0.4719975
0.4911999 0.4812353 0.4812353
0.4937867 0.4874935 0.4874935
0.4955880 0.4916312 0.4916312
0.4967957 0.4943155 0.4943155
0.4975848 0.4960332 0.4960332
0.4980917 0.4971223 0.4971223
0.4984137 0.4978086 0.4978086
0.4986168 0.4982393 0.4982393
0.4987444 0.4985089 0.4985089
0.4988243 0.4986775 0.4986775
0.4988743 0.4987827 0.4987827
0.4989055 0.4988484 0.4988484
0.4989250 0.4988894 0.4988894
0.4989371 0.4989149 0.4989149
0.4989447 0.4989309 0.4989309
0.4989494 0.4989408 0.4989408
0.4989524 0.4989470 0.4989470
0.4989542 0.4989509 0.4989509
0.4989554 0.4989533 0.4989533
-0.0000000 0.0227273 -0.0000000
0.0227273 0.0227273 -0.0000000
0.0454545 0.0227273 -0.0000000
0.0681818 0.0227273 -0.0000000
0.0909091 0.0227273 -0.0000000
0.1136364 0.0227273 -0.0000000
0.1358843 0.0323795 0.0146425
0.1579842 0.0477275 0.0352271
0.1801929 0.0651752 0.0564791
0.2024408 0.0879280 0.0823979
0.2248473 0.1106599 0.1070675
0.2473593 0.1333848 0.1310204
0.2699419 0.1561080 0.1545389
0.2925718 0.1788316 0.1777845
0.3152335 0.2015558 0.2008546
0.3379165 0.2242808 0.2238102
0.3606140 0.2470065 0.2466901
0.3833212 0.2697326 0.2695197
0.4060349 0.2924591 0.2923157
0.4287531 0.3151859 0.3150892
0.4514742 0.3379128 0.3378476
0.4674255 0.3741615 0.3741327
0.4725767 0.4138136 0.4138051
0.4780243 0.4400700 0.4400670
0.4832114 0.4587255 0.4587243
0.4876779 0.4719976 0.4719971
0.4911999 0.4812353 0.4812351
0.4937867 0.4874935 0.4874934
0.4955880 0.4916312 0.4916312
0.4967957 0.4943155 0.4943154
0.4975848 0.4960332 0.4960332
0.4980917 0.4971223 0.4971223
0.4984137 0.4978086 0.4978086
0.4986168 0.4982393 0.4982393
0.4987444 0.4985089 0.4985089
0.4988243 0.4986775 0.4986775
0.4988743 0.4987827 0.4987827
0.4989055 0.4988484 0.4988484
0.4989250 0.4988894 0.4988894
0.4989371 0.4989149 0.4989149
0.4989447 0.4989309 0.4989309
0.4989494 0.4989408 0.4989408
0.4989524 0.4989470 0.4989470
0.4989542 0.4989509 0.4989509
0.4989554 0.4989533 0.4989533
-0.0000000 0.0454545 0.0000000
0.0227273 0.0454545 0.0000000
0.0454545 0.0454545 0.0000000
0.0681818 0.0454545 0.0000000
0.0909091 0.0454545 0.0000000
0.1136397 0.0466787 0.0032755
0.1360740 0.0544938 0.0207756
0.1582836 0.0650534 0.0396229
0.1804884 0.0782264 0.0595408
0.2027736 0.0937063 0.0802735
0.2251579 0.1110955 0.1016058
0.2475802 0.1329571 0.1267519
0.2700892 0.1558255 0.1517857
0.2926704 0.1786436 0.1759809
0.3152996 0.2014302 0.1996614
0.3379610 0.2241967 0.2230156
0.3606439 0.2469500 0.2461587
0.3833414 0.2696946 0.2691634
0.4060485 0.2924335 0.2920763
0.4287622 0.3151686 0.3149282
0.4514803 0.3379012 0.3377392
0.4674248 0.3741645 0.3740931
0.4725764 0.4138147 0.4137935
0.4780242 0.4400704 0.4400629
0.4832113 0.4587256 0.4587228
0.4876779 0.4719976 0.4719965
0.4911999 0.4812354 0.4812349
0.4937867 0.4874935 0.4874933
0.4955880 0.4916312 0.4916311
0.4967957 0.4943155 0.4943154
0.4975848 0.4960332 0.4960332
0.4980917 0.4971223 0.4971223
0.4984137 0.4978086 0.4978086
0.4986168 0.4982393 0.4982393
0.4987444 0.4985089 0.4985089
0.4988243 0.4986775 0.4986775
0.4988743 0.4987827 0.4987827
0.4989055 0.4988484 0.4988484
0.4989250 0.4988894 0.4988894
0.4989371 0.4989149 0.4989149
0.4989447 0.4989309 0.4989309
0.4989494 0.4989408 0.4989408
0.4989524 0.4989470 0.4989470
0.4989542 0.4989509 0.4989509
0.4989554 0.4989533 0.4989533
0.0204989 0.0720468 0.0204989
0.0227273 0.0681818 0.0000000
0.0454545 0.0681818 0.0000000
0.0681818 0.0681818 0.0000000
0.0909932 0.0683831 0.0010085
0.1141337 0.0715459 0.0139267
0.1366075 0.0765266 0.0288589
0.1588009 0.0837209 0.0455944
0.1809401 0.0933684 0.0638523
0.2031380 0.1055065 0.0833294
0.2254358 0.1199767 0.1037412
0.2478359 0.1364786 0.1248446
0.2703114 0.1553920 0.1473278
0.2928183 0.1783585 0.1731490
0.3153985 0.2012411 0.1978241
0.3380273 0.2240705 0.2218076
0.3606885 0.2468655 0.2453576
0.3833713 0.2696380 0.2686291
0.4060687 0.2923955 0.2917187
0.4287758 0.3151430 0.3146882
0.4514895 0.3378839 0.3375779
0.4674238 0.3741690 0.3740341
0.4725759 0.4138162 0.4137763
0.4780240 0.4400710 0.4400569
0.4832112 0.4587259 0.4587205
0.4876779 0.4719978 0.4719956
0.4911999 0.4812354 0.4812345
0.4937867 0.4874935 0.4874932
0.4955880 0.4916312 0.4916311
0.4967957 0.4943155 0.4943154
0.4975848 0.4960332 0.4960332
0.4980917 0.4971223 0.4971223
0.4984137 0.4978086 0.4978086
0.4986168 0.4982393 0.4982393
0.4987444 0.4985089 0.4985089
0.4988243 0.4986775 0.4986775
0.4988743 0.4987827 0.4987827
0.4989055 0.4988484 0.4988484
0.4989250 0.4988894 0.4988894
0.4989371 0.4989149 0.4989149
0.4989447 0.4989309 0.4989309
0.4989494 0.4989408 0.4989408
0.4989524 0.4989470 0.4989470
0.4989542 0.4989509 0.4989509
0.4989554 0.4989533 0.4989533
0.0467586 0.0983064 0.0467586
0.0411732 0.0942891 0.0270104
0.0464841 0.0911739 0.0026760
0.0702346 0.0919188 0.0088147
0.0931844 0.0931844 0.0168149
0.1156028 0.0952659 0.0268902
0.1377054 0.0985402 0.0391271
0.1596700 0.1034258 0.0534647
0.1816319 0.1103135 0.0697100
0.2036763 0.1194859 0.0875823
0.2258419 0.1310552 0.1067678
0.2481335 0.1449433 0.1269657
0.2705368 0.1609126 0.1479158
0.2930303 0.1786297 0.1694096
0.3155468 0.2009542 0.1949370
0.3381264 0.2238807 0.2199469
0.3607549 0.2467391 0.2441395
0.3834159 0.2695534 0.2678235
0.4060986 0.2923387 0.2911824
0.4287960 0.3151049 0.3143297
0.4515031 0.3378583 0.3373375
0.4674223 0.3741756 0.3739466
0.4725751 0.4138184 0.4137508
0.4780236 0.4400719 0.4400479
0.4832111 0.4587263 0.4587171
0.4876778 0.4719979 0.4719943
0.4911998 0.4812355 0.4812340
0.4937867 0.4874936 0.4874930
0.4955880 0.4916312 0.4916310
0.4967957 0.4943155 0.4943154
0.4975848 0.4960332 0.4960332
0.4980917 0.4971223 0.4971223
0.4984137 0.4978086 0.4978086
0.4986168 0.4982393 0.4982393
0.4987444 0.4985089 0.4985089
0.4988243 0.4986775 0.4986775
0.4988743 0.4987827 0.4987827
0.4989055 0.4988484 0.4988484
0.4989250 0.4988894 0.4988894
0.4989371 0.4989149 0.4989149
0.4989447 0.4989309 0.4989309
0.4989494 0.4989408 0.4989408
0.4989524 0.4989470 0.4989470
0.4989542 0.4989509 0.4989509
0.4989554 0.4989533 0.4989533
0.0717517 0.1232996 0.0717517
0.0682543 0.1207144 0.0604900
0.0624574 0.1166900 0.0352198
0.0767350 0.1160653 0.0286800
0.0973836 0.1169700 0.0344428
0.1183922 0.1183922 0.0420228
0.1396423 0.1205947 0.0516610
0.1610776 0.1239162 0.0634764
0.1826848 0.1287440 0.0774356
0.2044688 0.1354579 0.0933623
0.2264323 0.1443557 0.1109806
0.2485654 0.1555869 0.1299723
0.2708469 0.1691194 0.1500272
0.2932493 0.1847555 0.1708746
0.3157450 0.2021868 0.1922959
0.3382750 0.2235926 0.2170216
0.3608540 0.2465487 0.2422628
0.3834823 0.2694267 0.2665985
0.4061432 0.2922540 0.2903738
0.4288260 0.3150481 0.3137921
0.4515233 0.3378201 0.3369784
0.4674201 0.3741854 0.3738165
0.4725740 0.4138217 0.4137129
0.4780231 0.4400733 0.4400347
0.4832108 0.4587269 0.4587121
0.4876777 0.4719982 0.4719923
0.4911998 0.4812356 0.4812332
0.4937867 0.4874936 0.4874926
0.4955880 0.4916313 0.4916309
0.4967957 0.4943155 0.4943153
0.4975848 0.4960332 0.4960332
0.4980917 0.4971223 0.4971223
0.4984137 0.4978086 0.4978085
0.4986168 0.4982393 0.4982393
0.4987444 0.4985089 0.4985089
0.4988243 0.4986775 0.4986775
0.4988743 0.4987827 0.4987827
0.4989055 0.4988484 0.4988484
0.4989250 0.4988894 0.4988894
0.4989371 0.4989149 0.4989149
0.4989447 0.4989309 0.4989309
0.4989494 0.4989408 0.4989408
0.4989524 0.4989470 0.4989470
0.4989542 0.4989509 0.4989509
0.4989554 0.4989533 0.4989533
0.0959586 0.1475064 0.0959586
0.0937049 0.1458158 0.0890517
0.0901311 0.1432262 0.0761839
0.0860273 0.1396043 0.0494349
0.1038390 0.1402480 0.0535043
0.1228443 0.1412328 0.0590419
0.1427343 0.1427343 0.0663648
0.1632654 0.1449980 0.0757301
0.1842667 0.1483413 0.0872769
0.2056295 0.1531318 0.1009908
0.2272860 0.1597398 0.1167082
0.2491884 0.1684693 0.1341580
0.2712954 0.1794901 0.1530203
0.2935675 0.1927978 0.1729794
0.3159679 0.2082199 0.1937578
0.3384644 0.2254653 0.2151303
0.3610028 0.2462598 0.2393111
0.3835816 0.2692359 0.2647108
0.4062097 0.2921272 0.2891440
0.4288706 0.3149634 0.3129814
0.4515533 0.3377633 0.3364398
0.4674169 0.3741999 0.3736228
0.4725724 0.4138267 0.4136567
0.4780223 0.4400753 0.4400151
0.4832105 0.4587278 0.4587047
0.4876775 0.4719986 0.4719894
0.4911997 0.4812358 0.4812320
0.4937867 0.4874937 0.4874922
0.4955880 0.4916313 0.4916307
0.4967957 0.4943155 0.4943152
0.4975848 0.4960332 0.4960331
0.4980917 0.4971223 0.4971223
0.4984137 0.4978086 0.4978085
0.4986168 0.4982393 0.4982393
0.4987444 0.4985089 0.4985089
0.4988243 0.4986775 0.4986775
0.4988743 0.4987827 0.4987827
0.4989055 0.4988484 0.4988484
0.4989250 0.4988894 0.4988894
0.4989371 0.4989149 0.4989149
0.4989447 0.4989309 0.4989309
0.4989494 0.4989408 0.4989408
0.4989524 0.4989470 0.4989470
0.4989542 0.4989509 0.4989509
0.4989554 0.4989533 0.4989533
0.1196627 0.1712106 0.1196627
0.1181863 0.1700934 0.1152667
0.1159024 0.1684006 0.1077872
0.1122754 0.1658081 0.0935995
0.1127165 0.1632688 0.0736450
0.1292723 0.1639513 0.0775996
0.1473196 0.1649803 0.0829962
0.1665257 0.1665257 0.0901563
0.1865997 0.1688233 0.0993464
0.2073159 0.1721772 0.1107187
0.2285132 0.1769430 0.1242715
0.2500808 0.1834840 0.1398502
0.2719393 0.1921068 0.1571877
0.2940268 0.2029930 0.1759634
0.3162914 0.2161552 0.1958581
0.3386899 0.2314377 0.2165901
0.3611867 0.2485607 0.2379298
0.3837305 0.2689465 0.2617412
0.4063090 0.2919362 0.2872489
0.4289371 0.3148364 0.3117484
0.4515979 0.3376785 0.3356278
0.4674121 0.3742215 0.3733338
0.4725700 0.4138340 0.4135730
0.4780212 0.4400783 0.4399859
0.4832100 0.4587291 0.4586937
0.4876773 0.4719992 0.4719851
0.4911997 0.4812360 0.4812303
0.4937866 0.4874938 0.4874915
0.4955880 0.4916313 0.4916304
0.4967957 0.4943155 0.4943151
0.4975848 0.4960332 0.4960331
0.4980917 0.4971223 0.4971222
0.4984137 0.4978086 0.4978085
0.4986168 0.4982393 0.4982393
0.4987444 0.4985089 0.4985089
0.4988243 0.4986775 0.4986775
0.4988743 0.4987827 0.4987827
0.4989055 0.4988484 0.4988484
0.4989250 0.4988894 0.4988894
0.4989371 0.4989149 0.4989149
0.4989447 0.4989309 0.4989309
0.4989494 0.4989408 0.4989408
0.4989524 0.4989470 0.4989470
0.4989542 0.4989509 0.4989509
0.4989554 0.4989533 0.4989533
0.1430397 0.1945875 0.1430397
0.1420626 0.1938442 0.1401817
0.1405736 0.1927260 0.1355607
0.1382689 0.1910318 0.1276476
0.1346050 0.1884374 0.1124305
0.1379193 0.1866282 0.0973485
0.1537289 0.1873335 0.1012298
0.1711868 0.1883885 0.1065358
0.1899598 0.1899598 0.1135904
0.2097373 0.1922772 0.1226662
0.2302645 0.1956368 0.1339237
0.2513500 0.2003860 0.1473697
0.2728565 0.2068836 0.1628561
0.2946843 0.2154372 0.1801184
0.3167578 0.2262357 0.1988359
0.3390170 0.2393025 0.2186875
0.3614139 0.2544927 0.2393882
0.3839108 0.2715346 0.2607058
0.4064581 0.2916464 0.2842671
0.4290364 0.3146452 0.3098483
0.4516644 0.3375515 0.3343927
0.4674049 0.3742535 0.3729014
0.4725664 0.4138449 0.4134486
0.4780195 0.4400827 0.4399425
0.4832093 0.4587310 0.4586774
0.4876770 0.4720000 0.4719787
0.4911995 0.4812364 0.4812277
0.4937866 0.4874940 0.4874904
0.4955880 0.4916314 0.4916299
0.4967957 0.4943156 0.4943149
0.4975848 0.4960333 0.4960330
0.4980917 0.4971223 0.4971222
0.4984137 0.4978086 0.4978085
0.4986168 0.4982393 0.4982393
0.4987444 0.4985089 0.4985089
0.4988243 0.4986775 0.4986775
0.4988743 0.4987827 0.4987827
0.4989055 0.4988484 0.4988484
0.4989250 0.4988894 0.4988894
0.4989371 0.4989149 0.4989149
0.4989447 0.4989309 0.4989309
0.4989494 0.4989408 0.4989408
0.4989524 0.4989470 0.4989470
0.4989542 0.4989509 0.4989509
0.4989554 0.4989533 0.4989533
0.1662010 0.2177489 0.1662010
0.1655502 0.2172521 0.1643189
0.1645678 0.2165083 0.1613675
0.1630701 0.2153894 0.1565833
0.1607512 0.2136942 0.1483528
0.1570621 0.2110985 0.1323653
0.1622377 0.2097815 0.1207240
0.1775829 0.2105007 0.1245574
0.1946662 0.2115717 0.1298042
0.2131589 0.2131589 0.1367895
0.2327415 0.2154884 0.1457899
0.2531428 0.2188511 0.1569712
0.2741529 0.2235893 0.1703461
0.2956177 0.2300584 0.1857707
0.3174243 0.2385665 0.2029826
0.3394881 0.2493071 0.2216611
0.3617434 0.2623108 0.2414835
0.3841391 0.2774397 0.2621632
0.4066359 0.2944274 0.2834659
0.4291855 0.3143552 0.3068581
0.4517638 0.3373602 0.3324891
0.4673942 0.3743011 0.3722515
0.4725610 0.4138610 0.4132630
0.4780170 0.4400893 0.4398781
0.4832082 0.4587339 0.4586531
0.4876766 0.4720013 0.4719691
0.4911993 0.4812370 0.4812239
0.4937865 0.4874942 0.4874888
0.4955879 0.4916315 0.4916293
0.4967957 0.4943156 0.4943147
0.4975848 0.4960333 0.4960329
0.4980917 0.4971223 0.4971222
0.4984137 0.4978086 0.4978085
0.4986168 0.4982393 0.4982393
0.4987444 0.4985089 0.4985089
0.4988243 0.4986775 0.4986775
0.4988743 0.4987827 0.4987827
0.4989055 0.4988484 0.4988484
0.4989250 0.4988894 0.4988894
0.4989371 0.4989149 0.4989149
0.4989447 0.4989309 0.4989309
0.4989494 0.4989408 0.4989408
0.4989524 0.4989470 0.4989470
0.4989542 0.4989509 0.4989509
0.4989554 0.4989533 0.4989533
0.1892193 0.2407671 0.1892193
0.1887839 0.2404340 0.1879695
0.1881308 0.2399370 0.1860473
0.1871446 0.2391929 0.1830300
0.1856411 0.2380736 0.1781302
0.1833125 0.2363777 0.1696730
0.1796062 0.2337812 0.1531261
0.1860052 0.2327958 0.1438838
0.2010532 0.2335239 0.1476859
0.2178936 0.2346050 0.1528934
0.2362023 0.2362023 0.1598329
0.2556556 0.2385394 0.1687831
0.2759727 0.2419039 0.1799137
0.2969320 0.2466346 0.1932410
0.3183684 0.2530848 0.2086241
0.3401605 0.2615629 0.2258022
0.3622176 0.2722650 0.2444543
0.3844701 0.2852266 0.2642572
0.4068650 0.3003146 0.2849226
0.4293618 0.3172660 0.3062153
0.4519129 0.3370701 0.3294933
0.4673783 0.3743718 0.3712680
0.4725531 0.4138850 0.4129856
0.4780133 0.4400991 0.4397821
0.4832065 0.4587381 0.4586171
0.4876759 0.4720032 0.4719550
0.4911991 0.4812378 0.4812182
0.4937864 0.4874946 0.4874865
0.4955879 0.4916317 0.4916283
0.4967957 0.4943157 0.4943143
0.4975848 0.4960333 0.4960327
0.4980917 0.4971223 0.4971221
0.4984137 0.4978086 0.4978085
0.4986168 0.4982393 0.4982393
0.4987444 0.4985089 0.4985089
0.4988243 0.4986775 0.4986775
0.4988743 0.4987827 0.4987827
0.4989055 0.4988484 0.4988484
0.4989250 0.4988894 0.4988894
0.4989371 0.4989149 0.4989149
0.4989447 0.4989309 0.4989309
0.4989494 0.4989408 0.4989408
0.4989524 0.4989470 0.4989470
0.4989542 0.4989509 0.4989509
0.4989554 0.4989533 0.4989533
0.2121419 0.2636898 0.2121419
0.2118500 0.2634661 0.2113077
0.2114136 0.2631329 0.2100405
0.2107588 0.2626358 0.2080904
0.2097701 0.2618914 0.2050272
0.2082627 0.2607718 0.2000467
0.2059274 0.2590754 0.1914305
0.2022094 0.2564784 0.1744864
0.2094198 0.2557166 0.1669008
0.2242743 0.2564503 0.1706820
0.2409550 0.2575379 0.1758635
0.2591418 0.2591418 0.1827724
0.2785090 0.2614838 0.1916891
0.2987695 0.2648494 0.2027857
0.3196945 0.2695751 0.2160811
0.3411118 0.2760127 0.2314364
0.3628940 0.2844707 0.2485916
0.3849464 0.2951472 0.2672261
0.4071971 0.3080806 0.2870157
0.4295914 0.3231412 0.3076716
0.4520881 0.3400682 0.3289575
0.4673544 0.3744771 0.3697639
0.4725411 0.4139206 0.4125692
0.4780077 0.4401136 0.4396389
0.4832041 0.4587444 0.4585634
0.4876749 0.4720060 0.4719340
0.4911986 0.4812390 0.4812098
0.4937862 0.4874951 0.4874831
0.4955878 0.4916319 0.4916269
0.4967956 0.4943158 0.4943137
0.4975848 0.4960333 0.4960325
0.4980916 0.4971224 0.4971220
0.4984137 0.4978086 0.4978084
0.4986168 0.4982393 0.4982392
0.4987444 0.4985089 0.4985089
0.4988243 0.4986775 0.4986775
0.4988743 0.4987827 0.4987827
0.4989055 0.4988484 0.4988484
0.4989250 0.4988894 0.4988894
0.4989371 0.4989149 0.4989149
0.4989447 0.4989309 0.4989309
0.4989494 0.4989408 0.4989408
0.4989524 0.4989470 0.4989470
0.4989542 0.4989509 0.4989509
0.4989554 0.4989533 0.4989533
0.2350006 0.2865485 0.2350006
0.2348044 0.2863980 0.2344419
0.2345120 0.2861742 0.2335999
0.2340749 0.2858410 0.2323206
0.2334190 0.2853438 0.2303514
0.2324287 0.2845993 0.2272566
0.2309185 0.2834794 0.2222203
0.2285788 0.2817828 0.2134939
0.2248529 0.2791854 0.1962723
0.2326045 0.2785742 0.1898226
0.2473313 0.2793117 0.1935898
0.2639061 0.2804036 0.1987539
0.2820118 0.2820118 0.2056424
0.3013213 0.2843570 0.2145366
0.3215438 0.2877233 0.2256104
0.3424458 0.2924456 0.2388844
0.3638500 0.2988747 0.2542209
0.3856255 0.3073193 0.2713608
0.4076748 0.3179786 0.2899833
0.4299242 0.3308931 0.3097640
0.4523181 0.3459353 0.3304135
0.4675252 0.3767579 0.3698627
0.4725233 0.4139737 0.4119403
0.4779994 0.4401351 0.4394246
0.4832005 0.4587538 0.4584834
0.4876733 0.4720101 0.4719028
0.4911980 0.4812409 0.4811973
0.4937860 0.4874959 0.4874780
0.4955877 0.4916323 0.4916248
0.4967956 0.4943159 0.4943128
0.4975847 0.4960334 0.4960321
0.4980916 0.4971224 0.4971218
0.4984137 0.4978086 0.4978084
0.4986168 0.4982393 0.4982392
0.4987444 0.4985090 0.4985089
0.4988243 0.4986775 0.4986775
0.4988743 0.4987827 0.4987827
0.4989055 0.4988484 0.4988484
0.4989250 0.4988894 0.4988894
0.4989371 0.4989149 0.4989149
0.4989447 0.4989309 0.4989309
0.4989494 0.4989408 0.4989408
0.4989524 0.4989470 0.4989470
0.4989542 0.4989509 0.4989509
0.4989554 0.4989533 0.4989533
0.2578164 0.3093642 0.2578164
0.2576844 0.3092629 0.2574413
0.2574880 0.3091124 0.2568790
0.2571952 0.3088886 0.2560318
0.2567576 0.3085554 0.2547442
0.2561010 0.3080581 0.2527619
0.2551095 0.3073135 0.2496454
0.2535976 0.3061935 0.2445709
0.2512548 0.3044967 0.2357688
0.2475235 0.3018990 0.2183555
0.2556375 0.3013894 0.2126807
0.2702796 0.3021294 0.2164385
0.2867838 0.3032241 0.2215910
0.3048351 0.3048351 0.2284657
0.3241059 0.3071824 0.2373449
0.3443029 0.3105491 0.2484033
0.3651893 0.3152691 0.2616628
0.3865847 0.3216926 0.2769868
0.4083557 0.3301282 0.2941163
0.4304028 0.3407760 0.3127308
0.4526514 0.3536778 0.3325055
0.4678827 0.3809856 0.3711983
0.4727289 0.4153813 0.4124031
0.4779870 0.4401672 0.4391023
0.4831950 0.4587677 0.4583638
0.4876711 0.4720163 0.4718562
0.4911971 0.4812436 0.4811786
0.4937856 0.4874971 0.4874704
0.4955876 0.4916328 0.4916217
0.4967955 0.4943161 0.4943115
0.4975847 0.4960335 0.4960316
0.4980916 0.4971224 0.4971216
0.4984137 0.4978086 0.4978083
0.4986168 0.4982393 0.4982392
0.4987444 0.4985090 0.4985089
0.4988243 0.4986775 0.4986775
0.4988743 0.4987827 0.4987827
0.4989055 0.4988484 0.4988484
0.4989250 0.4988894 0.4988894
0.4989371 0.4989149 0.4989149
0.4989447 0.4989309 0.4989309
0.4989494 0.4989408 0.4989408
0.4989524 0.4989470 0.4989470
0.4989542 0.4989509 0.4989509
0.4989554 0.4989533 0.4989533
0.2806032 0.3321511 0.2806032
0.2805144 0.3320828 0.2803510
0.2803823 0.3319815 0.2799744
0.2801857 0.3318310 0.2794098
0.2798927 0.3316072 0.2785589
0.2794549 0.3312739 0.2772657
0.2787977 0.3307766 0.2752745
0.2778055 0.3300319 0.2721432
0.2762923 0.3289118 0.2670427
0.2739475 0.3272149 0.2581889
0.2702126 0.3246170 0.2406441
0.2785698 0.3241760 0.2354960
0.2931552 0.3249176 0.2392475
0.3096122 0.3260142 0.2443922
0.3276271 0.3276271 0.2512577
0.3468718 0.3299758 0.2601267
0.3670517 0.3333428 0.2711748
0.3879275 0.3380613 0.2844246
0.4093170 0.3444809 0.2997401
0.4310850 0.3529104 0.3168626
0.4531306 0.3635504 0.3354717
0.4684072 0.3867276 0.3730845
0.4731427 0.4180101 0.4137428
0.4782026 0.4411540 0.4395942
0.4831869 0.4587884 0.4581844
0.4876676 0.4720254 0.4717866
0.4911957 0.4812476 0.4811508
0.4937850 0.4874989 0.4874591
0.4955873 0.4916335 0.4916170
0.4967954 0.4943165 0.4943096
0.4975847 0.4960336 0.4960308
0.4980916 0.4971225 0.4971213
0.4984137 0.4978086 0.4978081
0.4986168 0.4982393 0.4982391
0.4987444 0.4985090 0.4985089
0.4988243 0.4986775 0.4986775
0.4988743 0.4987827 0.4987827
0.4989055 0.4988484 0.4988484
0.4989250 0.4988894 0.4988894
0.4989371 0.4989149 0.4989149
0.4989447 0.4989309 0.4989309
0.4989494 0.4989408 0.4989408
0.4989524 0.4989470 0.4989470
0.4989542 0.4989509 0.4989509
0.4989554 0.4989533 0.4989533
0.3033707 0.3549185 0.3033707
0.3033108 0.3548725 0.3032009
0.3032219 0.3548043 0.3029480
0.3030897 0.3547030 0.3025703
0.3028931 0.3545525 0.3020041
0.3025999 0.3543286 0.3011508
0.3021618 0.3539953 0.2998538
0.3015044 0.3534979 0.2978565
0.3005116 0.3527532 0.2947152
0.2989976 0.3516331 0.2895970
0.2966514 0.3499360 0.2807080
0.2929140 0.3473381 0.2630735
0.3014347 0.3469432 0.2582825
0.3159823 0.3476859 0.2620299
0.3324075 0.3487838 0.2671692
0.3503979 0.3503979 0.2740285
0.3696252 0.3527476 0.2828907
0.3897935 0.3561148 0.2939319
0.4106622 0.3608322 0.3071752
0.4320477 0.3672493 0.3224849
0.4538136 0.3756747 0.3396028
0.4691737 0.3943019 0.3756913
0.4737435 0.4216605 0.4156375
0.4786256 0.4429933 0.4407508
0.4833868 0.4594946 0.4586100
0.4876625 0.4720390 0.4716824
0.4911936 0.4812536 0.4811094
0.4937842 0.4875015 0.4874423
0.4955870 0.4916347 0.4916101
0.4967953 0.4943169 0.4943067
0.4975846 0.4960338 0.4960296
0.4980916 0.4971226 0.4971208
0.4984137 0.4978087 0.4978079
0.4986168 0.4982393 0.4982390
0.4987444 0.4985090 0.4985088
0.4988243 0.4986775 0.4986774
0.4988743 0.4987827 0.4987827
0.4989055 0.4988484 0.4988484
0.4989250 0.4988894 0.4988894
0.4989371 0.4989149 0.4989149
0.4989447 0.4989309 0.4989309
0.4989494 0.4989408 0.4989408
0.4989524 0.4989470 0.4989470
0.4989542 0.4989509 0.4989509
0.4989554 0.4989533 0.4989533
0.3261250 0.3776728 0.3261250
0.3260847 0.3776419 0.3260107
0.3260248 0.3775959 0.3258406
0.3259358 0.3775276 0.3255872
0.3258036 0.3774263 0.3252088
0.3256069 0.3772758 0.3246415
0.3253137 0.3770520 0.3237865
0.3248754 0.3767186 0.3224870
0.3242178 0.3762212 0.3204856
0.3232246 0.3754765 0.3173375
0.3217100 0.3743563 0.3122073
0.3193629 0.3726592 0.3032944
0.3156239 0.3700611 0.2855990
0.3242546 0.3696974 0.2810497
0.3387767 0.3704409 0.2847943
0.3551807 0.3715396 0.2899301
0.3731546 0.3731546 0.2967852
0.3923701 0.3755049 0.3056428
0.4125305 0.3788722 0.3166793
0.4333945 0.3835889 0.3299181
0.4547773 0.3900043 0.3452240
0.4702871 0.4039639 0.3791855
0.4746081 0.4266055 0.4182638
0.4792331 0.4455602 0.4423800
0.4837719 0.4608056 0.4595319
0.4878291 0.4725366 0.4720144
0.4911905 0.4812625 0.4810473
0.4937829 0.4875054 0.4874172
0.4955865 0.4916363 0.4915998
0.4967951 0.4943177 0.4943025
0.4975845 0.4960342 0.4960278
0.4980916 0.4971227 0.4971200
0.4984136 0.4978087 0.4978076
0.4986168 0.4982394 0.4982389
0.4987444 0.4985090 0.4985088
0.4988243 0.4986775 0.4986774
0.4988743 0.4987827 0.4987827
0.4989055 0.4988484 0.4988484
0.4989250 0.4988894 0.4988894
0.4989371 0.4989149 0.4989149
0.4989447 0.4989309 0.4989309
0.4989494 0.4989408 0.4989408
0.4989524 0.4989470 0.4989470
0.4989542 0.4989509 0.4989509
0.4989554 0.4989533 0.4989533
0.3488705 0.4004184 0.3488705
0.3488433 0.4003975 0.3487935
0.3488030 0.4003665 0.3486790
0.3487431 0.4003205 0.3485087
0.3486541 0.4002522 0.3482550
0.3485219 0.4001509 0.3478761
0.3483251 0.4000004 0.3473081
0.3480318 0.3997766 0.3464520
0.3475935 0.3994432 0.3451507
0.3469356 0.3989458 0.3431465
0.3459422 0.3982011 0.3399938
0.3444273 0.3970808 0.3348555
0.3420795 0.3953837 0.3259265
0.3383394 0.3927856 0.3081897
0.3470442 0.3924429 0.3038039
0.3615492 0.3931868 0.3075465
0.3779388 0.3942862 0.3126800
0.3959017 0.3959017 0.3195323
0.4151092 0.3982524 0.3283868
0.4352644 0.4016197 0.3394201
0.4561251 0.4063360 0.3526560
0.4718938 0.4158614 0.3836717
0.4758365 0.4330998 0.4218058
