LUTs/guard_rail_p3.cube
TITLE "Guard Rail P3"
# Guard Rail Formation for P3 medium.
# The Guard Rail is designed to leaves valid value as-is, and only touch out of domain valuesModified from python script shared by Sakari Kapanen
# This LUT assumes input and output to be E Gamut encoded in Log2 (-10 stop to +15 stop)
# LUT resolution 40
LUT_3D_SIZE 40
-0.0000000 0.0000000 -0.0000000
0.0256410 0.0000000 -0.0000000
0.0512821 0.0000000 -0.0000000
0.0769231 0.0000000 -0.0000000
0.1025641 0.0000000 -0.0000000
0.1282051 0.0000000 -0.0000000
0.1533256 0.0124503 0.0124503
0.1782174 0.0373421 0.0373421
0.2033728 0.0624975 0.0624975
0.2287003 0.0878250 0.0878250
0.2541393 0.1132640 0.1132640
0.2796505 0.1387752 0.1387752
0.3052081 0.1643328 0.1643328
0.3307955 0.1899202 0.1899202
0.3564021 0.2155269 0.2155269
0.3820211 0.2411458 0.2411458
0.4076480 0.2667727 0.2667727
0.4332799 0.2924046 0.2924046
0.4589151 0.3180399 0.3180399
0.4804542 0.3633439 0.3633439
0.4925581 0.4159841 0.4159841
0.4955906 0.4423863 0.4423863
0.4985624 0.4609319 0.4609319
0.5013056 0.4745695 0.4745695
0.5037011 0.4847121 0.4847121
0.5056930 0.4922337 0.4922337
0.5072826 0.4977654 0.4977654
0.5085100 0.5017946 0.5017946
0.5094336 0.5047034 0.5047034
0.5101150 0.5067878 0.5067878
0.5106106 0.5082726 0.5082726
0.5109673 0.5093256 0.5093256
0.5112219 0.5100698 0.5100698
0.5114028 0.5105946 0.5105946
0.5115307 0.5109639 0.5109639
0.5116210 0.5112236 0.5112236
0.5116845 0.5114059 0.5114059
0.5117292 0.5115339 0.5115339
0.5117606 0.5116237 0.5116237
0.5117826 0.5116867 0.5116867
-0.0000000 0.0256410 -0.0000000
0.0256410 0.0256410 -0.0000000
0.0512821 0.0256410 -0.0000000
0.0769231 0.0256410 -0.0000000
0.1025641 0.0256410 -0.0000000
0.1282051 0.0256410 -0.0000000
0.1533603 0.0353670 0.0153188
0.1783574 0.0528202 0.0392713
0.2035126 0.0727840 0.0637734
0.2288109 0.0945820 0.0886596
0.2542190 0.1176668 0.1138062
0.2797052 0.1416282 0.1391257
0.3052447 0.1661748 0.1645587
0.3308196 0.1911067 0.1900656
0.3564179 0.2162898 0.2156203
0.3820313 0.2416360 0.2412058
0.4076546 0.2670874 0.2668112
0.4332842 0.2926066 0.2924294
0.4589179 0.3181694 0.3180557
0.4804565 0.3634016 0.3633556
0.4925595 0.4160034 0.4159911
0.4955915 0.4423946 0.4423903
0.4985630 0.4609358 0.4609341
0.5013060 0.4745713 0.4745706
0.5037013 0.4847130 0.4847127
0.5056931 0.4922342 0.4922340
0.5072827 0.4977655 0.4977655
0.5085101 0.5017947 0.5017946
0.5094336 0.5047035 0.5047035
0.5101150 0.5067878 0.5067878
0.5106106 0.5082726 0.5082726
0.5109673 0.5093256 0.5093256
0.5112219 0.5100698 0.5100698
0.5114028 0.5105946 0.5105946
0.5115307 0.5109639 0.5109639
0.5116210 0.5112236 0.5112236
0.5116845 0.5114059 0.5114059
0.5117292 0.5115339 0.5115339
0.5117606 0.5116237 0.5116237
0.5117826 0.5116867 0.5116867
-0.0000000 0.0512821 0.0000000
0.0256410 0.0512821 0.0000000
0.0512821 0.0512821 0.0000000
0.0769231 0.0512821 0.0000000
0.1025641 0.0512821 0.0000000
0.1282051 0.0512821 0.0000000
0.1534840 0.0590522 0.0195525
0.1785814 0.0708389 0.0421592
0.2037259 0.0858850 0.0657068
0.2289795 0.1037680 0.0899361
0.2543412 0.1239325 0.1146408
0.2797896 0.1458173 0.1396678
0.3053013 0.1689366 0.1649092
0.3308570 0.1929103 0.1902916
0.3564423 0.2174602 0.2157657
0.3820471 0.2423923 0.2412993
0.4076648 0.2675748 0.2668712
0.4332908 0.2929202 0.2924679
0.4589221 0.3183709 0.3180804
0.4804601 0.3634914 0.3633738
0.4925616 0.4160337 0.4160020
0.4955929 0.4424076 0.4423965
0.4985639 0.4609418 0.4609375
0.5013065 0.4745742 0.4745724
0.5037016 0.4847143 0.4847136
0.5056932 0.4922348 0.4922345
0.5072828 0.4977658 0.4977657
0.5085101 0.5017948 0.5017947
0.5094336 0.5047035 0.5047035
0.5101151 0.5067879 0.5067879
0.5106106 0.5082727 0.5082727
0.5109673 0.5093256 0.5093256
0.5112219 0.5100698 0.5100698
0.5114028 0.5105946 0.5105946
0.5115307 0.5109639 0.5109639
0.5116210 0.5112236 0.5112236
0.5116845 0.5114059 0.5114059
0.5117292 0.5115339 0.5115339
0.5117606 0.5116237 0.5116237
0.5117826 0.5116867 0.5116867
-0.0000000 0.0769231 0.0000000
0.0256410 0.0769231 0.0000000
0.0512821 0.0769231 0.0000000
0.0769231 0.0769231 0.0000000
0.1025641 0.0769231 0.0000000
0.1283220 0.0782362 0.0066714
0.1537910 0.0832526 0.0256309
0.1789412 0.0909811 0.0463973
0.2040493 0.1017808 0.0685951
0.2292341 0.1157108 0.0918690
0.2545268 0.1325339 0.1159168
0.2799187 0.1518054 0.1405021
0.3053885 0.1729998 0.1654511
0.3309148 0.1956168 0.1906420
0.3564801 0.2192401 0.2159916
0.3820717 0.2435526 0.2414447
0.4076807 0.2683269 0.2669647
0.4333010 0.2934058 0.2925279
0.4589287 0.3186837 0.3181189
0.4804656 0.3636312 0.3634022
0.4925648 0.4160808 0.4160191
0.4955952 0.4424279 0.4424063
0.4985653 0.4609512 0.4609428
0.5013074 0.4745786 0.4745752
0.5037020 0.4847165 0.4847150
0.5056935 0.4922358 0.4922352
0.5072829 0.4977663 0.4977660
0.5085102 0.5017950 0.5017949
0.5094336 0.5047036 0.5047036
0.5101151 0.5067879 0.5067879
0.5106106 0.5082727 0.5082727
0.5109673 0.5093256 0.5093256
0.5112219 0.5100698 0.5100698
0.5114028 0.5105946 0.5105946
0.5115307 0.5109639 0.5109639
0.5116210 0.5112236 0.5112236
0.5116845 0.5114059 0.5114059
0.5117292 0.5115339 0.5115339
0.5117606 0.5116237 0.5116237
0.5117826 0.5116867 0.5116867
0.0236249 0.1046532 0.0236249
0.0256410 0.1025641 0.0000000
0.0512821 0.1025641 0.0000000
0.0769231 0.1025641 0.0000000
0.1029969 0.1029969 0.0045128
0.1290405 0.1047419 0.0179779
0.1544314 0.1078072 0.0340421
0.1795182 0.1127735 0.0524486
0.2045350 0.1202026 0.0728236
0.2296135 0.1305069 0.0947536
0.2548055 0.1438420 0.1178482
0.2801145 0.1600715 0.1417775
0.3055219 0.1788231 0.1662852
0.3310038 0.1996033 0.1911838
0.3565387 0.2219123 0.2163420
0.3821099 0.2453176 0.2416706
0.4077055 0.2694809 0.2671100
0.4333170 0.2941552 0.2926213
0.4589390 0.3191683 0.3181789
0.4804743 0.3638486 0.3634465
0.4925699 0.4161541 0.4160458
0.4955987 0.4424595 0.4424215
0.4985675 0.4609659 0.4609511
0.5013087 0.4745856 0.4745795
0.5037028 0.4847198 0.4847172
0.5056938 0.4922374 0.4922363
0.5072831 0.4977671 0.4977666
0.5085102 0.5017954 0.5017951
0.5094337 0.5047038 0.5047037
0.5101151 0.5067880 0.5067879
0.5106107 0.5082727 0.5082727
0.5109673 0.5093256 0.5093256
0.5112219 0.5100699 0.5100698
0.5114028 0.5105946 0.5105946
0.5115307 0.5109639 0.5109639
0.5116210 0.5112236 0.5112236
0.5116845 0.5114059 0.5114059
0.5117292 0.5115339 0.5115339
0.5117606 0.5116237 0.5116237
0.5117826 0.5116867 0.5116867
0.0508705 0.1318988 0.0508705
0.0468338 0.1300189 0.0313306
0.0546207 0.1286101 0.0086489
0.0802744 0.1289680 0.0142568
0.1056190 0.1296000 0.0219919
0.1307115 0.1307115 0.0322275
0.1556205 0.1326227 0.0451666
0.1804364 0.1357791 0.0607854
0.2052592 0.1407188 0.0788468
0.2301712 0.1479869 0.0989720
0.2552181 0.1580157 0.1207292
0.2804080 0.1710093 0.1437075
0.3057241 0.1868884 0.1675601
0.3311399 0.2053258 0.1920176
0.3566288 0.2258512 0.2168837
0.3821689 0.2479683 0.2420209
0.4077438 0.2712364 0.2673359
0.4333418 0.2953052 0.2927667
0.4589550 0.3199160 0.3182724
0.4804878 0.3641859 0.3635154
0.4925779 0.4162683 0.4160872
0.4956041 0.4425087 0.4424451
0.4985710 0.4609888 0.4609640
0.5013107 0.4745965 0.4745863
0.5037039 0.4847250 0.4847206
0.5056944 0.4922398 0.4922380
0.5072834 0.4977682 0.4977674
0.5085104 0.5017959 0.5017955
0.5094337 0.5047040 0.5047039
0.5101151 0.5067881 0.5067880
0.5106107 0.5082728 0.5082727
0.5109673 0.5093257 0.5093256
0.5112219 0.5100699 0.5100699
0.5114028 0.5105946 0.5105946
0.5115307 0.5109639 0.5109639
0.5116210 0.5112236 0.5112236
0.5116845 0.5114059 0.5114059
0.5117292 0.5115339 0.5115339
0.5117606 0.5116237 0.5116237
0.5117826 0.5116867 0.5116867
0.0775175 0.1585458 0.0775175
0.0750610 0.1573623 0.0664919
0.0708440 0.1554843 0.0414041
0.0876230 0.1552766 0.0364633
0.1102845 0.1557094 0.0418164
0.1337197 0.1564332 0.0492496
0.1576441 0.1576441 0.0591600
0.1818781 0.1596427 0.0717844
0.2063328 0.1628477 0.0871293
0.2309806 0.1677713 0.1049738
0.2558188 0.1749464 0.1249396
0.2808409 0.1848132 0.1465856
0.3060267 0.1976021 0.1694891
0.3313461 0.2132677 0.1932922
0.3567666 0.2315110 0.2177174
0.3822598 0.2518773 0.2425626
0.4078031 0.2738735 0.2676862
0.4333803 0.2970547 0.2929926
0.4589799 0.3210634 0.3184177
0.4805089 0.3647080 0.3636226
0.4925903 0.4164458 0.4161518
0.4956126 0.4425854 0.4424820
0.4985764 0.4610244 0.4609841
0.5013139 0.4746134 0.4745968
0.5037057 0.4847330 0.4847260
0.5056954 0.4922436 0.4922406
0.5072839 0.4977700 0.4977687
0.5085106 0.5017967 0.5017961
0.5094339 0.5047044 0.5047042
0.5101152 0.5067883 0.5067882
0.5106107 0.5082728 0.5082728
0.5109673 0.5093257 0.5093257
0.5112219 0.5100699 0.5100699
0.5114028 0.5105946 0.5105946
0.5115307 0.5109639 0.5109639
0.5116210 0.5112236 0.5112236
0.5116845 0.5114059 0.5114059
0.5117292 0.5115339 0.5115339
0.5117606 0.5116237 0.5116237
0.5117826 0.5116867 0.5116867
0.1037945 0.1848228 0.1037945
0.1022679 0.1840729 0.0972152
0.0997473 0.1828897 0.0846002
0.0980408 0.1812914 0.0598295
0.1173975 0.1815832 0.0634429
0.1384967 0.1820572 0.0686466
0.1608622 0.1828319 0.0759003
0.1840983 0.1840983 0.0856143
0.2079192 0.1861464 0.0980453
0.2321456 0.1893789 0.1132191
0.2566795 0.1942925 0.1309264
0.2814677 0.2014115 0.1507904
0.3064721 0.2111797 0.1723651
0.3316544 0.2238428 0.1952204
0.3569753 0.2393759 0.2189917
0.3823987 0.2574977 0.2433962
0.4078944 0.2777636 0.2682279
0.4334398 0.2996832 0.2933429
0.4590185 0.3228091 0.3186436
0.4805417 0.3655130 0.3637893
0.4926096 0.4167215 0.4162524
0.4956259 0.4427047 0.4425395
0.4985848 0.4610799 0.4610154
0.5013188 0.4746398 0.4746133
0.5037084 0.4847456 0.4847343
0.5056968 0.4922496 0.4922447
0.5072846 0.4977728 0.4977707
0.5085110 0.5017980 0.5017971
0.5094340 0.5047050 0.5047046
0.5101153 0.5067885 0.5067884
0.5106107 0.5082730 0.5082729
0.5109673 0.5093258 0.5093257
0.5112219 0.5100699 0.5100699
0.5114028 0.5105946 0.5105946
0.5115307 0.5109639 0.5109639
0.5116210 0.5112236 0.5112236
0.5116845 0.5114059 0.5114059
0.5117292 0.5115339 0.5115339
0.5117606 0.5116237 0.5116237
0.5117826 0.5116867 0.5116867
0.1298397 0.2108680 0.1298397
0.1288794 0.2103908 0.1257975
0.1273286 0.2096409 0.1186790
0.1247655 0.2084581 0.1048123
0.1272934 0.2073437 0.0863777
0.1454934 0.2076534 0.0899215
0.1657045 0.2081513 0.0950345
0.1874377 0.2089558 0.1021782
0.2102549 0.2102549 0.1117709
0.2338185 0.2123322 0.1240811
0.2578999 0.2155810 0.1391471
0.2823600 0.2204882 0.1567672
0.3071154 0.2275725 0.1765661
0.3321077 0.2372796 0.1980951
0.3572873 0.2498642 0.2209195
0.3826090 0.2653140 0.2446703
0.4080340 0.2833590 0.2690614
0.4335314 0.3035612 0.2938845
0.4590781 0.3254321 0.3189939
0.4805927 0.3667464 0.3640478
0.4926397 0.4171485 0.4164086
0.4956465 0.4428901 0.4426289
0.4985978 0.4611662 0.4610642
0.5013266 0.4746809 0.4746389
0.5037127 0.4847652 0.4847474
0.5056991 0.4922589 0.4922512
0.5072857 0.4977771 0.4977738
0.5085115 0.5018001 0.5017986
0.5094343 0.5047060 0.5047053
0.5101154 0.5067890 0.5067887
0.5106108 0.5082732 0.5082730
0.5109673 0.5093258 0.5093258
0.5112220 0.5100699 0.5100699
0.5114028 0.5105946 0.5105946
0.5115307 0.5109639 0.5109639
0.5116210 0.5112236 0.5112236
0.5116845 0.5114059 0.5114059
0.5117292 0.5115339 0.5115339
0.5117606 0.5116237 0.5116237
0.5117826 0.5116867 0.5116867
0.1557384 0.2367667 0.1557384
0.1551300 0.2364622 0.1532135
0.1541603 0.2359850 0.1489731
0.1525937 0.2352352 0.1414658
0.1500027 0.2340525 0.1266718
0.1551070 0.2332499 0.1125906
0.1726374 0.2335704 0.1160915
0.1923192 0.2340827 0.1211482
0.2136669 0.2349052 0.1282234
0.2362241 0.2362241 0.1377401
0.2596257 0.2383192 0.1499742
0.2836147 0.2415778 0.1649717
0.3080273 0.2464810 0.1825362
0.3327612 0.2535436 0.2022935
0.3577456 0.2632123 0.2237932
0.3829232 0.2757474 0.2465977
0.4082453 0.2911445 0.2703354
0.4336714 0.3091407 0.2947180
0.4591699 0.3293024 0.3195355
0.4806720 0.3686190 0.3644476
0.4926866 0.4178074 0.4166510
0.4956787 0.4431776 0.4427678
0.4986182 0.4613004 0.4611400
0.5013386 0.4747448 0.4746787
0.5037194 0.4847957 0.4847676
0.5057026 0.4922733 0.4922612
0.5072875 0.4977839 0.4977786
0.5085124 0.5018032 0.5018009
0.5094347 0.5047074 0.5047064
0.5101156 0.5067896 0.5067892
0.5106109 0.5082735 0.5082733
0.5109674 0.5093260 0.5093259
0.5112220 0.5100700 0.5100700
0.5114028 0.5105947 0.5105946
0.5115307 0.5109640 0.5109639
0.5116210 0.5112236 0.5112236
0.5116845 0.5114059 0.5114059
0.5117292 0.5115339 0.5115339
0.5117606 0.5116237 0.5116237
0.5117826 0.5116867 0.5116867
0.1815441 0.2625724 0.1815441
0.1811569 0.2623777 0.1799513
0.1805448 0.2620732 0.1773502
0.1795690 0.2615960 0.1729734
0.1779921 0.2608462 0.1651962
0.1753829 0.2596637 0.1497461
0.1820878 0.2590616 0.1385946
0.1992151 0.2593886 0.1420685
0.2185726 0.2599099 0.1470898
0.2396807 0.2607434 0.1541220
0.2620746 0.2620746 0.1635906
0.2853735 0.2641807 0.1757764
0.3093035 0.2674455 0.1907304
0.3336856 0.2723460 0.2082593
0.3584056 0.2793950 0.2279900
0.3833847 0.2890393 0.2494709
0.4085610 0.3015431 0.2722626
0.4338834 0.3169067 0.2959919
0.4593102 0.3348718 0.3203690
0.4807950 0.3714239 0.3650631
0.4927595 0.4188185 0.4170260
0.4957287 0.4436222 0.4429832
0.4986499 0.4615086 0.4612578
0.5013573 0.4748442 0.4747407
0.5037298 0.4848432 0.4847992
0.5057081 0.4922958 0.4922768
0.5072903 0.4977945 0.4977861
0.5085138 0.5018081 0.5018044
0.5094354 0.5047097 0.5047080
0.5101159 0.5067907 0.5067900
0.5106110 0.5082739 0.5082736
0.5109674 0.5093262 0.5093260
0.5112220 0.5100701 0.5100700
0.5114028 0.5105947 0.5105947
0.5115307 0.5109640 0.5109640
0.5116210 0.5112236 0.5112236
0.5116845 0.5114059 0.5114059
0.5117292 0.5115339 0.5115339
0.5117606 0.5116237 0.5116237
0.5117826 0.5116867 0.5116867
0.2072904 0.2883187 0.2072904
0.2070434 0.2881942 0.2062796
0.2066547 0.2879995 0.2046567
0.2060401 0.2876950 0.2020046
0.2050604 0.2872178 0.1975361
0.2034768 0.2864680 0.1895767
0.2008559 0.2852856 0.1736771
0.2085674 0.2848122 0.1644667
0.2254461 0.2851434 0.1679236
0.2446016 0.2856702 0.1729227
0.2655591 0.2865107 0.1799275
0.2878496 0.2878496 0.1893655
0.3110831 0.2899625 0.2015206
0.3349754 0.2932312 0.2164468
0.3593378 0.2981300 0.2339530
0.3840489 0.3051703 0.2536666
0.4090245 0.3147992 0.2751354
0.4342001 0.3272829 0.2979190
0.4595226 0.3426252 0.3216428
0.4809850 0.3755443 0.3660042
0.4928727 0.4203568 0.4176035
0.4958062 0.4443066 0.4433162
0.4986990 0.4618309 0.4614404
0.5013864 0.4749985 0.4748370
0.5037459 0.4849170 0.4848482
0.5057167 0.4923309 0.4923011
0.5072947 0.4978109 0.4977979
0.5085159 0.5018158 0.5018100
0.5094364 0.5047132 0.5047106
0.5101164 0.5067923 0.5067912
0.5106113 0.5082747 0.5082742
0.5109675 0.5093265 0.5093263
0.5112220 0.5100703 0.5100702
0.5114028 0.5105948 0.5105947
0.5115307 0.5109640 0.5109640
0.5116210 0.5112236 0.5112236
0.5116845 0.5114059 0.5114059
0.5117292 0.5115339 0.5115339
0.5117606 0.5116237 0.5116237
0.5117826 0.5116867 0.5116867
0.2329989 0.3140272 0.2329989
0.2328410 0.3139474 0.2323549
0.2325933 0.3138229 0.2313320
0.2322036 0.3136282 0.2296894
0.2315875 0.3133237 0.2270036
0.2306052 0.3128465 0.2224745
0.2290173 0.3120967 0.2143941
0.2263888 0.3109143 0.1981934
0.2347380 0.3105236 0.1902553
0.2514612 0.3108573 0.1937014
0.2704894 0.3113877 0.1986862
0.2913516 0.3122326 0.2056737
0.3135763 0.3135763 0.2150923
0.3367682 0.3156936 0.2272277
0.3606363 0.3189647 0.2421361
0.3849861 0.3238625 0.2596278
0.4096914 0.3308972 0.2793304
0.4346648 0.3405163 0.3007915
0.4598398 0.3529872 0.3235698
0.4812774 0.3814382 0.3674282
0.4930479 0.4226677 0.4184869
0.4959264 0.4453526 0.4438286
0.4987753 0.4623274 0.4617225
0.5014315 0.4752373 0.4749861
0.5037711 0.4850315 0.4849244
0.5057299 0.4923853 0.4923388
0.5073014 0.4978366 0.4978162
0.5085192 0.5018277 0.5018187
0.5094380 0.5047187 0.5047147
0.5101171 0.5067948 0.5067930
0.5106116 0.5082758 0.5082750
0.5109677 0.5093271 0.5093267
0.5112221 0.5100705 0.5100703
0.5114029 0.5105949 0.5105948
0.5115308 0.5109641 0.5109640
0.5116210 0.5112236 0.5112236
0.5116845 0.5114059 0.5114059
0.5117292 0.5115339 0.5115339
0.5117606 0.5116237 0.5116237
0.5117826 0.5116867 0.5116867
0.2586831 0.3397114 0.2586831
0.2585821 0.3396603 0.2582719
0.2584238 0.3395805 0.2576230
0.2581758 0.3394560 0.2565923
0.2577855 0.3392613 0.2549367
0.2571684 0.3389568 0.2522290
0.2561844 0.3384796 0.2476602
0.2545938 0.3377299 0.2395004
0.2519604 0.3365475 0.2231012
0.2607154 0.3362097 0.2159907
0.2773404 0.3365452 0.2194300
0.2962879 0.3370778 0.2244057
0.3170894 0.3379254 0.2313820
0.3392722 0.3392722 0.2407882
0.3624374 0.3413923 0.2529111
0.3862901 0.3446649 0.2678081
0.4106318 0.3495620 0.2852904
0.4353334 0.3565932 0.3049861
0.4603054 0.3662060 0.3264422
0.4817243 0.3895813 0.3695496
0.4933182 0.4260759 0.4198248
0.4961117 0.4469346 0.4446114
0.4988930 0.4630874 0.4621561
0.5015013 0.4756053 0.4752163
0.5038100 0.4852088 0.4850423
0.5057506 0.4924698 0.4923974
0.5073119 0.4978764 0.4978446
0.5085244 0.5018462 0.5018322
0.5094405 0.5047273 0.5047210
0.5101183 0.5067987 0.5067960
0.5106121 0.5082776 0.5082764
0.5109680 0.5093279 0.5093273
0.5112222 0.5100709 0.5100706
0.5114029 0.5105950 0.5105949
0.5115308 0.5109641 0.5109641
0.5116210 0.5112236 0.5112236
0.5116845 0.5114059 0.5114059
0.5117292 0.5115339 0.5115339
0.5117606 0.5116237 0.5116237
0.5117826 0.5116867 0.5116867
0.2843519 0.3653801 0.2843519
0.2842871 0.3653474 0.2840888
0.2841859 0.3652963 0.2836756
0.2840276 0.3652165 0.2830236
0.2837792 0.3650919 0.2819877
0.2833885 0.3648973 0.2803238
0.2827708 0.3645928 0.2776018
0.2817858 0.3641156 0.2730073
0.2801934 0.3633658 0.2647959
0.2775569 0.3621835 0.2482669
0.2865708 0.3618797 0.2416922
0.3031334 0.3622162 0.2451270
0.3220296 0.3627502 0.2500970
0.3427924 0.3635997 0.2570662
0.3649484 0.3649484 0.2664644
0.3880966 0.3670703 0.2785792
0.4119393 0.3703439 0.2934690
0.4362759 0.3752406 0.3109454
0.4609750 0.3822695 0.3306365
0.4824006 0.4003684 0.3726388
0.4937329 0.4309751 0.4218206
0.4963959 0.4492902 0.4457941
0.4990740 0.4642396 0.4628173
0.5016089 0.4761688 0.4755697
0.5038702 0.4854819 0.4852242
0.5057826 0.4926006 0.4924882
0.5073282 0.4979381 0.4978887
0.5085324 0.5018751 0.5018532
0.5094443 0.5047406 0.5047309
0.5101201 0.5068049 0.5068005
0.5106130 0.5082804 0.5082785
0.5109683 0.5093291 0.5093283
0.5112224 0.5100714 0.5100710
0.5114030 0.5105953 0.5105951
0.5115308 0.5109642 0.5109642
0.5116210 0.5112237 0.5112237
0.5116845 0.5114060 0.5114060
0.5117292 0.5115339 0.5115339
0.5117606 0.5116237 0.5116237
0.5117826 0.5116867 0.5116867
0.3100106 0.3910389 0.3100106
0.3099692 0.3910179 0.3098423
0.3099044 0.3909852 0.3095784
0.3098031 0.3909340 0.3091639
0.3096446 0.3908543 0.3085099
0.3093961 0.3907297 0.3074707
0.3090052 0.3905350 0.3058014
0.3083870 0.3902305 0.3030701
0.3074013 0.3897533 0.2984590
0.3058078 0.3890036 0.2902142
0.3031693 0.3878212 0.2736010
0.3123487 0.3875393 0.2673719
0.3288717 0.3878765 0.2708039
0.3477351 0.3884114 0.2757702
0.3684731 0.3892620 0.2827349
0.3906120 0.3906120 0.2921280
0.4137492 0.3927350 0.3042377
0.4375856 0.3960092 0.3191227
0.4619188 0.4009056 0.3365953
0.4834096 0.4140023 0.3769930
0.4943637 0.4377802 0.4247340
0.4968279 0.4527196 0.4475524
0.4993499 0.4659605 0.4638136
0.5017737 0.4770235 0.4761077
0.5039629 0.4859002 0.4855032
0.5058320 0.4928020 0.4926280
0.5073534 0.4980337 0.4979569
0.5085449 0.5019198 0.5018857
0.5094503 0.5047613 0.5047461
0.5101229 0.5068144 0.5068076
0.5106143 0.5082848 0.5082817
0.5109689 0.5093311 0.5093297
0.5112227 0.5100723 0.5100717
0.5114031 0.5105957 0.5105954
0.5115309 0.5109644 0.5109643
0.5116210 0.5112238 0.5112237
0.5116846 0.5114060 0.5114060
0.5117292 0.5115339 0.5115339
0.5117606 0.5116237 0.5116237
0.5117826 0.5116867 0.5116867
0.3356630 0.4166913 0.3356630
0.3356365 0.4166779 0.3355552
0.3355950 0.4166569 0.3353865
0.3355301 0.4166241 0.3351221
0.3354288 0.4165730 0.3347068
0.3352703 0.4164932 0.3340514
0.3350217 0.4163686 0.3330102
0.3346306 0.4161740 0.3313374
0.3340121 0.4158695 0.3286002
0.3330260 0.4153923 0.3239783
0.3314318 0.4146426 0.3157119
0.3287920 0.4134602 0.2990444
0.3380773 0.4131923 0.2930377
0.3545749 0.4135299 0.2964679
0.3734173 0.4140654 0.3014318
0.3941396 0.4149167 0.3083936
0.4162675 0.4162675 0.3177834
0.4393977 0.4183912 0.3298898
0.4632300 0.4216658 0.3447719
0.4848847 0.4304313 0.3828542
0.4953115 0.4468365 0.4288588
0.4974758 0.4575593 0.4501056
0.4997655 0.4684766 0.4652886
0.5020236 0.4783009 0.4769162
0.5041043 0.4865344 0.4859272
0.5059079 0.4931103 0.4928423
0.5073924 0.4981809 0.4980620
0.5085642 0.5019890 0.5019361
0.5094596 0.5047935 0.5047699
0.5101273 0.5068292 0.5068186
0.5106164 0.5082915 0.5082868
0.5109699 0.5093342 0.5093321
0.5112231 0.5100737 0.5100728
0.5114033 0.5105963 0.5105959
0.5115310 0.5109647 0.5109645
0.5116211 0.5112239 0.5112238
0.5116846 0.5114061 0.5114060
0.5117292 0.5115340 0.5115339
0.5117606 0.5116237 0.5116237
0.5117826 0.5116867 0.5116867
0.3613114 0.4423396 0.3613114
0.3612943 0.4423310 0.3612422
0.3612677 0.4423176 0.3611343
0.3612262 0.4422966 0.3609653
0.3611614 0.4422638 0.3607007
0.3610601 0.4422127 0.3602848
0.3609015 0.4421329 0.3596286
0.3606528 0.4420083 0.3585860
0.3602616 0.4418137 0.3569109
0.3596430 0.4415092 0.3541699
0.3586566 0.4410320 0.3495411
0.3570619 0.4402822 0.3412609
0.3544212 0.4390999 0.3245582
0.3637744 0.4388410 0.3186947
0.3802558 0.4391788 0.3221237
0.3990848 0.4397147 0.3270861
0.4197969 0.4405665 0.3340460
0.4419178 0.4419178 0.3434337
0.4650435 0.4440420 0.3555380
0.4869762 0.4493782 0.3902415
0.4967114 0.4583057 0.4344642
0.4984293 0.4641142 0.4536918
0.5003808 0.4720450 0.4674171
0.5023971 0.4801698 0.4781082
0.5043177 0.4874819 0.4865627
0.5060234 0.4935776 0.4931675
0.5074521 0.4984061 0.4982229
0.5085939 0.5020956 0.5020137
0.5094740 0.5048432 0.5048065
0.5101342 0.5068521 0.5068357
0.5106195 0.5083020 0.5082947
0.5109714 0.5093390 0.5093357
0.5112238 0.5100759 0.5100744
0.5114036 0.5105973 0.5105967
0.5115311 0.5109652 0.5109649
0.5116212 0.5112241 0.5112240
0.5116846 0.5114062 0.5114061
0.5117292 0.5115340 0.5115340
0.5117606 0.5116237 0.5116237
0.5117826 0.5116867 0.5116867
0.3869571 0.4679854 0.3869571
0.3869461 0.4679798 0.3869128
0.3869291 0.4679712 0.3868436
0.3869025 0.4679577 0.3867355
0.3868610 0.4679367 0.3865665
0.3867961 0.4679040 0.3863016
0.3866948 0.4678528 0.3858854
0.3865362 0.4677731 0.3852286
0.3862875 0.4676485 0.3841851
0.3858962 0.4674538 0.3825086
0.3852775 0.4671493 0.3797651
0.3842909 0.4666721 0.3751320
0.3826959 0.4659224 0.3668428
0.3800547 0.4647401 0.3501176
0.3894514 0.4644869 0.3443459
0.4059223 0.4648249 0.3477742
0.4247428 0.4653610 0.3527356
0.4454484 0.4662131 0.3596943
0.4675647 0.4675647 0.3690807
0.4897967 0.4704467 0.3986409
0.4987326 0.4720953 0.4416920
0.4997948 0.4725516 0.4585087
0.5012684 0.4769022 0.4703792
0.5029433 0.4828216 0.4798177
0.5046345 0.4888669 0.4874962
0.5061971 0.4942751 0.4936539
0.5075428 0.4987471 0.4984669
0.5086395 0.5022586 0.5021324
0.5094962 0.5049197 0.5048630
0.5101447 0.5068876 0.5068621
0.5106245 0.5083183 0.5083069
0.5109736 0.5093464 0.5093413
0.5112248 0.5100793 0.5100770
0.5114041 0.5105988 0.5105978
0.5115313 0.5109658 0.5109654
0.5116213 0.5112244 0.5112242
0.5116847 0.5114063 0.5114062
0.5117293 0.5115341 0.5115340
0.5117606 0.5116238 0.5116237
0.5117826 0.5116867 0.5116867
0.4224336 0.4923717 0.4224336
0.4224242 0.4923686 0.4224078
0.4224096 0.4923637 0.4223675
0.4223868 0.4923561 0.4223047
0.4223513 0.4923442 0.4222064
0.4222958 0.4923257 0.4220528
0.4222091 0.4922969 0.4218122
0.4220737 0.4922518 0.4214343
0.4218619 0.4921815 0.4208384
0.4215300 0.4920716 0.4198926
0.4210083 0.4918999 0.4183757
0.4201848 0.4916311 0.4159013
0.4188755 0.4912095 0.4117457
0.4167691 0.4905459 0.4043925
0.4133126 0.4894959 0.3899376
0.4209190 0.4893536 0.3851360
0.4354249 0.4898095 0.3879918
0.4525801 0.4905143 0.3921714
0.4720128 0.4915984 0.3981226
0.4932537 0.4932537 0.4063153
0.5015745 0.4879074 0.4504397
0.5016810 0.4828002 0.4646187
0.5025044 0.4831743 0.4743050
0.5037178 0.4864296 0.4821754
0.5050931 0.4908294 0.4888276
0.5064534 0.4952934 0.4943661
0.5076789 0.4992558 0.4988311
0.5087087 0.5025053 0.5023122
