LUTs/guard_rail_srgb.cube
TITLE "Guard Rail sRGB"
# Guard Rail Formation for sRGB medium.
# The Guard Rail is designed to leaves valid value as-is, and only touch out of domain valuesModified from python script shared by Sakari Kapanen
# This LUT assumes input and output to be E Gamut encoded in Log2 (-10 stop to +15 stop)
# LUT resolution 45
LUT_3D_SIZE 8
DOMAIN_MIN 0.000000 0.000000 0.000000
DOMAIN_MAX 0.954545 0.954545 0.954545
-0.0000000 0.0000000 -0.0000000
0.1353746 0.0218252 0.0218252
0.2698437 0.1562943 0.1562943
0.4060258 0.2924764 0.2924764
0.4832114 0.4587253 0.4587253
0.4975848 0.4960332 0.4960332
0.4988743 0.4987827 0.4987827
0.4989524 0.4989470 0.4989470
0.0959586 0.1475064 0.0959586
0.1427343 0.1427343 0.0663648
0.2712954 0.1794901 0.1530203
0.4062097 0.2921272 0.2891440
0.4832105 0.4587278 0.4587047
0.4975848 0.4960332 0.4960331
0.4988743 0.4987827 0.4987827
0.4989524 0.4989470 0.4989470
0.2350006 0.2865485 0.2350006
0.2309185 0.2834794 0.2222203
0.2820118 0.2820118 0.2056424
0.4076748 0.3179786 0.2899833
0.4832005 0.4587538 0.4584834
0.4975847 0.4960334 0.4960321
0.4988743 0.4987827 0.4987827
0.4989524 0.4989470 0.4989470
0.3716101 0.4231580 0.3716101
0.3712430 0.4228764 0.3705629
0.3671478 0.4198062 0.3575294
0.4186423 0.4186423 0.3422729
0.4850826 0.4651221 0.4625912
0.4975842 0.4960353 0.4960213
0.4988743 0.4987828 0.4987827
0.4989524 0.4989470 0.4989470
0.4862811 0.4957564 0.4862811
0.4862727 0.4957534 0.4862649
0.4861824 0.4957214 0.4860904
0.4851446 0.4953437 0.4839745
0.4966240 0.4966240 0.4842813
0.4978196 0.4965702 0.4964388
0.4988743 0.4987829 0.4987820
0.4989524 0.4989470 0.4989470
0.4982194 0.4987563 0.4982194
0.4982194 0.4987563 0.4982193
0.4982189 0.4987561 0.4982184
0.4982136 0.4987540 0.4982087
0.4981525 0.4987289 0.4980923
0.4988175 0.4988175 0.4981610
0.4988889 0.4988152 0.4988076
0.4989524 0.4989470 0.4989470
0.4989140 0.4989454 0.4989140
0.4989140 0.4989454 0.4989140
0.4989140 0.4989454 0.4989140
0.4989139 0.4989454 0.4989139
0.4989136 0.4989453 0.4989133
0.4989100 0.4989438 0.4989065
0.4989490 0.4989490 0.4989107
0.4989532 0.4989489 0.4989485
0.4989547 0.4989566 0.4989547
0.4989547 0.4989566 0.4989547
0.4989547 0.4989566 0.4989547
0.4989547 0.4989566 0.4989547
0.4989547 0.4989566 0.4989547
0.4989547 0.4989565 0.4989547
0.4989545 0.4989565 0.4989543
0.4989568 0.4989568 0.4989545
0.0251536 0.0251536 0.1252545
0.1357663 0.0609722 0.1357663
0.2698455 0.1615870 0.1840370
0.4060255 0.2929986 0.2957550
0.4832161 0.4587347 0.4587578
0.4975848 0.4960333 0.4960334
0.4988743 0.4987827 0.4987827
0.4989524 0.4989470 0.4989470
0.1087084 0.1515853 0.1515853
0.1363636 0.1363636 0.1363636
0.2717382 0.1581888 0.1581888
0.4062074 0.2926580 0.2926580
0.4832151 0.4587372 0.4587372
0.4975848 0.4960333 0.4960333
0.4988743 0.4987827 0.4987827
0.4989524 0.4989470 0.4989470
0.2362693 0.2869269 0.2428577
0.2323222 0.2838700 0.2323222
0.2790979 0.2790979 0.2027285
0.4076590 0.3158538 0.2893839
0.4832051 0.4587632 0.4585161
0.4975848 0.4960335 0.4960323
0.4988743 0.4987827 0.4987827
0.4989524 0.4989470 0.4989470
0.3717302 0.4231935 0.3723938
0.3713643 0.4229121 0.3713643
0.3672822 0.4198431 0.3585839
0.4183754 0.4183754 0.3420060
0.4850679 0.4650741 0.4625590
0.4975843 0.4960354 0.4960214
0.4988743 0.4987828 0.4987827
0.4989524 0.4989470 0.4989470
0.4862834 0.4957579 0.4862912
0.4862750 0.4957549 0.4862750
0.4861847 0.4957229 0.4861007
0.4851472 0.4953455 0.4839867
0.4966228 0.4966228 0.4842729
0.4978195 0.4965698 0.4964385
0.4988743 0.4987829 0.4987821
0.4989524 0.4989470 0.4989470
0.4982194 0.4987563 0.4982195
0.4982194 0.4987563 0.4982194
0.4982189 0.4987561 0.4982185
0.4982136 0.4987540 0.4982088
0.4981525 0.4987289 0.4980924
0.4988175 0.4988175 0.4981610
0.4988889 0.4988152 0.4988076
0.4989524 0.4989470 0.4989470
0.4989140 0.4989454 0.4989140
0.4989140 0.4989454 0.4989140
0.4989140 0.4989454 0.4989140
0.4989139 0.4989454 0.4989139
0.4989136 0.4989453 0.4989133
0.4989100 0.4989438 0.4989065
0.4989490 0.4989490 0.4989107
0.4989532 0.4989489 0.4989485
0.4989547 0.4989566 0.4989547
0.4989547 0.4989566 0.4989547
0.4989547 0.4989566 0.4989547
0.4989547 0.4989566 0.4989547
0.4989547 0.4989566 0.4989547
0.4989547 0.4989565 0.4989547
0.4989545 0.4989565 0.4989543
0.4989568 0.4989568 0.4989545
0.1471881 0.1471881 0.2472889
0.1735515 0.1550849 0.2522246
0.2718439 0.1970498 0.2718439
0.4060483 0.2982124 0.3220588
0.4832650 0.4588343 0.4591008
0.4975854 0.4960341 0.4960354
0.4988743 0.4987827 0.4987828
0.4989524 0.4989470 0.4989470
0.1691919 0.1849557 0.2578927
0.1615172 0.1615172 0.2616181
0.2721299 0.1973359 0.2721299
0.4062092 0.2979506 0.3204007
0.4832641 0.4588367 0.4590805
0.4975854 0.4960342 0.4960353
0.4988743 0.4987827 0.4987828
0.4989524 0.4989470 0.4989470
0.2479875 0.2908644 0.2908644
0.2450720 0.2879490 0.2879490
0.2727273 0.2727273 0.2727273
0.4081018 0.2945524 0.2945524
0.4832541 0.4588624 0.4588624
0.4975853 0.4960343 0.4960343
0.4988743 0.4987827 0.4987827
0.4989524 0.4989470 0.4989470
0.3729877 0.4235708 0.3800903
0.3726330 0.4232906 0.3792214
0.3686858 0.4202337 0.3686858
0.4154615 0.4154615 0.3390921
0.4849095 0.4645582 0.4622141
0.4975848 0.4960362 0.4960235
0.4988743 0.4987828 0.4987827
0.4989524 0.4989470 0.4989470
0.4863075 0.4957744 0.4863978
0.4862991 0.4957715 0.4863817
0.4862091 0.4957397 0.4862091
0.4851751 0.4953648 0.4841163
0.4966101 0.4966101 0.4841836
0.4978177 0.4965659 0.4964354
0.4988743 0.4987829 0.4987821
0.4989524 0.4989470 0.4989470
0.4982196 0.4987564 0.4982200
0.4982195 0.4987564 0.4982199
0.4982190 0.4987562 0.4982190
0.4982137 0.4987541 0.4982093
0.4981527 0.4987290 0.4980930
0.4988175 0.4988175 0.4981605
0.4988889 0.4988152 0.4988075
0.4989524 0.4989470 0.4989470
0.4989140 0.4989454 0.4989140
0.4989140 0.4989454 0.4989140
0.4989140 0.4989454 0.4989140
0.4989139 0.4989454 0.4989139
0.4989136 0.4989453 0.4989133
0.4989100 0.4989438 0.4989065
0.4989490 0.4989490 0.4989107
0.4989532 0.4989489 0.4989485
0.4989547 0.4989566 0.4989547
0.4989547 0.4989566 0.4989547
0.4989547 0.4989566 0.4989547
0.4989547 0.4989566 0.4989547
0.4989547 0.4989566 0.4989547
0.4989547 0.4989565 0.4989547
0.4989545 0.4989565 0.4989543
0.4989568 0.4989568 0.4989545
0.2819999 0.2819999 0.3821008
0.2849562 0.2828435 0.3826832
0.3106581 0.2909455 0.3878402
0.4081805 0.3333865 0.4081805
0.4837781 0.4598726 0.4625934
0.4975909 0.4960431 0.4960570
0.4988743 0.4987828 0.4987829
0.4989524 0.4989470 0.4989470
0.2847623 0.2868336 0.3836470
0.2835517 0.2835517 0.3836526
0.3099151 0.2914485 0.3885882
0.4082075 0.3334135 0.4082075
0.4837773 0.4598747 0.4625758
0.4975909 0.4960431 0.4960569
0.4988743 0.4987828 0.4987829
0.4989524 0.4989470 0.4989470
0.3063867 0.3230477 0.3942553
0.3055556 0.3213194 0.3942563
0.2978808 0.2978808 0.3979817
0.4084935 0.3336995 0.4084935
0.4837682 0.4598979 0.4623871
0.4975908 0.4960433 0.4960559
0.4988743 0.4987828 0.4987829
0.4989524 0.4989470 0.4989470
0.3846181 0.4274950 0.4274950
0.3843511 0.4272280 0.4272280
0.3814357 0.4243126 0.4243126
0.4090909 0.4090909 0.4090909
0.4836583 0.4601490 0.4601490
0.4975903 0.4960452 0.4960452
0.4988743 0.4987828 0.4987828
0.4989524 0.4989470 0.4989470
0.4865614 0.4959485 0.4875124
0.4865532 0.4959457 0.4874980
0.4864664 0.4959162 0.4873431
0.4854690 0.4955689 0.4854690
0.4964667 0.4964667 0.4831688
0.4977990 0.4965235 0.4964020
0.4988743 0.4987829 0.4987822
0.4989524 0.4989470 0.4989470
0.4982211 0.4987575 0.4982258
0.4982210 0.4987575 0.4982257
0.4982205 0.4987573 0.4982248
0.4982152 0.4987552 0.4982152
0.4981544 0.4987303 0.4980999
0.4988167 0.4988167 0.4981561
0.4988888 0.4988150 0.4988074
0.4989524 0.4989470 0.4989470
0.4989140 0.4989454 0.4989140
0.4989140 0.4989454 0.4989140
0.4989140 0.4989454 0.4989140
0.4989139 0.4989454 0.4989139
0.4989136 0.4989453 0.4989134
0.4989100 0.4989438 0.4989066
0.4989490 0.4989490 0.4989107
0.4989532 0.4989489 0.4989485
0.4989547 0.4989566 0.4989547
0.4989547 0.4989566 0.4989547
0.4989547 0.4989566 0.4989547
0.4989547 0.4989566 0.4989547
0.4989547 0.4989566 0.4989547
0.4989547 0.4989565 0.4989547
0.4989545 0.4989565 0.4989543
0.4989568 0.4989568 0.4989545
0.4180877 0.4180877 0.4860317
0.4182538 0.4181561 0.4860402
0.4202684 0.4191676 0.4861537
0.4373835 0.4284979 0.4872856
0.4885241 0.4690866 0.4885241
0.4976483 0.4961362 0.4962803
0.4988747 0.4987833 0.4987842
0.4989524 0.4989470 0.4989470
0.4183828 0.4184800 0.4860612
0.4182236 0.4182236 0.4860429
0.4202125 0.4192058 0.4861541
0.4373449 0.4285254 0.4872858
0.4885245 0.4690880 0.4885245
0.4976483 0.4961362 0.4962802
0.4988747 0.4987833 0.4987842
0.4989524 0.4989470 0.4989470
0.4213881 0.4224346 0.4863688
0.4212399 0.4222010 0.4863510
0.4196401 0.4196401 0.4861606
0.4369314 0.4288187 0.4872879
0.4885288 0.4691026 0.4885288
0.4976482 0.4961364 0.4962793
0.4988747 0.4987833 0.4987842
0.4989524 0.4989470 0.4989470
0.4435627 0.4497442 0.4891142
0.4434802 0.4496317 0.4891009
0.4425941 0.4484134 0.4889584
0.4321185 0.4321185 0.4873200
0.4885739 0.4692566 0.4885739
0.4976478 0.4961380 0.4962695
0.4988747 0.4987834 0.4987841
0.4989524 0.4989470 0.4989470
0.4890580 0.4976715 0.4976715
0.4890527 0.4976708 0.4976708
0.4889961 0.4976640 0.4976640
0.4883562 0.4975874 0.4975874
0.4989572 0.4989572 0.4989572
0.4976416 0.4961558 0.4961558
0.4988746 0.4987835 0.4987835
0.4989524 0.4989470 0.4989470
0.4982367 0.4987688 0.4982870
0.4982367 0.4987687 0.4982869
0.4982362 0.4987686 0.4982861
0.4982311 0.4987666 0.4982774
0.4981727 0.4987437 0.4981727
0.4988079 0.4988079 0.4981058
0.4988876 0.4988124 0.4988053
0.4989524 0.4989470 0.4989470
0.4989141 0.4989455 0.4989143
0.4989141 0.4989455 0.4989143
0.4989141 0.4989455 0.4989143
0.4989140 0.4989455 0.4989143
0.4989137 0.4989453 0.4989137
0.4989101 0.4989439 0.4989070
0.4989490 0.4989490 0.4989104
0.4989532 0.4989489 0.4989484
0.4989547 0.4989566 0.4989547
0.4989547 0.4989566 0.4989547
0.4989547 0.4989566 0.4989547
0.4989547 0.4989566 0.4989547
0.4989547 0.4989566 0.4989547
0.4989547 0.4989565 0.4989547
0.4989545 0.4989565 0.4989543
0.4989568 0.4989568 0.4989545
0.4895390 0.4895390 0.4965961
0.4895361 0.4895356 0.4965953
0.4895646 0.4895584 0.4966012
0.4898592 0.4897947 0.4966618
0.4922799 0.4917472 0.4971696
0.4981319 0.4969197 0.4981319
0.4988782 0.4987890 0.4987974
0.4989524 0.4989470 0.4989471
0.4895454 0.4895460 0.4965977
0.4895415 0.4895415 0.4965967
0.4895645 0.4895588 0.4966012
0.4898590 0.4897950 0.4966618
0.4922798 0.4917474 0.4971696
0.4981319 0.4969197 0.4981319
0.4988782 0.4987890 0.4987974
0.4989524 0.4989470 0.4989471
0.4896131 0.4896193 0.4966145
0.4896093 0.4896149 0.4966135
0.4895683 0.4895683 0.4966030
0.4898573 0.4897988 0.4966622
0.4922780 0.4917497 0.4971698
0.4981319 0.4969198 0.4981319
0.4988782 0.4987890 0.4987974
0.4989524 0.4989470 0.4989471
0.4902794 0.4903403 0.4967808
0.4902761 0.4903365 0.4967799
0.4902404 0.4902959 0.4967706
0.4898443 0.4898443 0.4966681
0.4922590 0.4917742 0.4971720
0.4981324 0.4969209 0.4981324
0.4988782 0.4987890 0.4987974
0.4989524 0.4989470 0.4989471
0.4941291 0.4944816 0.4977681
0.4941279 0.4944803 0.4977678
0.4941156 0.4944663 0.4977644
0.4939812 0.4943132 0.4977277
0.4920597 0.4920597 0.4971999
0.4981372 0.4969329 0.4981372
0.4988782 0.4987891 0.4987968
0.4989524 0.4989470 0.4989471
0.4983889 0.4988781 0.4988781
0.4983888 0.4988781 0.4988781
0.4983886 0.4988781 0.4988781
0.4983854 0.4988776 0.4988776
0.4983496 0.4988727 0.4988727
0.4989572 0.4989572 0.4989572
0.4988778 0.4987902 0.4987902
0.4989524 0.4989470 0.4989470
0.4989150 0.4989461 0.4989179
0.4989150 0.4989461 0.4989179
0.4989150 0.4989461 0.4989179
0.4989149 0.4989461 0.4989179
0.4989147 0.4989460 0.4989174
0.4989112 0.4989447 0.4989112
0.4989485 0.4989485 0.4989075
0.4989532 0.4989487 0.4989483
0.4989547 0.4989566 0.4989547
0.4989547 0.4989566 0.4989547
0.4989547 0.4989566 0.4989547
0.4989547 0.4989566 0.4989547
0.4989547 0.4989566 0.4989547
0.4989547 0.4989565 0.4989547
0.4989545 0.4989565 0.4989543
0.4989568 0.4989568 0.4989545
0.4983604 0.4983604 0.4987990
0.4983604 0.4983604 0.4987990
0.4983603 0.4983602 0.4987989
0.4983622 0.4983618 0.4987994
0.4983818 0.4983780 0.4988040
0.4985410 0.4985097 0.4988413
0.4989078 0.4988364 0.4989078
0.4989526 0.4989474 0.4989479
0.4983605 0.4983605 0.4987990
0.4983605 0.4983605 0.4987990
0.4983603 0.4983602 0.4987989
0.4983622 0.4983618 0.4987994
0.4983818 0.4983780 0.4988040
0.4985410 0.4985097 0.4988413
0.4989078 0.4988364 0.4989078
0.4989526 0.4989474 0.4989479
0.4983609 0.4983610 0.4987991
0.4983609 0.4983609 0.4987991
0.4983606 0.4983606 0.4987990
0.4983622 0.4983618 0.4987994
0.4983818 0.4983781 0.4988040
0.4985410 0.4985097 0.4988413
0.4989078 0.4988364 0.4989078
0.4989526 0.4989474 0.4989479
0.4983656 0.4983659 0.4988004
0.4983656 0.4983659 0.4988004
0.4983653 0.4983656 0.4988003
0.4983625 0.4983625 0.4987995
0.4983817 0.4983783 0.4988040
0.4985409 0.4985098 0.4988414
0.4989078 0.4988364 0.4989078
0.4989526 0.4989474 0.4989479
0.4984111 0.4984147 0.4988130
0.4984111 0.4984147 0.4988130
0.4984109 0.4984144 0.4988129
0.4984084 0.4984117 0.4988122
0.4983813 0.4983813 0.4988045
0.4985398 0.4985113 0.4988415
0.4989078 0.4988364 0.4989078
0.4989526 0.4989474 0.4989479
0.4986638 0.4986845 0.4988828
0.4986638 0.4986845 0.4988828
0.4986637 0.4986844 0.4988828
0.4986629 0.4986835 0.4988826
0.4986544 0.4986738 0.4988801
0.4985291 0.4985291 0.4988436
0.4989081 0.4988371 0.4989081
0.4989526 0.4989474 0.4989478
0.4989239 0.4989526 0.4989526
0.4989239 0.4989526 0.4989526
0.4989239 0.4989526 0.4989526
0.4989239 0.4989526 0.4989526
0.4989237 0.4989526 0.4989526
0.4989216 0.4989523 0.4989523
0.4989572 0.4989572 0.4989572
0.4989526 0.4989474 0.4989474
0.4989548 0.4989566 0.4989549
0.4989548 0.4989566 0.4989549
0.4989548 0.4989566 0.4989549
0.4989548 0.4989566 0.4989549
0.4989548 0.4989566 0.4989549
0.4989547 0.4989566 0.4989549
0.4989545 0.4989565 0.4989545
0.4989567 0.4989567 0.4989543
0.4989221 0.4989221 0.4989479
0.4989221 0.4989221 0.4989479
0.4989221 0.4989221 0.4989479
0.4989220 0.4989220 0.4989479
0.4989222 0.4989221 0.4989479
0.4989233 0.4989231 0.4989482
0.4989327 0.4989309 0.4989504
0.4989543 0.4989501 0.4989543
0.4989221 0.4989221 0.4989479
0.4989221 0.4989221 0.4989479
0.4989221 0.4989221 0.4989479
0.4989220 0.4989220 0.4989479
0.4989222 0.4989221 0.4989479
0.4989233 0.4989231 0.4989482
0.4989327 0.4989309 0.4989504
0.4989543 0.4989501 0.4989543
0.4989221 0.4989221 0.4989479
0.4989221 0.4989221 0.4989479
0.4989221 0.4989221 0.4989479
0.4989220 0.4989220 0.4989479
0.4989222 0.4989221 0.4989479
0.4989233 0.4989231 0.4989482
0.4989327 0.4989309 0.4989504
0.4989543 0.4989501 0.4989543
0.4989221 0.4989221 0.4989479
0.4989221 0.4989221 0.4989479
0.4989221 0.4989221 0.4989479
0.4989221 0.4989221 0.4989479
0.4989222 0.4989221 0.4989479
0.4989233 0.4989231 0.4989482
0.4989327 0.4989309 0.4989504
0.4989543 0.4989501 0.4989543
0.4989224 0.4989224 0.4989480
0.4989224 0.4989224 0.4989480
0.4989224 0.4989224 0.4989480
0.4989223 0.4989224 0.4989480
0.4989222 0.4989222 0.4989479
0.4989233 0.4989231 0.4989482
0.4989327 0.4989309 0.4989504
0.4989543 0.4989501 0.4989543
0.4989251 0.4989253 0.4989487
0.4989251 0.4989253 0.4989487
0.4989251 0.4989253 0.4989487
0.4989250 0.4989253 0.4989487
0.4989249 0.4989251 0.4989487
0.4989233 0.4989233 0.4989482
0.4989327 0.4989310 0.4989504
0.4989543 0.4989502 0.4989543
0.4989400 0.4989412 0.4989529
0.4989400 0.4989412 0.4989529
0.4989400 0.4989412 0.4989529
0.4989400 0.4989412 0.4989529
0.4989399 0.4989411 0.4989528
0.4989394 0.4989406 0.4989527
0.4989320 0.4989320 0.4989505
0.4989544 0.4989502 0.4989544
0.4989553 0.4989570 0.4989570
0.4989553 0.4989570 0.4989570
0.4989553 0.4989570 0.4989570
0.4989553 0.4989570 0.4989570
0.4989553 0.4989570 0.4989570
0.4989553 0.4989570 0.4989570
0.4989552 0.4989570 0.4989570
0.4989572 0.4989572 0.4989572
