LUTs/luminance_correction_srgb.cube
TITLE "Pre-formation 2012 Luminance Correction for BT.709 Target"
# Use CIE 2012 Luminance to Compensate for Some Out-of-Domain Values
# This LUT assumes input and output to be BT.2020 I-D65 encoded in Log2 (-10 stop to +6.5 stop)
# LUT resolution 36
LUT_3D_SIZE 6
0.0000000 0.0000000 0.0000000
0.1982773 0.0058806 0.0058806
0.3791184 0.1867217 0.1867217
0.5769161 0.3845194 0.3845194
0.7766893 0.5842926 0.5842926
0.9766663 0.7842696 0.7842696
0.0994662 0.1863679 0.0994662
0.1999379 0.1999379 0.0038101
0.3970839 0.2090351 0.0802609
0.5790119 0.3865664 0.3797322
0.7769040 0.5845023 0.5838389
0.9766881 0.7842909 0.7842238
0.2943068 0.3812085 0.2943068
0.2982238 0.3858247 0.2814056
0.3986963 0.3986963 0.2025685
0.5953559 0.4137583 0.2811194
0.7790010 0.5865505 0.5789912
0.9769028 0.7845006 0.7837696
0.4937655 0.5806672 0.4937655
0.4941668 0.5811324 0.4927614
0.4980966 0.5857692 0.4793479
0.5985693 0.5985693 0.4024415
0.7951831 0.6142077 0.4812022
0.9789999 0.7865489 0.7789156
0.6937104 0.7806121 0.6937104
0.6937512 0.7806593 0.6936110
0.6941525 0.7811246 0.6926031
0.6980837 0.7857635 0.6791363
0.7985564 0.7985564 0.6024286
0.9951656 0.8142531 0.6812105
0.8937048 0.9806065 0.8937048
0.8937089 0.9806113 0.8936947
0.8937497 0.9806585 0.8935953
0.8941511 0.9811238 0.8925870
0.8980824 0.9857630 0.8791148
0.9985551 0.9985551 0.8024272
0.0000000 0.0000000 0.2000000
0.1982321 0.0108619 0.1982321
0.3801259 0.1882080 0.2364112
0.5770347 0.3846863 0.3909605
0.7767016 0.5843097 0.5849675
0.9766675 0.7842713 0.7843383
0.1107864 0.1913924 0.1913924
0.2000000 0.2000000 0.2000000
0.3982773 0.2058806 0.2058806
0.5791184 0.3867217 0.3867217
0.7769161 0.5845194 0.5845194
0.9766893 0.7842926 0.7842926
0.2956726 0.3819499 0.3082783
0.2994662 0.3863679 0.2994662
0.3999379 0.3999379 0.2038101
0.5970839 0.4090351 0.2802609
0.7790119 0.5865664 0.5797322
0.9769040 0.7845023 0.7838389
0.4939069 0.5807453 0.4952741
0.4943068 0.5812085 0.4943068
0.4982238 0.5858247 0.4814056
0.5986963 0.5986963 0.4025685
0.7953559 0.6137583 0.4811194
0.9790010 0.7865505 0.7789912
0.6937248 0.7806200 0.6938646
0.6937655 0.7806672 0.6937655
0.6941668 0.7811324 0.6927614
0.6980966 0.7857692 0.6793479
0.7985693 0.7985693 0.6024415
0.9951831 0.8142077 0.6812022
0.8937063 0.9806073 0.8937205
0.8937104 0.9806121 0.8937104
0.8937512 0.9806593 0.8936110
0.8941525 0.9811246 0.8926031
0.8980837 0.9857635 0.8791363
0.9985564 0.9985564 0.8024286
0.1389623 0.1389623 0.3741368
0.2029807 0.0515986 0.3961154
0.3872440 0.1998738 0.3872440
0.5781564 0.3862821 0.4377834
0.7768215 0.5844779 0.5913580
0.9766798 0.7842884 0.7850126
0.1787196 0.2264270 0.3695948
0.2000000 0.2000000 0.4000000
0.3982321 0.2108619 0.3982321
0.5801259 0.3882080 0.4364112
0.7770347 0.5846863 0.5909605
0.9767016 0.7843097 0.7849675
0.3079556 0.3885617 0.3885617
0.3107864 0.3913924 0.3913924
0.4000000 0.4000000 0.4000000
0.5982773 0.4058806 0.4058806
0.7791184 0.5867217 0.5867217
0.9769161 0.7845194 0.7845194
0.4952848 0.5815055 0.5089429
0.4956726 0.5819499 0.5082783
0.4994662 0.5863679 0.4994662
0.5999379 0.5999379 0.4038101
0.7970839 0.6090351 0.4802609
0.9790119 0.7865664 0.7797322
0.6938662 0.7806983 0.6953695
0.6939069 0.7807453 0.6952741
0.6943068 0.7812085 0.6943068
0.6982238 0.7858247 0.6814056
0.7986963 0.7986963 0.6025685
0.9953559 0.8137583 0.6811194
0.8937206 0.9806152 0.8938746
0.8937248 0.9806200 0.8938646
0.8937655 0.9806672 0.8937655
0.8941668 0.9811324 0.8927614
0.8980966 0.9857692 0.8793479
0.9985693 0.9985693 0.8024415
0.3339835 0.3339835 0.5691579
0.3334642 0.3203833 0.5750523
0.4055748 0.2516036 0.5917057
0.5860471 0.3986768 0.5860471
0.7779549 0.5860849 0.6379107
0.9767998 0.7844567 0.7913981
0.3392744 0.3490596 0.5685854
0.3389623 0.3389623 0.5741368
0.4029807 0.2515986 0.5961154
0.5872440 0.3998738 0.5872440
0.7781564 0.5862821 0.6377834
0.9768215 0.7844779 0.7913580
0.3782688 0.4278105 0.5661866
0.3787196 0.4264270 0.5695948
0.4000000 0.4000000 0.6000000
0.5982321 0.4108619 0.5982321
0.7801259 0.5882080 0.6364112
0.9770347 0.7846863 0.7909605
0.5076630 0.5882690 0.5882690
0.5079556 0.5885617 0.5885617
0.5107864 0.5913924 0.5913924
0.6000000 0.6000000 0.6000000
0.7982773 0.6058806 0.6058806
0.9791184 0.7867217 0.7867217
0.6952454 0.7814604 0.7090084
0.6952848 0.7815055 0.7089429
0.6956726 0.7819499 0.7082783
0.6994662 0.7863679 0.6994662
0.7999379 0.7999379 0.6038101
0.9970839 0.8090351 0.6802609
0.8938621 0.9806935 0.8953792
0.8938662 0.9806983 0.8953695
0.8939069 0.9807453 0.8952741
0.8943068 0.9812085 0.8943068
0.8982238 0.9858247 0.8814056
0.9986963 0.9986963 0.8025685
0.5334618 0.5334618 0.7686362
0.5334255 0.5322795 0.7692213
0.5328822 0.5182247 0.7751524
0.6057977 0.4515846 0.7912556
0.7859246 0.5985544 0.7859246
0.9779344 0.7860649 0.8379235
0.5340178 0.5351310 0.7685764
0.5339835 0.5339835 0.7691579
0.5334642 0.5203833 0.7750523
0.6055748 0.4516036 0.7917057
0.7860471 0.5986768 0.7860471
0.9779549 0.7860849 0.8379107
0.5392908 0.5499314 0.7680369
0.5392744 0.5490596 0.7685854
0.5389623 0.5389623 0.7741368
0.6029807 0.4515986 0.7961154
0.7872440 0.5998738 0.7872440
0.9781564 0.7862821 0.8377834
0.5782193 0.6279357 0.7658467
0.5782688 0.6278105 0.7661866
0.5787196 0.6264270 0.7695948
0.6000000 0.6000000 0.8000000
0.7982321 0.6108619 0.7982321
0.9801259 0.7882080 0.8364112
0.7076333 0.7882393 0.7882393
0.7076630 0.7882690 0.7882690
0.7079556 0.7885617 0.7885617
0.7107864 0.7913924 0.7913924
0.8000000 0.8000000 0.8000000
0.9982773 0.8058806 0.8058806
0.8952414 0.9814558 0.9090151
0.8952454 0.9814604 0.9090084
0.8952848 0.9815055 0.9089429
0.8956726 0.9819499 0.9082783
0.8994662 0.9863679 0.8994662
0.9999379 0.9999379 0.8038101
0.7334086 0.7334086 0.9685831
0.7334051 0.7332903 0.9686423
0.7333686 0.7321044 0.9692278
0.7328229 0.7180022 0.9751627
0.8058199 0.6515824 0.9912099
0.9859122 0.7985420 0.9859122
0.7334653 0.7335797 0.9685770
0.7334618 0.7334618 0.9686362
0.7334255 0.7322795 0.9692213
0.7328822 0.7182247 0.9751524
0.8057977 0.6515846 0.9912556
0.9859246 0.7985544 0.9859246
0.7340211 0.7352455 0.9685176
0.7340178 0.7351310 0.9685764
0.7339835 0.7339835 0.9691579
0.7334642 0.7203833 0.9750523
0.8055748 0.6516036 0.9917057
0.9860471 0.7986768 0.9860471
0.7392923 0.7500186 0.9679813
0.7392908 0.7499314 0.9680369
0.7392744 0.7490596 0.9685854
0.7389623 0.7389623 0.9741368
0.8029807 0.6515986 0.9961154
0.9872440 0.7998738 0.9872440
0.7782142 0.8279483 0.9658122
0.7782193 0.8279357 0.9658467
0.7782688 0.8278105 0.9661866
0.7787196 0.8264270 0.9695948
0.8000000 0.8000000 1.0000000
0.9982321 0.8108619 0.9982321
0.9076303 0.9882363 0.9882363
0.9076333 0.9882393 0.9882393
0.9076630 0.9882690 0.9882690
0.9079556 0.9885617 0.9885617
0.9107864 0.9913924 0.9913924
1.0000000 1.0000000 1.0000000
