LUTs/luminance_correction_p3.cube
TITLE "Pre-formation 2012 Luminance Correction for Display P3 Target"
# Use CIE 2012 Luminance to Compensate for Some Out-of-Domain Values
# This LUT assumes input and output to be BT.2020 I-D65 encoded in ST2084 (200)
# LUT resolution 33
LUT_3D_SIZE 5
0.0000007 0.0000007 0.0000007
0.2390349 0.0932089 0.0932089
0.4844773 0.2454907 0.2454907
0.7329638 0.4431861 0.4431861
0.9835802 0.6816879 0.6816879
0.1493507 0.2403289 0.1493507
0.2498162 0.2498162 0.0581197
0.4988014 0.2551189 0.1148718
0.7344887 0.4444464 0.4364403
0.9837258 0.6818288 0.6809724
0.3464831 0.4863218 0.3464831
0.3486048 0.4897861 0.3285153
0.4997418 0.4997418 0.1722853
0.7500000 0.5000000 0.0000010
0.9861676 0.6841918 0.6675714
0.5729984 0.7349971 0.5729984
0.5732441 0.7353513 0.5712794
0.5773231 0.7414540 0.5288260
0.7497180 0.7497180 0.3389531
1.0000000 0.7500000 0.0000011
0.8228428 0.9855464 0.8228428
0.8228681 0.9855800 0.8226687
0.8232947 0.9861491 0.8196309
0.8275762 0.9920866 0.7726070
0.9997292 0.9997292 0.5588674
0.0856946 0.0856946 0.2283105
0.2429657 0.1004707 0.2429657
0.4849022 0.2463837 0.2918912
0.7330087 0.4433008 0.4506800
0.9835845 0.6817007 0.6825498
0.1597213 0.2437557 0.2437557
0.2500000 0.2500000 0.2500000
0.4987144 0.2557016 0.2557016
0.7345283 0.4445570 0.4445570
0.9837300 0.6818415 0.6818415
0.3475263 0.4866019 0.3629247
0.3496228 0.4899636 0.3496228
0.5000000 0.5000000 0.2500000
0.7500000 0.5000000 0.2500000
0.9861710 0.6842038 0.6685824
0.5731188 0.7350261 0.5750344
0.5733641 0.7353793 0.5733641
0.5774382 0.7414643 0.5323715
0.7498076 0.7498076 0.3390223
1.0000000 0.7500000 0.2500000
0.8228552 0.9855491 0.8230540
0.8228805 0.9855828 0.8228805
0.8233070 0.9861517 0.8198517
0.8275880 0.9920875 0.7730019
0.9997376 0.9997376 0.5588758
0.2306507 0.2306507 0.4690533
0.2597617 0.1590988 0.4924634
0.4900699 0.2594789 0.4900699
0.7337387 0.4452044 0.5323882
0.9836565 0.6819163 0.6961886
0.2462524 0.2863794 0.4702385
0.2518137 0.2518137 0.4990799
0.4980198 0.2653275 0.4980198
0.7351732 0.4463958 0.5306180
0.9838012 0.6820564 0.6955861
0.3636524 0.4911901 0.4911901
0.3654007 0.4931779 0.4931779
0.5000000 0.5000000 0.5000000
0.7500000 0.5000000 0.5000000
0.9862281 0.6844058 0.6844058
0.5751320 0.7355145 0.6047242
0.5753724 0.7358516 0.6036643
0.5793648 0.7416438 0.5793648
0.7500000 0.7500000 0.5000000
1.0000000 0.7500000 0.5000000
0.8230642 0.9855957 0.8265619
0.8230895 0.9856292 0.8263967
0.8235151 0.9861955 0.8235151
0.8277870 0.9921024 0.7794663
0.9998807 0.9998807 0.5590171
0.4228772 0.4228772 0.7158650
0.4237675 0.4151942 0.7194108
0.5064676 0.3315173 0.7410712
0.7391212 0.4620022 0.7391212
0.9843645 0.6840815 0.7829782
0.4250765 0.4326041 0.7159840
0.4259506 0.4259506 0.7194326
0.5045778 0.3322962 0.7441203
0.7399687 0.4627567 0.7399687
0.9845010 0.6842141 0.7828083
0.4565617 0.5286100 0.7181243
0.4572304 0.5274007 0.7204221
0.5000000 0.5000000 0.7500000
0.7500000 0.5000000 0.7500000
0.9867909 0.6864390 0.7797321
0.5938511 0.7403520 0.7403520
0.5940504 0.7405585 0.7405585
0.5973646 0.7439903 0.7439903
0.7500000 0.7500000 0.7500000
1.0000000 0.7500000 0.7500000
0.8251803 0.9860704 0.8571133
0.8252050 0.9861024 0.8570099
0.8256215 0.9866427 0.8552150
0.8298028 0.9922613 0.8298028
1.0000000 1.0000000 0.7500000
0.6585121 0.6585121 0.9669761
0.6586134 0.6577053 0.9673127
0.6603024 0.6418121 0.9731026
0.7564657 0.5514202 0.9913393
0.9895289 0.7028711 0.9895289
0.6587631 0.6596592 0.9669875
0.6588642 0.6588642 0.9673231
0.6605499 0.6432242 0.9730970
0.7562976 0.5515200 0.9916265
0.9896096 0.7029543 0.9896096
0.6629198 0.6774249 0.9671811
0.6630176 0.6767967 0.9675018
0.6646493 0.6646493 0.9730150
0.7530246 0.5530962 0.9964453
0.9909633 0.7043518 0.9909633
0.6983253 0.7792413 0.9692880
0.6983985 0.7791282 0.9695026
0.6996251 0.7770375 0.9731740
0.7500000 0.7500000 1.0000000
1.0000000 0.7500000 1.0000000
0.8445359 0.9907160 0.9907160
0.8445562 0.9907356 0.9907356
0.8448985 0.9910662 0.9910662
0.8483396 0.9943879 0.9943879
1.0000000 1.0000000 1.0000000
