LUTs/luminance_correction_bt2020.cube
TITLE "Pre-formation 2012 Luminance Correction for BT.2020 Target"
# Use CIE 2012 Luminance to Compensate for Some Out-of-Domain Values
# This LUT assumes input and output to be XYZ I-E encoded in ST2084 (200)
# LUT resolution 45
LUT_3D_SIZE 45
0.0000007 0.0000007 0.0000007
0.0079056 0.0047817 0.0050194
0.0172738 0.0107783 0.0112837
0.0276096 0.0176585 0.0184456
0.0387195 0.0252815 0.0263585
0.0504928 0.0335652 0.0349370
0.0628559 0.0424541 0.0441235
0.0757551 0.0519077 0.0538761
0.0891495 0.0618948 0.0641621
0.1030064 0.0723902 0.0749555
0.1172987 0.0833734 0.0862348
0.1320040 0.0948269 0.0979820
0.1471031 0.1067358 0.1101815
0.1625791 0.1190874 0.1228200
0.1784175 0.1318701 0.1358856
0.1946052 0.1450740 0.1493678
0.2111307 0.1586901 0.1632572
0.2279835 0.1727102 0.1775454
0.2451540 0.1871271 0.1922248
0.2626338 0.2019340 0.2072883
0.2804148 0.2171249 0.2227296
0.2984897 0.2326940 0.2385426
0.3168518 0.2486362 0.2547221
0.3354948 0.2649466 0.2712628
0.3544128 0.2816208 0.2881601
0.3736006 0.2986546 0.3054097
0.3930528 0.3160439 0.3230072
0.4127647 0.3337853 0.3409490
0.4327319 0.3518752 0.3592314
0.4529499 0.3703103 0.3778509
0.4734149 0.3890875 0.3968043
0.4941230 0.4082041 0.4160885
0.5150704 0.4276572 0.4357006
0.5362539 0.4474442 0.4556379
0.5576701 0.4675626 0.4758978
0.5793158 0.4880101 0.4964776
0.6011881 0.5087844 0.5173751
0.6232841 0.5298834 0.5385880
0.6456010 0.5513050 0.5601141
0.6681363 0.5730472 0.5819512
0.6908874 0.5951083 0.6040975
0.7138519 0.6174863 0.6265509
0.7370274 0.6401796 0.6493097
0.7604117 0.6631865 0.6723721
0.7840026 0.6865054 0.6957363
0.0108407 0.0222855 0.0116616
0.0226917 0.0227054 0.0031588
0.0360205 0.0234647 0.0182844
0.0411254 0.0269788 0.0260143
0.0485298 0.0321819 0.0323919
0.0576895 0.0387247 0.0395703
0.0682073 0.0463601 0.0476727
0.0797900 0.0549023 0.0566124
0.0922310 0.0642176 0.0662902
0.1053867 0.0742107 0.0766253
0.1191558 0.0848131 0.0875558
0.1334654 0.0959743 0.0990346
0.1482615 0.1076564 0.1110257
0.1635033 0.1198302 0.1235008
0.1791588 0.1324725 0.1364372
0.1952027 0.1455645 0.1498166
0.2116142 0.1590909 0.1636238
0.2283761 0.1730388 0.1778457
0.2454739 0.1873972 0.1924714
0.2628950 0.2021565 0.2074913
0.2806285 0.2173085 0.2228970
0.2986649 0.2328457 0.2386809
0.3169957 0.2487618 0.2548364
0.3356131 0.2650507 0.2713574
0.3545102 0.2817070 0.2882385
0.3736807 0.2987261 0.3054746
0.3931189 0.3161033 0.3230611
0.4128192 0.3338345 0.3409937
0.4327768 0.3519160 0.3592684
0.4529869 0.3703441 0.3778816
0.4734454 0.3891156 0.3968297
0.4941480 0.4082274 0.4161096
0.5150911 0.4276764 0.4357181
0.5362709 0.4474601 0.4556523
0.5576840 0.4675758 0.4759097
0.5793272 0.4880209 0.4964874
0.6011975 0.5087933 0.5173832
0.6232918 0.5298907 0.5385946
0.6456073 0.5513110 0.5601195
0.6681414 0.5730522 0.5819557
0.6908916 0.5951123 0.6041011
0.7138553 0.6174896 0.6265539
0.7370301 0.6401823 0.6493121
0.7604139 0.6631887 0.6723740
0.7840044 0.6865071 0.6957379
0.0231436 0.0446568 0.0247530
0.0239373 0.0453522 0.0091316
0.0453904 0.0454151 0.0072651
0.0667495 0.0454869 0.0139491
0.0698341 0.0476247 0.0408076
0.0752452 0.0515727 0.0491648
0.0824442 0.0569008 0.0563671
0.0912135 0.0634657 0.0639997
0.1013488 0.0711393 0.0724033
0.1126535 0.0797965 0.0816247
0.1249528 0.0893236 0.0916248
0.1381006 0.0996235 0.1023424
0.1519790 0.1106164 0.1137166
0.1664945 0.1222379 0.1256933
0.1815735 0.1344365 0.1382274
0.1971582 0.1471710 0.1512816
0.2132024 0.1604083 0.1648252
0.2296695 0.1741216 0.1788330
0.2465296 0.1882889 0.1932843
0.2637585 0.2028922 0.2081616
0.2813361 0.2179163 0.2234506
0.2992457 0.2333486 0.2391386
0.3174729 0.2491782 0.2552153
0.3360057 0.2653958 0.2716713
0.3548335 0.2819933 0.2884987
0.3739471 0.2989636 0.3056903
0.3933384 0.3163004 0.3232400
0.4130001 0.3339981 0.3411421
0.4329259 0.3520517 0.3593915
0.4531099 0.3704567 0.3779836
0.4735467 0.3892090 0.3969142
0.4942315 0.4083047 0.4161796
0.5151598 0.4277405 0.4357760
0.5363274 0.4475131 0.4557002
0.5577304 0.4676195 0.4759492
0.5793653 0.4880571 0.4965200
0.6012287 0.5088231 0.5174101
0.6233173 0.5299152 0.5386167
0.6456282 0.5513311 0.5601376
0.6681585 0.5730687 0.5819705
0.6909054 0.5951258 0.6041133
0.7138665 0.6175006 0.6265638
0.7370392 0.6401912 0.6493202
0.7604212 0.6631959 0.6723806
0.7840103 0.6865130 0.6957432
0.0363537 0.0670733 0.0387180
0.0355481 0.0675019 0.0315715
0.0463611 0.0680616 0.0145187
0.0680927 0.0681271 0.0121125
0.0907805 0.0681798 0.0059281
0.0986620 0.0692466 0.0514462
0.1028617 0.0723698 0.0651254
0.1087763 0.0768621 0.0736841
0.1162266 0.0825825 0.0815386
0.1250981 0.0894569 0.0897384
0.1352659 0.0974075 0.0986147
0.1465939 0.1063474 0.1082608
0.1589469 0.1161878 0.1186765
0.1721994 0.1268446 0.1298249
0.1862407 0.1382418 0.1416570
0.2009766 0.1503138 0.1541233
0.2163281 0.1630047 0.1671779
0.2322304 0.1762679 0.1807805
0.2486299 0.1900645 0.1948967
0.2654829 0.2043622 0.2094972
0.2827533 0.2191343 0.2245573
0.3004115 0.2343585 0.2400563
0.3184327 0.2500161 0.2559764
0.3367964 0.2660912 0.2723029
0.3554853 0.2825707 0.2890228
0.3744846 0.2994431 0.3061254
0.3937817 0.3166986 0.3236012
0.4133658 0.3343287 0.3414418
0.4332276 0.3523262 0.3596402
0.4533586 0.3706845 0.3781899
0.4737517 0.3893979 0.3970852
0.4944004 0.4084613 0.4163212
0.5152988 0.4278701 0.4358932
0.5364417 0.4476203 0.4557972
0.5578244 0.4677081 0.4760293
0.5794424 0.4881302 0.4965861
0.6012919 0.5088834 0.5174644
0.6233690 0.5299648 0.5386614
0.6456704 0.5513718 0.5601743
0.6681929 0.5731020 0.5820006
0.6909335 0.5951531 0.6041379
0.7138893 0.6175229 0.6265839
0.7370577 0.6402094 0.6493365
0.7604362 0.6632107 0.6723938
0.7840223 0.6865250 0.6957539
0.0502660 0.0895222 0.0533539
0.0497947 0.0897743 0.0494108
0.0482759 0.0907242 0.0219154
0.0689456 0.0907742 0.0204640
0.0907977 0.0908407 0.0176070
0.1134099 0.0908992 0.0114921
0.1272041 0.0913429 0.0558017
0.1305122 0.0938095 0.0795078
0.1355238 0.0976857 0.0906430
0.1420076 0.1027659 0.0993660
0.1498833 0.1089908 0.1077593
0.1590793 0.1163163 0.1165262
0.1695072 0.1246880 0.1259383
0.1810639 0.1340397 0.1360915
0.1936402 0.1442991 0.1470009
0.2071284 0.1553930 0.1586438
0.2214289 0.1672520 0.1709809
0.2364521 0.1798128 0.1839680
0.2521203 0.1930195 0.1975616
0.2683669 0.2068236 0.2117214
0.2851356 0.2211836 0.2264116
0.3023791 0.2360642 0.2416010
0.3200578 0.2514355 0.2572625
0.3381388 0.2672722 0.2733732
0.3565941 0.2835532 0.2899134
0.3754004 0.3002602 0.3068661
0.3945381 0.3173781 0.3242169
0.4139904 0.3348936 0.3419535
0.4337432 0.3527955 0.3600652
0.4537841 0.3710742 0.3785427
0.4741027 0.3897213 0.3973779
0.4946896 0.4087294 0.4165637
0.5155370 0.4280923 0.4360940
0.5366377 0.4478041 0.4559632
0.5579855 0.4678601 0.4761665
0.5795747 0.4882556 0.4966993
0.6014003 0.5089867 0.5175577
0.6234578 0.5300498 0.5387381
0.6457429 0.5514417 0.5602373
0.6682521 0.5731593 0.5820522
0.6909816 0.5951999 0.6041800
0.7139284 0.6175611 0.6266183
0.7370894 0.6402405 0.6493645
0.7604618 0.6632359 0.6724166
0.7840430 0.6865454 0.6957723
0.0647658 0.1119966 0.0685480
0.0644566 0.1121594 0.0660175
0.0631958 0.1127516 0.0541774
0.0705593 0.1134348 0.0287726
0.0915833 0.1134887 0.0269531
0.1135047 0.1135555 0.0236942
0.1360700 0.1136170 0.0174032
0.1554082 0.1137394 0.0480183
0.1579798 0.1156246 0.0919705
0.1623019 0.1190072 0.1069528
0.1680507 0.1235851 0.1171120
0.1751448 0.1292874 0.1260520
0.1835410 0.1360862 0.1349465
0.1931874 0.1439516 0.1442786
0.2040141 0.1528405 0.1542590
0.2159360 0.1626982 0.1649704
0.2288598 0.1734620 0.1764300
0.2426912 0.1850667 0.1886207
0.2573391 0.1974479 0.2015090
0.2727200 0.2105456 0.2150547
0.2887590 0.2243051 0.2292165
0.3053904 0.2386776 0.2439549
0.3225575 0.2536206 0.2592341
0.3402118 0.2690974 0.2750219
0.3583120 0.2850763 0.2912902
0.3768232 0.3015303 0.3080147
0.3957157 0.3184363 0.3251742
0.4149646 0.3357747 0.3427506
0.4345485 0.3535286 0.3607283
0.4544494 0.3716836 0.3790938
0.4746519 0.3902274 0.3978356
0.4951426 0.4091494 0.4169434
0.5159103 0.4284404 0.4364086
0.5369450 0.4480924 0.4562236
0.5582381 0.4680984 0.4763816
0.5797822 0.4884523 0.4968769
0.6015704 0.5091489 0.5177040
0.6235970 0.5301833 0.5388585
0.6458568 0.5515513 0.5603362
0.6683449 0.5732492 0.5821332
0.6910572 0.5952735 0.6042463
0.7139898 0.6176212 0.6266723
0.7371391 0.6402894 0.6494085
0.7605020 0.6632756 0.6724523
0.7840754 0.6865776 0.6958012
0.0797778 0.1344922 0.0842263
0.0795625 0.1346032 0.0824851
0.0787557 0.1349917 0.0754873
0.0765488 0.1358953 0.0491006
0.0930208 0.1361481 0.0361204
0.1142464 0.1362044 0.0339667
0.1362135 0.1362714 0.0303374
0.1587468 0.1363348 0.0237926
0.1817807 0.1363641 0.0059521
0.1852036 0.1376903 0.1021705
0.1889653 0.1406527 0.1225034
0.1941317 0.1448198 0.1346258
0.2006005 0.1500947 0.1444163
0.2083399 0.1564530 0.1536477
0.2173218 0.1638798 0.1630484
0.2275031 0.1723511 0.1729574
0.2388230 0.1818296 0.1835337
0.2512064 0.1922660 0.1948422
0.2645701 0.2036035 0.2068959
0.2788283 0.2157816 0.2196785
0.2938969 0.2287402 0.2331588
0.3096974 0.2424215 0.2472988
0.3261581 0.2567723 0.2620589
0.3432152 0.2717444 0.2774005
0.3608128 0.2872953 0.2932879
0.3789023 0.3033875 0.3096888
0.3974420 0.3199885 0.3265746
0.4163963 0.3370702 0.3439202
0.4357346 0.3546086 0.3617037
0.4554309 0.3725829 0.3799062
0.4754633 0.3909754 0.3985112
0.4958127 0.4097707 0.4175045
0.5164630 0.4289559 0.4368741
0.5374003 0.4485194 0.4566092
0.5586127 0.4684517 0.4767005
0.5800899 0.4887442 0.4971402
0.6018229 0.5093896 0.5179211
0.6238038 0.5303815 0.5390372
0.6460258 0.5517142 0.5604829
0.6684828 0.5733828 0.5822535
0.6911695 0.5953828 0.6043447
0.7140810 0.6177104 0.6267526
0.7372131 0.6403620 0.6494739
0.7605618 0.6633346 0.6725053
0.7841236 0.6866254 0.6958442
0.0952477 0.1570061 0.1003361
0.0950921 0.1570846 0.0990872
0.0945344 0.1573539 0.0944191
0.0931778 0.1579456 0.0813884
0.0951373 0.1588192 0.0454910
0.1155666 0.1588632 0.0439517
0.1369241 0.1589210 0.0414878
0.1589237 0.1589882 0.0375104
0.1814339 0.1590528 0.0306787
0.2043995 0.1590905 0.0155499
0.2121700 0.1599363 0.1095915
0.2154561 0.1625262 0.1372443
0.2201440 0.1663456 0.1518499
0.2261016 0.1712636 0.1627576
0.2332967 0.1772509 0.1725045
0.2417152 0.1843007 0.1821052
0.2513342 0.1924029 0.1920395
0.2621137 0.2015352 0.2025486
0.2739969 0.2116620 0.2137497
0.2869142 0.2227367 0.2256900
0.3007882 0.2347054 0.2383752
0.3155388 0.2475106 0.2517873
0.3310873 0.2610946 0.2658952
0.3473590 0.2754018 0.2806618
0.3642854 0.2903802 0.2960483
0.3818048 0.3059826 0.3120169
0.3998626 0.3221665 0.3285322
0.4184110 0.3388945 0.3455621
0.4374086 0.3561338 0.3630777
0.4568197 0.3738559 0.3810537
0.4766136 0.3920361 0.3994677
0.4967642 0.4106533 0.4183006
0.5172489 0.4296890 0.4375354
0.5380485 0.4491275 0.4571576
0.5591465 0.4689552 0.4771547
0.5805288 0.4891605 0.4975155
0.6021831 0.5097331 0.5182308
0.6240990 0.5306644 0.5392922
0.6462672 0.5519468 0.5606925
0.6686799 0.5735736 0.5824253
0.6913300 0.5955390 0.6044853
0.7142114 0.6178379 0.6268674
0.7373188 0.6404659 0.6495673
0.7606472 0.6634190 0.6725812
0.7841925 0.6866937 0.6959056
0.1111344 0.1795361 0.1168372
0.1110191 0.1795930 0.1159161
0.1106160 0.1797865 0.1126084
0.1096964 0.1801989 0.1044528
0.1077103 0.1809847 0.0821629
0.1174912 0.1815331 0.0540469
0.1381600 0.1815797 0.0522580
0.1596111 0.1816386 0.0495018
0.1816352 0.1817058 0.0451929
0.2041278 0.1817712 0.0380585
0.2270415 0.1818147 0.0237573
0.2388817 0.1823183 0.1133298
0.2417516 0.1845692 0.1511424
0.2460356 0.1880861 0.1687698
0.2515661 0.1927001 0.1810350
0.2583045 0.1983716 0.1914499
0.2662438 0.2050971 0.2013628
0.2753751 0.2128759 0.2114085
0.2856753 0.2216978 0.2219153
0.2971042 0.2315397 0.2330554
0.3096060 0.2423655 0.2449126
0.3231136 0.2541292 0.2575175
0.3375531 0.2667780 0.2708679
0.3528482 0.2802560 0.2849426
0.3689239 0.2945073 0.2997092
0.3857090 0.3094776 0.3151309
0.4031375 0.3251162 0.3311690
0.4211501 0.3413766 0.3477863
0.4396936 0.3582169 0.3649479
0.4587216 0.3756001 0.3826216
0.4781934 0.3934934 0.4007790
0.4980738 0.4118684 0.4193947
0.5183325 0.4307002 0.4384463
0.5389436 0.4499674 0.4579144
0.5598845 0.4696516 0.4777821
0.5811362 0.4897367 0.4980348
0.6026821 0.5102091 0.5186596
0.6245081 0.5310567 0.5396455
0.6466020 0.5522694 0.5609830
0.6689533 0.5738384 0.5826637
0.6915528 0.5957558 0.6046804
0.7143925 0.6180150 0.6270267
0.7374656 0.6406102 0.6496971
0.7607660 0.6635362 0.6726866
0.7842882 0.6867887 0.6959910
0.1274055 0.2020805 0.1336981
0.1273184 0.2021227 0.1330047
0.1270185 0.2022650 0.1305744
0.1263600 0.2025633 0.1249690
0.1250438 0.2031108 0.1123218
0.1223410 0.2040863 0.0735192
0.1399464 0.2042488 0.0630569
0.1607834 0.2042972 0.0610309
0.1823046 0.2043568 0.0579964
0.2043479 0.2044241 0.0533692
0.2268268 0.2044901 0.0459238
0.2496995 0.2045378 0.0319251
0.2653470 0.2048055 0.1115748
0.2678452 0.2067428 0.1641641
0.2717806 0.2099913 0.1853925
0.2769481 0.2143418 0.1992366
0.2832986 0.2197418 0.2104500
0.2908277 0.2261871 0.2207698
0.2995359 0.2336831 0.2310011
0.3094133 0.2422295 0.2415640
0.3204340 0.2518135 0.2526877
0.3325553 0.2624093 0.2644941
0.3457207 0.2739790 0.2770399
0.3598639 0.2864757 0.2903409
0.3749128 0.2998467 0.3043874
0.3907937 0.3140370 0.3191540
0.4074343 0.3289915 0.3346068
0.4247662 0.3446571 0.3507083
0.4427261 0.3609840 0.3674200
0.4612567 0.3779266 0.3847051
0.4803067 0.3954440 0.4025288
0.4998310 0.4134995 0.4208597
0.5197903 0.4320609 0.4396695
0.5401501 0.4510999 0.4589331
0.5608811 0.4705921 0.4786285
0.5819576 0.4905160 0.4987362
0.6033577 0.5108534 0.5192396
0.6250626 0.5315883 0.5401240
0.6470561 0.5527070 0.5613769
0.6693243 0.5741977 0.5829871
0.6918552 0.5960502 0.6049453
0.7146385 0.6182556 0.6272431
0.7376651 0.6408063 0.6498734
0.7609273 0.6636956 0.6728298
0.7844184 0.6869178 0.6961070
0.1440345 0.2246379 0.1508930
0.1439676 0.2246697 0.1503629
0.1437399 0.2247764 0.1485333
0.1432518 0.2249976 0.1444792
0.1423213 0.2253948 0.1361585
0.1405711 0.2260717 0.1174672
0.1423419 0.2269269 0.0740558
0.1624654 0.2269657 0.0725154
0.1834271 0.2270155 0.0702626
0.2050030 0.2270757 0.0669613
0.2270616 0.2271430 0.0620263
0.2495295 0.2272096 0.0542655
0.2723692 0.2272604 0.0403258
0.2915760 0.2273756 0.0997136
0.2937377 0.2290197 0.1762666
0.2973672 0.2320264 0.2017362
0.3022215 0.2361454 0.2173670
0.3082391 0.2413095 0.2294913
0.3154146 0.2475115 0.2402970
0.3237548 0.2547606 0.2507763
0.3332601 0.2630636 0.2614461
0.3439164 0.2724169 0.2725940
0.3556929 0.2828037 0.2843809
0.3685435 0.2941942 0.2968905
0.3824097 0.3065478 0.3101575
0.3972249 0.3198161 0.3241850
0.4129179 0.3339458 0.3389557
0.4294169 0.3488820 0.3544402
0.4466519 0.3645701 0.3706029
0.4645567 0.3809580 0.3874054
0.4830705 0.3979970 0.4048093
0.5021382 0.4156424 0.4227779
0.5217104 0.4338541 0.4412773
0.5417438 0.4525963 0.4602763
0.5622003 0.4718374 0.4797472
0.5830469 0.4915498 0.4996654
0.6042550 0.5117094 0.5200093
0.6258000 0.5322954 0.5407600
0.6476606 0.5532897 0.5619009
0.6698187 0.5746766 0.5834178
0.6922586 0.5964428 0.6052983
0.7149667 0.6185766 0.6275317
0.7379314 0.6410680 0.6501086
0.7611428 0.6639084 0.6730211
0.7845923 0.6870903 0.6962619
0.1609991 0.2472074 0.1684006
0.1609472 0.2472316 0.1679903
0.1607717 0.2473127 0.1665885
0.1604013 0.2474797 0.1635616
0.1597165 0.2477756 0.1576835
0.1584961 0.2482669 0.1460792
0.1562743 0.2490687 0.1188393
0.1647107 0.2496431 0.0841422
0.1850273 0.2496837 0.0824171
0.2060854 0.2497346 0.0799462
0.2277050 0.2497953 0.0763876
0.2497762 0.2498626 0.0711537
0.2722353 0.2499295 0.0630750
0.2950479 0.2499827 0.0490572
0.3175792 0.2500112 0.0532298
0.3194331 0.2513797 0.1873907
0.3227910 0.2541664 0.2178255
0.3273721 0.2580798 0.2354401
0.3331010 0.2630373 0.2485719
0.3399697 0.2690271 0.2599289
0.3479891 0.2760603 0.2707078
0.3571670 0.2841491 0.2815276
0.3674992 0.2932975 0.2927358
0.3789656 0.3034969 0.3045324
0.3915296 0.3147251 0.3170284
0.4051408 0.3269478 0.3302781
0.4197384 0.3401212 0.3442980
0.4352546 0.3541946 0.3590798
0.4516188 0.3691140 0.3745999
0.4687606 0.3848242 0.3908250
0.4866119 0.4012713 0.4077176
0.5051089 0.4184038 0.4252386
0.5241931 0.4361742 0.4433498
0.5438114 0.4545388 0.4620147
0.5639168 0.4734586 0.4812001
0.5844677 0.4928987 0.5008756
0.6054278 0.5128286 0.5210141
0.6267654 0.5332213 0.5415916
0.6484532 0.5540536 0.5625873
0.6704676 0.5753052 0.5839827
0.6927884 0.5969586 0.6057619
0.7153981 0.6189986 0.6279110
0.7382818 0.6414123 0.6504180
0.7614265 0.6641885 0.6732727
0.7848212 0.6873174 0.6964659
0.1782806 0.2697878 0.1862026
0.1782399 0.2698065 0.1858818
0.1781030 0.2698688 0.1847936
0.1778173 0.2699968 0.1824841
0.1772996 0.2702213 0.1781543
0.1764090 0.2705880 0.1701981
0.1748815 0.2711691 0.1545535
0.1721516 0.2720919 0.1142507
0.1871550 0.2723606 0.0946602
0.2076199 0.2724025 0.0927568
0.2287547 0.2724543 0.0900753
0.2504100 0.2725153 0.0862678
0.2724918 0.2725826 0.0807424
0.2949434 0.2726499 0.0723445
0.3177335 0.2727051 0.0581621
0.3408464 0.2727280 0.0211245
0.3449375 0.2738075 0.1974545
0.3480518 0.2763924 0.2336892
0.3523921 0.2801218 0.2534755
0.3578688 0.2848971 0.2676977
0.3644701 0.2907012 0.2796593
0.3722087 0.2975454 0.2907797
0.3810985 0.3054464 0.3017852
0.3911435 0.3144142 0.3130846
0.4023325 0.3244474 0.3249171
0.4146379 0.3355309 0.3374211
0.4280171 0.3476367 0.3506703
0.4424151 0.3607255 0.3646953
0.4577682 0.3747498 0.3794974
0.4740077 0.3896571 0.3950589
0.4910633 0.4053920 0.4113501
0.5088657 0.4218993 0.4283348
0.5273488 0.4391256 0.4459736
0.5464510 0.4570203 0.4642271
0.5661163 0.4755369 0.4830570
0.5862939 0.4946331 0.5024277
0.6069389 0.5142711 0.5223066
0.6280119 0.5344173 0.5426642
0.6494783 0.5550421 0.5634743
0.6713082 0.5761197 0.5847139
0.6934756 0.5976276 0.6063627
0.7159583 0.6195466 0.6284031
0.7387370 0.6418598 0.6508199
0.7617953 0.6645527 0.6735997
0.7851191 0.6876129 0.6967312
0.1958628 0.2923785 0.2042835
0.1958307 0.2923930 0.2040306
0.1957229 0.2924415 0.2031771
0.1954997 0.2925405 0.2013872
0.1951008 0.2927132 0.1981099
0.1944310 0.2929923 0.1923509
0.1933264 0.2934264 0.1820078
0.1914755 0.2940935 0.1613022
0.1898752 0.2950449 0.1070999
0.2096531 0.2950790 0.1056055
0.2302352 0.2951221 0.1035298
0.2514324 0.2951747 0.1006445
0.2731175 0.2952359 0.0965953
0.2952082 0.2953032 0.0907847
0.3176536 0.2953707 0.0820669
0.3404246 0.2954275 0.0676610
0.3635063 0.2954552 0.0344949
0.3702570 0.2962910 0.2063445
0.3731517 0.2986900 0.2493592
0.3772783 0.3022538 0.2714964
0.3825333 0.3068676 0.2868790
0.3889002 0.3125085 0.2994876
0.3963926 0.3191876 0.3109828
0.4050289 0.3269242 0.3222033
0.4148198 0.3357339 0.3336198
0.4257620 0.3456214 0.3455112
0.4378360 0.3565781 0.3580429
0.4510063 0.3685818 0.3713081
0.4652240 0.3815980 0.3853513
0.4804295 0.3955827 0.4001838
0.4965564 0.4104848 0.4157944
0.5135351 0.4262495 0.4321572
0.5312956 0.4428206 0.4492378
0.5497701 0.4601430 0.4669970
0.5688944 0.4781637 0.4853944
0.5886093 0.4968334 0.5043904
0.6088612 0.5161068 0.5239471
0.6296019 0.5359432 0.5440297
0.6507888 0.5563059 0.5646065
0.6723848 0.5771630 0.5856492
0.6943571 0.5984860 0.6071326
0.7166777 0.6202505 0.6290347
0.7393223 0.6424351 0.6513362
0.7622700 0.6650214 0.6740204
0.7855027 0.6879934 0.6970727
0.2137316 0.3149789 0.2226295
0.2137061 0.3149902 0.2224289
0.2136206 0.3150281 0.2217539
0.2134445 0.3151054 0.2203503
0.2131329 0.3152397 0.2178223
0.2126185 0.3154552 0.2135101
0.2117925 0.3157861 0.2061773
0.2104662 0.3162843 0.1930769
0.2082774 0.3170336 0.1658895
0.2122466 0.3177629 0.1186104
0.2321911 0.3177983 0.1169744
0.2528680 0.3178424 0.1147319
0.2741168 0.3178955 0.1116489
0.2958270 0.3179570 0.1073644
0.3179253 0.3180243 0.1012741
0.3403655 0.3180920 0.0922361
0.3631203 0.3181500 0.0775640
0.3861753 0.3181816 0.0462286
0.3953985 0.3188207 0.2139025
0.3980940 0.3210479 0.2648702
0.4020300 0.3244619 0.2895283
0.4070891 0.3289321 0.3061290
0.4132499 0.3344296 0.3194172
0.4205261 0.3409643 0.3313128
0.4289394 0.3485579 0.3427711
0.4385061 0.3572302 0.3543262
0.4492297 0.3669914 0.3662963
0.4610981 0.3778389 0.3788735
0.4740824 0.3897559 0.3921701
0.4881395 0.4027126 0.4062447
0.5032139 0.4166684 0.4211184
0.5192419 0.4315741 0.4367867
0.5361549 0.4473756 0.4532280
0.5538825 0.4640162 0.4704098
0.5723555 0.4814391 0.4882936
0.5915076 0.4995894 0.5068384
0.6112768 0.5184151 0.5260029
0.6316066 0.5378680 0.5457476
0.6524459 0.5579047 0.5660356
0.6737492 0.5784857 0.5868329
0.6954765 0.5995764 0.6081092
0.7175929 0.6211461 0.6298373
0.7400678 0.6431681 0.6519934
0.7628751 0.6656191 0.6745564
0.7859922 0.6884792 0.6975084
0.2318746 0.3375882 0.2412288
0.2318541 0.3375972 0.2410686
0.2317859 0.3376270 0.2405312
0.2316458 0.3376878 0.2394206
0.2313999 0.3377931 0.2374436
0.2309987 0.3379612 0.2341399
0.2303667 0.3382172 0.2287199
0.2293812 0.3385973 0.2196519
0.2278271 0.3391563 0.2033495
0.2252879 0.3399844 0.1676053
0.2346808 0.3404819 0.1305366
0.2547596 0.3405183 0.1287635
0.2755146 0.3405632 0.1263591
0.2968067 0.3406168 0.1230841
0.3185382 0.3406785 0.1185699
0.3406432 0.3407458 0.1122049
0.3630790 0.3408136 0.1028465
0.3858199 0.3408728 0.0878759
0.4088520 0.3409076 0.0575194
0.4203684 0.3413885 0.2199044
0.4228828 0.3434568 0.2802598
0.4266481 0.3467351 0.3075977
0.4315336 0.3510776 0.3254625
0.4375128 0.3564489 0.3394539
0.4445989 0.3628577 0.3517683
0.4528161 0.3703274 0.3634818
0.4621856 0.3788814 0.3751928
0.4727168 0.3885348 0.3872583
0.4844040 0.3992902 0.3998967
0.4972246 0.4111361 0.4132392
0.5111408 0.4240471 0.4273578
0.5261013 0.4379858 0.4422837
0.5420451 0.4529053 0.4580192
0.5589047 0.4687522 0.4745468
0.5766099 0.4854695 0.4918365
0.5950902 0.5029991 0.5098504
0.6142773 0.5212841 0.5285469
0.6341070 0.5402701 0.5478839
0.6545198 0.5599064 0.5678199
0.6754619 0.5801466 0.5883159
0.6968851 0.6009487 0.6093362
0.7187467 0.6222755 0.6308480
0.7410093 0.6440939 0.6528225
0.7636405 0.6663752 0.6752339
0.7866121 0.6890942 0.6980597
0.2502805 0.3602061 0.2600706
0.2502641 0.3602132 0.2599421
0.2502093 0.3602368 0.2595118
0.2500973 0.3602849 0.2586267
0.2499016 0.3603681 0.2570644
0.2495850 0.3605003 0.2544920
0.2490933 0.3607005 0.2503746
0.2483424 0.3609949 0.2437701
0.2471949 0.3614214 0.2327883
0.2454080 0.3620381 0.2127472
0.2425081 0.3629416 0.1651862
0.2571632 0.3632017 0.1428755
0.2773521 0.3632391 0.1409694
0.2981723 0.3632846 0.1384080
0.3195011 0.3633386 0.1349460
0.3412510 0.3634004 0.1302076
0.3633618 0.3634677 0.1235722
0.3857938 0.3635357 0.1138931
0.4085227 0.3635958 0.0985983
0.4315350 0.3636333 0.0687526
0.4451729 0.3639881 0.2240246
0.4475226 0.3659095 0.2955682
0.4511347 0.3690647 0.3257323
0.4558659 0.3732933 0.3448951
0.4616849 0.3785539 0.3596047
0.4686038 0.3848535 0.3723500
0.4766492 0.3922166 0.3843313
0.4858459 0.4006700 0.3962115
0.4962087 0.4102329 0.4083863
0.5077377 0.4209130 0.4210997
0.5204161 0.4327033 0.4345012
0.5342109 0.4455827 0.4486761
0.5490750 0.4595171 0.4636653
0.5649500 0.4744615 0.4794777
0.5817698 0.4903636 0.4961003
0.5994641 0.5071661 0.5135053
0.6179616 0.5248099 0.5316558
0.6371924 0.5432362 0.5505099
0.6570897 0.5623883 0.5700242
0.6775918 0.5822130 0.5901557
0.6986420 0.6026611 0.6108636
0.7201895 0.6236881 0.6321099
0.7421892 0.6452544 0.6538602
0.7646013 0.6673245 0.6760834
0.7873913 0.6898676 0.6987521
0.2689395 0.3828320 0.2791454
0.2689262 0.3828376 0.2790419
0.2688821 0.3828564 0.2786958
0.2687920 0.3828947 0.2779862
0.2686352 0.3829608 0.2767418
0.2683833 0.3830655 0.2747147
0.2679960 0.3832233 0.2715267
0.2674134 0.3834539 0.2665578
0.2665429 0.3837845 0.2586892
0.2652319 0.3842549 0.2455976
0.2632089 0.3849263 0.2211631
0.2601448 0.3858914 0.1571529
0.2796834 0.3859222 0.1556242
0.2999640 0.3859604 0.1535893
0.3208392 0.3860065 0.1508753
0.3421994 0.3860609 0.1472312
0.3639652 0.3861227 0.1422734
0.3860810 0.3861900 0.1353716
0.4085097 0.3862582 0.1253716
0.4312283 0.3863190 0.1097315
0.4542235 0.3863589 0.0801008
0.4698182 0.3866140 0.2257692
0.4720178 0.3883996 0.3108387
0.4754922 0.3914433 0.3439600
0.4800864 0.3955707 0.3644426
0.4857639 0.4007344 0.3798776
