LUTs/luminance_correction_p3.cube
TITLE "Pre-formation 2012 Luminance Correction for Display P3 Target"
# Use CIE 2012 Luminance to Compensate for Some Out-of-Domain Values
# This LUT assumes input and output to be BT.2020 I-D65 encoded in ST2084 (200)
# LUT resolution 33
LUT_3D_SIZE 33
0.0000007 0.0000007 0.0000007
0.0289962 0.0067435 0.0067435
0.0584788 0.0155018 0.0155018
0.0882150 0.0257159 0.0257159
0.1181328 0.0371620 0.0371620
0.1481942 0.0497104 0.0497104
0.1783753 0.0632742 0.0632742
0.2086596 0.0777900 0.0777900
0.2390349 0.0932089 0.0932089
0.2694917 0.1094918 0.1094918
0.3000225 0.1266067 0.1266067
0.3306212 0.1445265 0.1445265
0.3612827 0.1632283 0.1632283
0.3920025 0.1826922 0.1826922
0.4227770 0.2029005 0.2029005
0.4536028 0.2238380 0.2238380
0.4844773 0.2454907 0.2454907
0.5153977 0.2678463 0.2678463
0.5463618 0.2908935 0.2908935
0.5773677 0.3146222 0.3146222
0.6084134 0.3390231 0.3390231
0.6394974 0.3640875 0.3640875
0.6706180 0.3898076 0.3898076
0.7017739 0.4161761 0.4161761
0.7329638 0.4431861 0.4431861
0.7641865 0.4708316 0.4708316
0.7954409 0.4991064 0.4991064
0.8267260 0.5280052 0.5280052
0.8580408 0.5575227 0.5575227
0.8893844 0.5876542 0.5876542
0.9207561 0.6183951 0.6183951
0.9521549 0.6497410 0.6497410
0.9835802 0.6816879 0.6816879
0.0136373 0.0292578 0.0136373
0.0312115 0.0312115 0.0034903
0.0624444 0.0312934 0.0020108
0.0937500 0.0312500 0.0000008
0.1222633 0.0387247 0.0256565
0.1507599 0.0507614 0.0433407
0.1800443 0.0640064 0.0591786
0.2097818 0.0783130 0.0749805
0.2398084 0.0935895 0.0912099
0.2700352 0.1097728 0.1080358
0.3004103 0.1268165 0.1255287
0.3309013 0.1446846 0.1437190
0.3614869 0.1633482 0.1626179
0.3921527 0.1827836 0.1822277
0.4228881 0.2029706 0.2025452
0.4536855 0.2238918 0.2235651
0.4845390 0.2455322 0.2452805
0.5154440 0.2678784 0.2676841
0.5463966 0.2909183 0.2907682
0.5773939 0.3146414 0.3145253
0.6084332 0.3390379 0.3389480
0.6395123 0.3640990 0.3640294
0.6706293 0.3898165 0.3897627
0.7017824 0.4161829 0.4161414
0.7329702 0.4431914 0.4431595
0.7641913 0.4708356 0.4708110
0.7954445 0.4991095 0.4990907
0.8267287 0.5280076 0.5279931
0.8580428 0.5575246 0.5575136
0.8893860 0.5876556 0.5876472
0.9207572 0.6183961 0.6183898
0.9521557 0.6497418 0.6497370
0.9835808 0.6816885 0.6816849
0.0296558 0.0589478 0.0296558
0.0320998 0.0622429 0.0088805
0.0624317 0.0624317 0.0083387
0.0935835 0.0625760 0.0069371
0.1249615 0.0625418 0.0031439
0.1562500 0.0625000 0.0000008
0.1860543 0.0666452 0.0302341
0.2138480 0.0802092 0.0607450
0.2426232 0.0949752 0.0823195
0.2720188 0.1107986 0.1019928
0.3018282 0.1275838 0.1212339
0.3319266 0.1452633 0.1405829
0.3622355 0.1637876 0.1602869
0.3927034 0.1831190 0.1804737
0.4232959 0.2032277 0.2012139
0.4539890 0.2240896 0.2225482
0.4847659 0.2456847 0.2445003
0.5156141 0.2679961 0.2670835
0.5465245 0.2910094 0.2903049
0.5774902 0.3147119 0.3141675
0.6085058 0.3390925 0.3386715
0.6395671 0.3641412 0.3638157
0.6706706 0.3898491 0.3895977
0.7018136 0.4162081 0.4160141
0.7329937 0.4432108 0.4430613
0.7642090 0.4708506 0.4707356
0.7954578 0.4991210 0.4990328
0.8267387 0.5280163 0.5279489
0.8580503 0.5575312 0.5574798
0.8893915 0.5876607 0.5876216
0.9207613 0.6183999 0.6183704
0.9521588 0.6497446 0.6497224
0.9835831 0.6816906 0.6816740
0.0471638 0.0888626 0.0471638
0.0478999 0.0905941 0.0405878
0.0631106 0.0934632 0.0150117
0.0936563 0.0936563 0.0142911
0.1247666 0.0938215 0.0127913
0.1561050 0.0938676 0.0096837
0.1875000 0.0937500 0.0000008
0.2187500 0.0937500 0.0000008
0.2486752 0.0979563 0.0418919
0.2763075 0.1130177 0.0828552
0.3049068 0.1292504 0.1094206
0.3341598 0.1465239 0.1325953
0.3638693 0.1647468 0.1546219
0.3939074 0.1838523 0.1763386
0.4241883 0.2037904 0.1981387
0.4546538 0.2245227 0.2202323
0.4852630 0.2460188 0.2427409
0.5159870 0.2682544 0.2657388
0.5468049 0.2912092 0.2892729
0.5777014 0.3148665 0.3133733
0.6086651 0.3392122 0.3380595
0.6396873 0.3642338 0.3633437
0.6707613 0.3899207 0.3892336
0.7018820 0.4162634 0.4157335
0.7330452 0.4432535 0.4428454
0.7642478 0.4708833 0.4705697
0.7954869 0.4991461 0.4989056
0.8267605 0.5280356 0.5278516
0.8580666 0.5575459 0.5574057
0.8894036 0.5876718 0.5875654
0.9207703 0.6184084 0.6183279
0.9521654 0.6497510 0.6496904
0.9835880 0.6816954 0.6816500
0.0658385 0.1189382 0.0658385
0.0662858 0.1199191 0.0623870
0.0678968 0.1237387 0.0364498
0.0942508 0.1246902 0.0221176
0.1248841 0.1248841 0.0212413
0.1559694 0.1250593 0.0196146
0.1872749 0.1251478 0.0166017
0.2186685 0.1250943 0.0102822
0.2500000 0.1250000 0.0000008
0.2812500 0.1250000 0.0000008
0.3104655 0.1322605 0.0680368
0.3382108 0.1488115 0.1117859
0.3668442 0.1664936 0.1416226
0.3961056 0.1851913 0.1675065
0.4258211 0.2048201 0.1918591
0.4558719 0.2253164 0.2156418
0.4861749 0.2466319 0.2393241
0.5166717 0.2687285 0.2631647
0.5473201 0.2915762 0.2873176
0.5780897 0.3151508 0.3118798
0.6089580 0.3394323 0.3369146
0.6399083 0.3644041 0.3624642
0.6709281 0.3900524 0.3885574
0.7020078 0.4163651 0.4152135
0.7331401 0.4433319 0.4424458
0.7643192 0.4709436 0.4702630
0.7955406 0.4991924 0.4986707
0.8268007 0.5280710 0.5276722
0.8580966 0.5575729 0.5572690
0.8894260 0.5876923 0.5874616
0.9207869 0.6184239 0.6182495
0.9521777 0.6497627 0.6496314
0.9835970 0.6817041 0.6816058
0.0854986 0.1491408 0.0854986
0.0857876 0.1497439 0.0833889
0.0868373 0.1520160 0.0728693
0.0954597 0.1557580 0.0307213
0.1254322 0.1559203 0.0301506
0.1561143 0.1561143 0.0291308
0.1871831 0.1562953 0.0273683
0.2184626 0.1564094 0.0243173
0.2498414 0.1564072 0.0186651
0.2812500 0.1562500 0.0000008
0.3125000 0.1562500 0.0000008
0.3437500 0.1562500 0.0000008
0.3717454 0.1693720 0.1049681
0.3997417 0.1874065 0.1474573
0.4285306 0.2065288 0.1790209
0.4578982 0.2266369 0.2068192
0.4876947 0.2476536 0.2330136
0.5178143 0.2695198 0.2585368
0.5481808 0.2921894 0.2838678
0.5787388 0.3156260 0.3092800
0.6094480 0.3398005 0.3349410
0.6402783 0.3646892 0.3609589
0.6712075 0.3902729 0.3874059
0.7022186 0.4165354 0.4143315
0.7332990 0.4434632 0.4417700
0.7644388 0.4710447 0.4697455
0.7956304 0.4992699 0.4982751
0.8268680 0.5281303 0.5273703
0.8581470 0.5576181 0.5570393
0.8894635 0.5877267 0.5872874
0.9208148 0.6184499 0.6181178
0.9521983 0.6497822 0.6495324
0.9836121 0.6817188 0.6815317
0.1060246 0.1794493 0.1060246
0.1062192 0.1798394 0.1046407
0.1069291 0.1812914 0.0986416
0.1084621 0.1846134 0.0765741
0.1264969 0.1869851 0.0397673
0.1566330 0.1871527 0.0390781
0.1873466 0.1873466 0.0379225
0.2184038 0.1875312 0.0360208
0.2496627 0.1876622 0.0328770
0.2810272 0.1876953 0.0274287
0.3124336 0.1875907 0.0159837
0.3437500 0.1875000 0.0000008
0.3750000 0.1875000 0.0000008
0.4053792 0.1908408 0.0718215
0.4327485 0.2091889 0.1485241
0.4610632 0.2286995 0.1888546
0.4900751 0.2492539 0.2211819
0.5196078 0.2707618 0.2502910
0.5495339 0.2931534 0.2779250
0.5797606 0.3163740 0.3049045
0.6102200 0.3403806 0.3316738
0.6408617 0.3651388 0.3584964
0.6716482 0.3906208 0.3855387
0.7025513 0.4168043 0.4129104
0.7335499 0.4436705 0.4406864
0.7646277 0.4712042 0.4689188
0.7957724 0.4993924 0.4976446
0.8269744 0.5282240 0.5268902
0.8582265 0.5576896 0.5566746
0.8895228 0.5877809 0.5870111
0.9208588 0.6184909 0.6179093
0.9522308 0.6498131 0.6493756
0.9836360 0.6817419 0.6814145
0.1273305 0.2098489 0.1273305
0.1274654 0.2101104 0.1263841
0.1279588 0.2110782 0.1225476
0.1290305 0.2132487 0.1114714
0.1309656 0.2174729 0.0662519
0.1576049 0.2182162 0.0496793
0.1878449 0.2183869 0.0488777
0.2185806 0.2185806 0.0475914
0.2496293 0.2187678 0.0455489
0.2808718 0.2189106 0.0422836
0.3122233 0.2189691 0.0368652
0.3436243 0.2189055 0.0267129
0.3750000 0.2187500 0.0000008
0.4062500 0.2187500 0.0000009
0.4375000 0.2187500 0.0000009
0.4657873 0.2317777 0.1413765
0.4936406 0.2516508 0.1965522
0.5223020 0.2726276 0.2349062
0.5515712 0.2946049 0.2675214
0.5813020 0.3175024 0.2975521
0.6113863 0.3412569 0.3263346
0.6417439 0.3658185 0.3545504
0.6723152 0.3911473 0.3825884
0.7030552 0.4172114 0.4106880
0.7339300 0.4439847 0.4390044
0.7649140 0.4714461 0.4676427
0.7959875 0.4995780 0.4966756
0.8271358 0.5283661 0.5261547
0.8583471 0.5577979 0.5561171
0.8896127 0.5878633 0.5865895
0.9209255 0.6185532 0.6175915
0.9522801 0.6498600 0.6491370
0.9836723 0.6817770 0.6812361
0.1493507 0.2403289 0.1493507
0.1494463 0.2405088 0.1486852
0.1497965 0.2411726 0.1460844
0.1505597 0.2426479 0.1393514
0.1519462 0.2454433 0.1212684
0.1591300 0.2493121 0.0610186
0.1887521 0.2494499 0.0604425
0.2190641 0.2496227 0.0595329
0.2498162 0.2498162 0.0581197
0.2808584 0.2500052 0.0559354
0.3120876 0.2501567 0.0525312
0.3434277 0.2502342 0.0470538
0.3748229 0.2502018 0.0374125
0.4062357 0.2500239 0.0114703
0.4375000 0.2500000 0.0000009
0.4687500 0.2500000 0.0000009
0.4988014 0.2551189 0.1148718
0.5262154 0.2753371 0.2014081
0.5545395 0.2967193 0.2479502
0.5835531 0.3191502 0.2847662
0.6130929 0.3425392 0.3174913
0.6430370 0.3668147 0.3482234
0.6732940 0.3919199 0.3779636
0.7037952 0.4178093 0.4072599
0.7344887 0.4444464 0.4364403
0.7653350 0.4718017 0.4657141
0.7963041 0.4998512 0.4952204
0.8273732 0.5285752 0.5250554
0.8585247 0.5579575 0.5552868
0.8897450 0.5879845 0.5859634
0.9210237 0.6186449 0.6171204
0.9523528 0.6499291 0.6487838
0.9837258 0.6818288 0.6809724
0.1720332 0.2708809 0.1720332
0.1721020 0.2710071 0.1715558
0.1723546 0.2714722 0.1697298
0.1729064 0.2725008 0.1652755
0.1739128 0.2744261 0.1550114
0.1755747 0.2777712 0.1268647
0.1901587 0.2805435 0.0727083
0.2199236 0.2806857 0.0720461
0.2502884 0.2808598 0.0710320
0.2810531 0.2810531 0.0694946
0.3120903 0.2812436 0.0671678
0.3433087 0.2814017 0.0636127
0.3746389 0.2814938 0.0580228
0.4060284 0.2814858 0.0485731
0.4374403 0.2813430 0.0282349
0.4687500 0.2812500 0.0000009
0.5000000 0.2812500 0.0000009
0.5312500 0.2812500 0.0000009
0.5587514 0.2997186 0.2022300
0.5867574 0.3214951 0.2602739
0.6155284 0.3443688 0.3021046
0.6448861 0.3682392 0.3378260
0.6746960 0.3930264 0.3706410
0.7048566 0.4186668 0.4019689
0.7352908 0.4451093 0.4325538
0.7659399 0.4723127 0.4628287
0.7967593 0.5002439 0.4930641
0.8277148 0.5288760 0.5234380
0.8587802 0.5581870 0.5540717
0.8899355 0.5881590 0.5850506
0.9211652 0.6187770 0.6164359
0.9524574 0.6500285 0.6482717
0.9838027 0.6819033 0.6805907
0.1953353 0.3014982 0.1953353
0.1953856 0.3015882 0.1949877
0.1955701 0.3019193 0.1936758
0.1959738 0.3026499 0.1905866
0.1967123 0.3040084 0.1840180
0.1979368 0.3063329 0.1694172
0.1998409 0.3101656 0.1258346
0.2212431 0.3117777 0.0852276
0.2511116 0.3119232 0.0844818
0.2815165 0.3120982 0.0833660
0.3122913 0.3122913 0.0817066
0.3433246 0.3124829 0.0792367
0.3745341 0.3126461 0.0755217
0.4058557 0.3127499 0.0697833
0.4372399 0.3127613 0.0603536
0.4686503 0.3126465 0.0418900
0.5000000 0.3125000 0.0000009
0.5312500 0.3125000 0.0000009
0.5625000 0.3125000 0.0000009
0.5912217 0.3247607 0.1967153
0.6189323 0.3469251 0.2718447
0.6474773 0.3702349 0.3196370
0.6766651 0.3945803 0.3586501
0.7063500 0.4198732 0.3936610
0.7364209 0.4460431 0.4266221
0.7667932 0.4730333 0.4585121
0.7974018 0.5007982 0.4898842
0.8281972 0.5293008 0.5210776
0.8591413 0.5585114 0.5523122
0.8902048 0.5884057 0.5837365
0.9213652 0.6189637 0.6154545
0.9526053 0.6501692 0.6475399
0.9839116 0.6820087 0.6800466
0.2192215 0.3321754 0.2192215
0.2192586 0.3322403 0.2189656
0.2193948 0.3324792 0.2180076
0.2196931 0.3330052 0.2158012
0.2202398 0.3339799 0.2113278
0.2211491 0.3356345 0.2023493
0.2225690 0.3383136 0.1823966
0.2246874 0.3425811 0.1115290
0.2523647 0.3430141 0.0985707
0.2823113 0.3431621 0.0977436
0.3127476 0.3433377 0.0965285
0.3435307 0.3435307 0.0947490
0.3745608 0.3437231 0.0921352
0.4057629 0.3438905 0.0882531
0.4370773 0.3440035 0.0823396
0.4684566 0.3440306 0.0728222
0.4998653 0.3439388 0.0551973
0.5312500 0.3437500 0.0000009
0.5625000 0.3437500 0.0000009
0.5937500 0.3437500 0.0000009
0.6236063 0.3504332 0.1792471
0.6510467 0.3729830 0.2826450
0.6793849 0.3967259 0.3374882
0.7084174 0.4215429 0.3800671
0.7379884 0.4473380 0.4173596
0.7679783 0.4740341 0.4519783
0.7982953 0.5015688 0.4851743
0.8288687 0.5298921 0.5176354
0.8596442 0.5589632 0.5497749
0.8905801 0.5887494 0.5818573
0.9216441 0.6192240 0.6140596
0.9528116 0.6503654 0.6465047
0.9840635 0.6821557 0.6792795
0.2436616 0.3629079 0.2436616
0.2436892 0.3629552 0.2434714
0.2437906 0.3631293 0.2427634
0.2440128 0.3635122 0.2411564
0.2444205 0.3642202 0.2379945
0.2451000 0.3654166 0.2320128
0.2461647 0.3673357 0.2203001
0.2477597 0.3703301 0.1936983
0.2541475 0.3741324 0.1133563
0.2835125 0.3742524 0.1127336
0.3135198 0.3744022 0.1118272
0.3439813 0.3745782 0.1105149
0.3747711 0.3747711 0.1086165
0.4057988 0.3749642 0.1058582
0.4369948 0.3751350 0.1018028
0.4683029 0.3752556 0.0956929
0.4996778 0.3752956 0.0860127
0.5310849 0.3752225 0.0687344
0.5624994 0.3750011 0.0042839
0.5937500 0.3750000 0.0000009
0.6250000 0.3750000 0.0000009
0.6558909 0.3767097 0.1251698
0.6830877 0.3996456 0.2926865
0.7112399 0.4238216 0.3558101
0.7401333 0.4491096 0.4021883
0.7696032 0.4754060 0.4418133
0.7995222 0.5026270 0.4780902
0.8297919 0.5307049 0.5125772
0.8603363 0.5595849 0.5461078
0.8910969 0.5892227 0.5791735
0.9220284 0.6195827 0.6120851
0.9530960 0.6506358 0.6450486
0.9842730 0.6823584 0.6782057
0.2686294 0.3936919 0.2686294
0.2686501 0.3937267 0.2684871
0.2687261 0.3938546 0.2679591
0.2688926 0.3941358 0.2667724
0.2691985 0.3946549 0.2644832
0.2697092 0.3955298 0.2603105
0.2705111 0.3969257 0.2526983
0.2717164 0.3990804 0.2379017
0.2734682 0.4023545 0.2029519
0.2852145 0.4053697 0.1283986
0.3146798 0.4054923 0.1277133
0.3447351 0.4056434 0.1267296
0.3752170 0.4058197 0.1253219
0.4060124 0.4060124 0.1233059
0.4370382 0.4062062 0.1204021
0.4682292 0.4063797 0.1161679
0.4995320 0.4065066 0.1098438
0.5309031 0.4065573 0.0999434
0.5623086 0.4064996 0.0827212
0.5937235 0.4062987 0.0376561
0.6250000 0.4062500 0.0000009
0.6562500 0.4062500 0.0000009
0.6875000 0.4062500 0.0000009
0.7150462 0.4268928 0.3020334
0.7430341 0.4515045 0.3747827
0.7718061 0.4772652 0.4251305
0.8011888 0.5040639 0.4670970
0.8310479 0.5318104 0.5050068
0.8612791 0.5604315 0.5407532
0.8918016 0.5898681 0.5753227
0.9225528 0.6200721 0.6092874
0.9534844 0.6510049 0.6430044
0.9845591 0.6826353 0.6767085
0.2941021 0.4245241 0.2941021
0.2941177 0.4245498 0.2939949
0.2941749 0.4246444 0.2935985
0.2943004 0.4248523 0.2927134
0.2945310 0.4252358 0.2910287
0.2949165 0.4258810 0.2880325
0.2955229 0.4269071 0.2828015
0.2964365 0.4284814 0.2734422
0.2977688 0.4308449 0.2551905
0.2996611 0.4343667 0.2095881
0.3163178 0.4366089 0.1442541
0.3458619 0.4367336 0.1435078
0.3759559 0.4368857 0.1424486
0.4064546 0.4370622 0.1409473
0.4372547 0.4372547 0.1388146
0.4682790 0.4374490 0.1357645
0.4994658 0.4376249 0.1313460
0.5307642 0.4377570 0.1247919
0.5621321 0.4378165 0.1146245
0.5935360 0.4377716 0.0972616
0.6249512 0.4375876 0.0565793
0.6562500 0.4375000 0.0000009
0.6875000 0.4375000 0.0000010
0.7187500 0.4375000 0.0000010
0.7469159 0.4547070 0.3108404
0.7747622 0.4797591 0.3946125
0.8034308 0.5059964 0.4490121
0.8327410 0.5333004 0.4932812
0.8625521 0.5615746 0.5327719
0.8927544 0.5907404 0.5697299
0.9232625 0.6207343 0.6052975
0.9540104 0.6515049 0.6401270
0.9849468 0.6830106 0.6746209
0.3200593 0.4554016 0.3200593
0.3200711 0.4554207 0.3199782
0.3201144 0.4554911 0.3196791
0.3202094 0.4556457 0.3190141
0.3203840 0.4559306 0.3177601
0.3206760 0.4564094 0.3155668
0.3211360 0.4571695 0.3118468
0.3218303 0.4583313 0.3055191
0.3228454 0.4600639 0.2943064
0.3242920 0.4626116 0.2722112
0.3263100 0.4663516 0.2126710
0.3474487 0.4678497 0.1609216
0.3770558 0.4679760 0.1601160
0.4071812 0.4681289 0.1589832
0.4376937 0.4683054 0.1573899
0.4684978 0.4684978 0.1551413
0.4995209 0.4686926 0.1519439
0.5307043 0.4688705 0.1473360
0.5619991 0.4690070 0.1405370
0.5933642 0.4690738 0.1300619
0.6247669 0.4690396 0.1124103
0.6561822 0.4688693 0.0735513
0.6875000 0.4687500 0.0000009
0.7187500 0.4687500 0.0000009
0.7500000 0.4687500 0.0000010
0.7786932 0.4830728 0.3194119
0.8064208 0.5085721 0.4155271
0.8350046 0.5352916 0.4739480
0.8642576 0.5631054 0.5204297
0.8940330 0.5919108 0.5614225
0.9242162 0.6216241 0.5995290
0.9547179 0.6521774 0.6360446
0.9854688 0.6835157 0.6716988
0.3464831 0.4863218 0.3464831
0.3464920 0.4863361 0.3464215
0.3465249 0.4863887 0.3461948
0.3465970 0.4865041 0.3456925
0.3467296 0.4867168 0.3447515
0.3469515 0.4870740 0.3431246
0.3473014 0.4876402 0.3404192
0.3478302 0.4885037 0.3359670
0.3486048 0.4897861 0.3285153
0.3497115 0.4916580 0.3153576
0.3512605 0.4943672 0.2890208
0.3533908 0.4982982 0.2104948
0.3786014 0.4990920 0.1784007
0.4082592 0.4992196 0.1775375
0.4384104 0.4993730 0.1763328
0.4689342 0.4995495 0.1746490
0.4997418 0.4997418 0.1722853
0.5307640 0.4999369 0.1689394
0.5619447 0.5001165 0.1641370
0.5932364 0.5002567 0.1570790
0.6245993 0.5003298 0.1462590
0.6560009 0.5003042 0.1281978
0.6874163 0.5001450 0.0899664
0.7187500 0.5000000 0.0000009
0.7500000 0.5000000 0.0000010
0.7812500 0.5000000 0.0000010
0.8103765 0.5119770 0.3282844
0.8380083 0.5379322 0.4377654
0.8665263 0.5651410 0.5000447
0.8957375 0.5934706 0.5485967
0.9254897 0.6228119 0.5909877
0.9556641 0.6530764 0.6301659
0.9861676 0.6841918 0.6675714
0.3733571 0.5172826 0.3733571
0.3733640 0.5172933 0.3733104
0.3733890 0.5173327 0.3731380
0.3734439 0.5174192 0.3727571
0.3735448 0.5175786 0.3720468
0.3737139 0.5178460 0.3708288
0.3739805 0.5182696 0.3688313
0.3743839 0.5189146 0.3656171
0.3749757 0.5198701 0.3604328
0.3758230 0.5212587 0.3518429
0.3770119 0.5232522 0.3366682
0.3786522 0.5261015 0.3056924
0.3808825 0.5301982 0.1993613
0.4097716 0.5303357 0.1966914
0.4394706 0.5304642 0.1957723
0.4696427 0.5306179 0.1944975
0.5001761 0.5307944 0.1927248
0.5309865 0.5309865 0.1902466
0.5620081 0.5311820 0.1867511
0.5931866 0.5313630 0.1817488
0.6244760 0.5315064 0.1744179
0.6558371 0.5315846 0.1632175
0.6872379 0.5315661 0.1446405
0.7186534 0.5314158 0.1063019
0.7500000 0.5312500 0.0000010
0.7812500 0.5312500 0.0000010
0.8125000 0.5312500 0.0000010
0.8419660 0.5414083 0.3383218
0.8695247 0.5678295 0.4615624
0.8979959 0.5955362 0.5273944
0.9271808 0.6243887 0.5778249
0.9569226 0.6542720 0.6214879
0.9870984 0.6850922 0.6616495
0.4006669 0.5482819 0.4006669
0.4006721 0.5482900 0.4006312
0.4006912 0.5483196 0.4004999
0.4007330 0.5483846 0.4002102
0.4008100 0.5485043 0.3996719
0.4009390 0.5487051 0.3987542
0.4011425 0.5490230 0.3972638
0.4014507 0.5495066 0.3949032
0.4019032 0.5502217 0.3911901
0.4025520 0.5512581 0.3852831
0.4034644 0.5527390 0.3755554
0.4047265 0.5548376 0.3583163
0.4064480 0.5578070 0.3223205
0.4118226 0.5614758 0.2165000
0.4409564 0.5615806 0.2157942
0.4706887 0.5617097 0.2148211
0.5008780 0.5618636 0.2134780
0.5314190 0.5620399 0.2116177
0.5622319 0.5622319 0.2090257
0.5932531 0.5624278 0.2053792
0.6244300 0.5626101 0.2001717
0.6557176 0.5627561 0.1925536
0.6870774 0.5628385 0.1809378
0.7184775 0.5628258 0.1617462
0.7498931 0.5626822 0.1227641
0.7812500 0.5625000 0.0000010
0.8125000 0.5625000 0.0000010
0.8437500 0.5625000 0.0000010
0.8734631 0.5713573 0.3507744
0.9009714 0.5982558 0.4871312
0.9294145 0.6264704 0.5560695
0.9585887 0.6558541 0.6081433
0.9883328 0.6862859 0.6529337
0.4283990 0.5793180 0.4283990
0.4284029 0.5793240 0.4283717
0.4284175 0.5793463 0.4282716
0.4284495 0.5793953 0.4280508
0.4285083 0.5794854 0.4276416
0.4286067 0.5796365 0.4269471
0.4287622 0.5798756 0.4258272
0.4289978 0.5802391 0.4240731
0.4293440 0.5807760 0.4213619
0.4298409 0.5815528 0.4171660
0.4305408 0.5826593 0.4105554
0.4315110 0.5842194 0.3997064
0.4328379 0.5864071 0.3803853
0.4346309 0.5894781 0.3390257
0.4429705 0.5927210 0.2364573
0.4721534 0.5928265 0.2357101
0.5019126 0.5929560 0.2346848
0.5321157 0.5931101 0.2332752
0.5626631 0.5932862 0.2313289
0.5934780 0.5934780 0.2286236
0.6244990 0.5936742 0.2248246
0.6556748 0.5938576 0.2194062
0.6869611 0.5940059 0.2114864
0.7183200 0.5940917 0.1994197
0.7497198 0.5940835 0.1795165
0.7811355 0.5939447 0.1394451
0.8125000 0.5937500 0.0000010
0.8437500 0.5937500 0.0000010
0.8750000 0.5937500 0.0000010
0.9048705 0.6018159 0.3671966
0.9323507 0.6292047 0.5146421
0.9607844 0.6579380 0.5861181
0.9899632 0.6878620 0.6395661
0.4565411 0.6103891 0.4565411
0.4565442 0.6103937 0.4565203
0.4565553 0.6104105 0.4564439
0.4565797 0.6104474 0.4562755
0.4566246 0.6105153 0.4559639
0.4566999 0.6106292 0.4554367
0.4568187 0.6108093 0.4545910
0.4569988 0.6110830 0.4532771
0.4572637 0.6114870 0.4512718
0.4576442 0.6120706 0.4482271
0.4581808 0.6129005 0.4435710
0.4589259 0.6140668 0.4362857
0.4599471 0.6156937 0.4243490
0.4613306 0.6179558 0.4029632
0.4631858 0.6211106 0.3559608
0.4741390 0.6239674 0.2572271
0.5033610 0.6240735 0.2564402
0.5331416 0.6242032 0.2553647
0.5633557 0.6243572 0.2538904
0.5939082 0.6245331 0.2518597
0.6247248 0.6247248 0.2490417
0.6557458 0.6249212 0.2450887
0.6869208 0.6251056 0.2394534
0.7182064 0.6252558 0.2312165
0.7495648 0.6253444 0.2186620
0.7809644 0.6253395 0.1979486
0.8123803 0.6252039 0.1563763
0.8437500 0.6250000 0.0000010
0.8750000 0.6250000 0.0000010
0.9062500 0.6250000 0.0000010
0.9361920 0.6327779 0.3891165
0.9636660 0.6606707 0.5442059
0.9921086 0.6899348 0.6175615
0.4850822 0.6414939 0.4850822
0.4850845 0.6414974 0.4850663
0.4850930 0.6415100 0.4850079
0.4851116 0.6415379 0.4848794
0.4851460 0.6415891 0.4846419
0.4852035 0.6416749 0.4842410
0.4852943 0.6418107 0.4836004
0.4854320 0.6420170 0.4826110
0.4856346 0.6423213 0.4811146
0.4859259 0.6427606 0.4788737
0.4863369 0.6433844 0.4755169
0.4869085 0.6442593 0.4704291
0.4876931 0.6454755 0.4625077
0.4887584 0.6471573 0.4495350
0.4901908 0.6494798 0.4261404
0.4920996 0.6527017 0.3733155
0.5053252 0.6552150 0.2788107
0.5345779 0.6553214 0.2779861
0.5643752 0.6554512 0.2768623
0.5945978 0.6556050 0.2753254
0.6251542 0.6557807 0.2732117
0.6559722 0.6559722 0.2702816
0.6869934 0.6561688 0.2661728
0.7181681 0.6563541 0.2603144
0.7494533 0.6565059 0.2517442
0.7808115 0.6565967 0.2386627
0.8122113 0.6565940 0.2170352
0.8436275 0.6564599 0.1735494
0.8750000 0.6562500 0.0000010
0.9062500 0.6562500 0.0000010
0.9375000 0.6562500 0.0000011
0.9674322 0.6642384 0.4175154
0.9949214 0.6926501 0.5758623
0.5140117 0.6726310 0.5140117
0.5140135 0.6726336 0.5139996
0.5140200 0.6726431 0.5139550
0.5140342 0.6726641 0.5138569
0.5140604 0.6727028 0.5136758
0.5141043 0.6727675 0.5133708
0.5141737 0.6728699 0.5128846
0.5142790 0.6730255 0.5121371
0.5144338 0.6732548 0.5110140
0.5146565 0.6735857 0.5093487
0.5149711 0.6740551 0.5068909
0.5154089 0.6747126 0.5032470
0.5160107 0.6756246 0.4977620
0.5168293 0.6768813 0.4892526
0.5179322 0.6786067 0.4753135
0.5194061 0.6809763 0.4500088
0.5213603 0.6842496 0.3913194
0.5365270 0.6864637 0.3012099
0.5658031 0.6865702 0.3003495
0.5956129 0.6867000 0.2991795
0.6258419 0.6868535 0.2975819
0.6564011 0.6870288 0.2953870
0.6872202 0.6872202 0.2923453
0.7182417 0.6874171 0.2880790
0.7494164 0.6876031 0.2819906
0.7807017 0.6877562 0.2730697
0.8120602 0.6878485 0.2594191
0.8434603 0.6878471 0.2367654
0.8748768 0.6877129 0.1909236
0.9062500 0.6875000 0.0000010
0.9375000 0.6875000 0.0000010
0.9687500 0.6875000 0.0000011
0.9985964 0.6961937 0.4524393
0.5433201 0.7037991 0.5433201
0.5433214 0.7038011 0.5433108
0.5433264 0.7038083 0.5432768
0.5433373 0.7038241 0.5432020
0.5433573 0.7038532 0.5430641
0.5433908 0.7039021 0.5428319
0.5434438 0.7039793 0.5424627
0.5435241 0.7040965 0.5418968
0.5436423 0.7042693 0.5410508
0.5438125 0.7045185 0.5398056
0.5440529 0.7048719 0.5379873
0.5443877 0.7053664 0.5353337
0.5448484 0.7060512 0.5314314
0.5454759 0.7069929 0.5255887
0.5463229 0.7082810 0.5165484
0.5474572 0.7100395 0.5017302
0.5489653 0.7124437 0.4746579
0.5509571 0.7157532 0.4102411
0.5677428 0.7177135 0.3244264
0.5970358 0.7178199 0.3235323
0.6268544 0.7179494 0.3223183
0.6570877 0.7181026 0.3206622
0.6876488 0.7182776 0.3183877
0.7184688 0.7184688 0.3152349
0.7494907 0.7186659 0.3108092
0.7806659 0.7188526 0.3044835
0.8119516 0.7190066 0.2951932
0.8433107 0.7191000 0.2809276
0.8747114 0.7190989 0.2571237
0.9061282 0.7189631 0.2084268
0.9375000 0.7187500 0.0000011
0.9687500 0.7187500 0.0000011
