LUTs/luminance_correction_p3.cube
TITLE "Pre-formation 2012 Luminance Correction for Display P3 Target"
# Use CIE 2012 Luminance to Compensate for Some Out-of-Domain Values
# This LUT assumes input and output to be BT.2020 I-D65 encoded in ST2084 (200)
# LUT resolution 33
LUT_3D_SIZE 9
0.0000007 0.0000007 0.0000007
0.1181328 0.0371620 0.0371620
0.2390349 0.0932089 0.0932089
0.3612827 0.1632283 0.1632283
0.4844773 0.2454907 0.2454907
0.6084134 0.3390231 0.3390231
0.7329638 0.4431861 0.4431861
0.8580408 0.5575227 0.5575227
0.9835802 0.6816879 0.6816879
0.0658385 0.1189382 0.0658385
0.1248841 0.1248841 0.0212413
0.2500000 0.1250000 0.0000008
0.3668442 0.1664936 0.1416226
0.4861749 0.2466319 0.2393241
0.6089580 0.3394323 0.3369146
0.7331401 0.4433319 0.4424458
0.8580966 0.5575729 0.5572690
0.9835970 0.6817041 0.6816058
0.1493507 0.2403289 0.1493507
0.1519462 0.2454433 0.1212684
0.2498162 0.2498162 0.0581197
0.3748229 0.2502018 0.0374125
0.4988014 0.2551189 0.1148718
0.6130929 0.3425392 0.3174913
0.7344887 0.4444464 0.4364403
0.8585247 0.5579575 0.5552868
0.9837258 0.6818288 0.6809724
0.2436616 0.3629079 0.2436616
0.2444205 0.3642202 0.2379945
0.2541475 0.3741324 0.1133563
0.3747711 0.3747711 0.1086165
0.4996778 0.3752956 0.0860127
0.6250000 0.3750000 0.0000009
0.7401333 0.4491096 0.4021883
0.8603363 0.5595849 0.5461078
0.9842730 0.6823584 0.6782057
0.3464831 0.4863218 0.3464831
0.3467296 0.4867168 0.3447515
0.3486048 0.4897861 0.3285153
0.3786014 0.4990920 0.1784007
0.4997418 0.4997418 0.1722853
0.6245993 0.5003298 0.1462590
0.7500000 0.5000000 0.0000010
0.8665263 0.5651410 0.5000447
0.9861676 0.6841918 0.6675714
0.4565411 0.6103891 0.4565411
0.4566246 0.6105153 0.4559639
0.4572637 0.6114870 0.4512718
0.4599471 0.6156937 0.4243490
0.5033610 0.6240735 0.2564402
0.6247248 0.6247248 0.2490417
0.7495648 0.6253444 0.2186620
0.8750000 0.6250000 0.0000010
0.9921086 0.6899348 0.6175615
0.5729984 0.7349971 0.5729984
0.5730268 0.7350379 0.5728035
0.5732441 0.7353513 0.5712794
0.5741648 0.7366911 0.5642104
0.5773231 0.7414540 0.5288260
0.6282755 0.7490705 0.3475366
0.7497180 0.7497180 0.3389531
0.8745630 0.7503512 0.3031835
1.0000000 0.7500000 0.0000011
0.6952522 0.8600685 0.6952522
0.6952615 0.8600814 0.6951880
0.6953333 0.8601804 0.6946919
0.6956382 0.8606027 0.6925227
0.6966955 0.8620821 0.6841541
0.7000232 0.8669157 0.6445894
0.7532969 0.8740803 0.4518157
0.8747198 0.8747198 0.4421647
0.9995883 0.8753529 0.3995365
0.8228428 0.9855464 0.8228428
0.8228457 0.9855503 0.8228228
0.8228681 0.9855800 0.8226687
0.8229633 0.9857067 0.8220076
0.8232947 0.9861491 0.8196309
0.8243498 0.9875728 0.8111838
0.8275762 0.9920866 0.7726070
0.8784142 0.9991019 0.5694359
0.9997292 0.9997292 0.5588674
0.0336080 0.0336080 0.1115104
0.1205835 0.0406652 0.1205835
0.2396351 0.0941455 0.1362586
0.3614467 0.1635272 0.1811183
0.4845272 0.2455945 0.2522520
0.6084294 0.3390602 0.3415063
0.7329690 0.4431994 0.4440772
0.8580424 0.5575273 0.5578302
0.9835807 0.6816893 0.6817875
0.0715059 0.1210776 0.1210776
0.1250000 0.1250000 0.1250000
0.2500000 0.1250000 0.1250000
0.3669214 0.1667471 0.1667471
0.4862177 0.2467314 0.2467314
0.6089733 0.3394689 0.3394689
0.7331452 0.4433450 0.4433450
0.8580983 0.5575774 0.5575774
0.9835975 0.6817056 0.6817056
0.1506302 0.2407338 0.1684591
0.1531699 0.2455295 0.1531699
0.2500000 0.2500000 0.1250000
0.3750000 0.2500000 0.1250000
0.4987910 0.2551860 0.1529447
0.6131030 0.3425723 0.3207764
0.7344933 0.4444592 0.4374082
0.8585263 0.5579620 0.5556024
0.9837263 0.6818302 0.6810729
0.2440338 0.3630148 0.2498018
0.2447889 0.3643106 0.2447889
0.2504089 0.3749180 0.1280931
0.3750000 0.3750000 0.1250000
0.5000000 0.3750000 0.1250000
0.6250000 0.3750000 0.1250000
0.7401357 0.4491206 0.4036314
0.8603377 0.5595892 0.5464587
0.9842734 0.6823599 0.6783095
0.3466038 0.4863542 0.3485244
0.3468500 0.4867478 0.3468500
0.3487227 0.4898064 0.3311995
0.3773897 0.4994049 0.1786209
0.4998426 0.4998426 0.1723419
0.6248575 0.5001178 0.1459424
0.7500000 0.5000000 0.1250000
0.8665269 0.5651447 0.5006244
0.9861680 0.6841932 0.6676884
0.4565820 0.6103995 0.4572368
0.4566655 0.6105255 0.4566655
0.4573043 0.6114962 0.4520225
0.4599865 0.6156984 0.4254271
0.5030250 0.6241690 0.2565195
0.6247569 0.6247569 0.2490631
0.7496446 0.6252816 0.2185509
0.8750000 0.6250000 0.1250000
0.9921088 0.6899359 0.6177601
0.5730123 0.7350005 0.5732350
0.5730406 0.7350412 0.5730406
0.5732579 0.7353545 0.5715216
0.5741785 0.7366939 0.5644771
0.5773363 0.7414552 0.5292405
0.6281726 0.7491006 0.3475654
0.7497283 0.7497283 0.3389610
0.8745879 0.7503313 0.3031421
1.0000000 0.7500000 0.1250000
0.6952568 0.8600695 0.6953303
0.6952661 0.8600824 0.6952661
0.6953379 0.8601815 0.6947706
0.6956428 0.8606037 0.6926037
0.6967000 0.8620830 0.6842446
0.7000275 0.8669160 0.6447354
0.7532641 0.8740898 0.4518260
0.8747230 0.8747230 0.4421675
0.9995959 0.8753464 0.3995206
0.8228442 0.9855467 0.8228671
0.8228471 0.9855506 0.8228471
0.8228695 0.9855803 0.8226932
0.8229647 0.9857071 0.8220322
0.8232961 0.9861494 0.8196564
0.8243512 0.9875730 0.8112123
0.8275775 0.9920867 0.7726525
0.8784037 0.9991048 0.5694394
0.9997301 0.9997301 0.5588683
0.0856946 0.0856946 0.2283105
0.1269120 0.0578110 0.2440060
0.2429657 0.1004707 0.2429657
0.3626071 0.1657445 0.2551792
0.4849022 0.2463837 0.2918912
0.6085515 0.3393446 0.3587323
0.7330087 0.4433008 0.4506800
0.8580550 0.5575622 0.5601629
0.9835845 0.6817007 0.6825498
0.1008405 0.1350676 0.2300465
0.1250000 0.1250000 0.2500000
0.2500000 0.1250000 0.2500000
0.3674761 0.1686498 0.2538811
0.4865393 0.2474882 0.2891422
0.6090902 0.3397497 0.3571356
0.7331844 0.4434460 0.4500063
0.8581108 0.5576123 0.5599171
0.9836013 0.6817169 0.6824686
0.1597213 0.2437557 0.2437557
0.1619080 0.2466262 0.2466262
0.2500000 0.2500000 0.2500000
0.3750000 0.2500000 0.2500000
0.4987144 0.2557016 0.2557016
0.6131801 0.3428257 0.3428257
0.7345283 0.4445570 0.4445570
0.8585384 0.5579965 0.5579965
0.9837300 0.6818415 0.6818415
0.2468385 0.3638305 0.2864347
0.2475661 0.3650055 0.2843144
0.2529808 0.3744668 0.2529808
0.3750000 0.3750000 0.2500000
0.5000000 0.3750000 0.2500000
0.6250000 0.3750000 0.2500000
0.7401535 0.4492054 0.4140832
0.8603480 0.5596222 0.5491167
0.9842770 0.6823710 0.6791028
0.3475263 0.4866019 0.3629247
0.3477699 0.4869856 0.3616171
0.3496228 0.4899636 0.3496228
0.3750000 0.5000000 0.2500000
0.5000000 0.5000000 0.2500000
0.6250000 0.5000000 0.2500000
0.7500000 0.5000000 0.2500000
0.8665313 0.5651727 0.5049742
0.9861710 0.6842038 0.6685824
0.4568954 0.6104788 0.4624313
0.4569786 0.6106039 0.4619027
0.4576153 0.6115670 0.4576153
0.4602887 0.6157350 0.4333476
0.5003353 0.6249104 0.2571351
0.6250000 0.6250000 0.2500000
0.7500000 0.6250000 0.2500000
0.8750000 0.6250000 0.2500000
0.9921100 0.6899449 0.6192726
0.5731188 0.7350261 0.5750344
0.5731471 0.7350668 0.5748449
0.5733641 0.7353793 0.5733641
0.5742837 0.7367154 0.5665032
0.5774382 0.7414643 0.5323715
0.6273724 0.7493331 0.3477876
0.7498076 0.7498076 0.3390223
0.8747801 0.7501774 0.3028222
1.0000000 0.7500000 0.2500000
0.6952919 0.8600776 0.6959281
0.6953013 0.8600905 0.6958644
0.6953730 0.8601895 0.6953730
0.6956778 0.8606114 0.6932241
0.6967347 0.8620895 0.6849374
0.7000610 0.8669185 0.6458500
0.7530109 0.8741626 0.4519049
0.8747481 0.8747481 0.4421895
0.9996545 0.8752965 0.3993990
0.8228552 0.9855491 0.8230540
0.8228581 0.9855530 0.8230340
0.8228805 0.9855828 0.8228805
0.8229757 0.9857095 0.8222213
0.8233070 0.9861517 0.8198517
0.8243620 0.9875750 0.8114309
0.8275880 0.9920875 0.7730019
0.8783229 0.9991268 0.5694661
0.9997376 0.9997376 0.5588758
0.1518820 0.1518820 0.3477446
0.1540887 0.1247318 0.3612577
0.2493013 0.1197791 0.3666329
0.3662142 0.1740418 0.3662142
0.4863464 0.2496020 0.3771555
0.6090552 0.3405383 0.4103343
0.7331760 0.4437305 0.4749446
0.8581084 0.5577106 0.5695761
0.9836006 0.6817488 0.6857378
0.1573013 0.1738461 0.3481832
0.1593714 0.1593714 0.3600629
0.2500000 0.1250000 0.3750000
0.3693174 0.1760474 0.3693174
0.4877814 0.2505847 0.3771635
0.6095723 0.3409287 0.4096457
0.7333494 0.4438740 0.4744551
0.8581640 0.5577605 0.5693566
0.9836173 0.6817650 0.6856595
0.1890084 0.2553359 0.3518484
0.1904192 0.2547237 0.3574938
0.2500000 0.2500000 0.3750000
0.3750000 0.2500000 0.3750000
0.4984469 0.2578897 0.3755321
0.6134990 0.3438928 0.4036681
0.7346760 0.4449717 0.4705236
0.8585898 0.5581432 0.5676434
0.9837459 0.6818895 0.6850554
0.2578438 0.3672035 0.3672035
0.2584749 0.3679673 0.3679673
0.2631741 0.3736442 0.3736442
0.3750000 0.3750000 0.3750000
0.5000000 0.3750000 0.3750000
0.6250000 0.3750000 0.3750000
0.7402289 0.4495649 0.4495649
0.8603920 0.5597627 0.5597627
0.9842922 0.6824183 0.6824183
0.3513580 0.4876478 0.4080692
0.3515912 0.4879914 0.4075839
0.3533649 0.4906477 0.4032273
0.3750000 0.5000000 0.3750000
0.5000000 0.5000000 0.3750000
0.6250000 0.5000000 0.3750000
0.7500000 0.5000000 0.3750000
0.8665497 0.5652918 0.5217478
0.9861838 0.6842489 0.6723097
0.4582192 0.6108156 0.4820737
0.4583012 0.6109366 0.4816879
0.4589290 0.6118683 0.4785741
0.4615655 0.6158937 0.4615655
0.5000000 0.6250000 0.3750000
0.6250000 0.6250000 0.3750000
0.7500000 0.6250000 0.3750000
0.8750000 0.6250000 0.3750000
0.9921151 0.6899831 0.6254892
0.5735707 0.7351353 0.5823805
0.5735989 0.7351755 0.5822100
0.5738149 0.7354848 0.5808784
0.5747304 0.7368069 0.5747304
0.5778705 0.7415033 0.5447638
0.6250000 0.7500000 0.3750000
0.7500000 0.7500000 0.3750000
0.8750000 0.7500000 0.3750000
1.0000000 0.7500000 0.3750000
0.6954413 0.8601122 0.6984373
0.6954507 0.8601250 0.6983759
0.6955223 0.8602237 0.6979012
0.6958267 0.8606442 0.6958267
0.6968819 0.8621173 0.6878387
0.7002033 0.8669292 0.6504716
0.7519125 0.8744742 0.4522427
0.8748545 0.8748545 0.4422832
0.9999043 0.8750825 0.3988764
0.8229018 0.9855595 0.8238458
0.8229047 0.9855634 0.8238261
0.8229271 0.9855931 0.8236742
0.8230222 0.9857197 0.8230222
0.8233534 0.9861615 0.8206791
0.8244079 0.9875832 0.8123565
0.8276324 0.9920908 0.7744767
0.8779767 0.9992206 0.5695799
0.9997695 0.9997695 0.5589073
0.2306507 0.2306507 0.4690533
0.2314417 0.2237137 0.4729772
0.2597617 0.1590988 0.4924634
0.3726072 0.1957253 0.4901395
0.4900699 0.2594789 0.4900699
0.6106318 0.3445077 0.5004745
0.7337387 0.4452044 0.5323882
0.8582925 0.5582253 0.5972684
0.9836565 0.6819163 0.6961886
0.2326044 0.2392586 0.4691847
0.2333797 0.2333797 0.4729770
0.2554176 0.1595764 0.4961661
0.3733010 0.1965821 0.4926117
0.4910166 0.2601731 0.4910166
0.6110828 0.3448531 0.5005292
0.7339046 0.4453421 0.5321912
0.8583472 0.5582745 0.5971140
0.9836732 0.6819324 0.6961195
0.2462524 0.2863794 0.4702385
0.2469258 0.2841863 0.4732261
0.2518137 0.2518137 0.4990799
0.3750000 0.2500000 0.5000000
0.4980198 0.2653275 0.4980198
0.6145081 0.3474760 0.5008147
0.7351732 0.4463958 0.5306180
0.8587670 0.5586521 0.5959121
0.9838012 0.6820564 0.6955861
0.2880398 0.3779798 0.4750477
0.2884763 0.3780049 0.4764540
0.2917437 0.3773710 0.4879475
0.3750000 0.3750000 0.5000000
0.5000000 0.3750000 0.5000000
0.6250000 0.3750000 0.5000000
0.7404842 0.4508048 0.5226017
0.8605434 0.5602500 0.5904461
0.9843450 0.6825830 0.6932612
0.3636524 0.4911901 0.4911901
0.3638554 0.4914211 0.4914211
0.3654007 0.4931779 0.4931779
0.3750000 0.5000000 0.5000000
0.5000000 0.5000000 0.5000000
0.6250000 0.5000000 0.5000000
0.7500000 0.5000000 0.5000000
0.8666137 0.5657060 0.5657060
0.9862281 0.6844058 0.6844058
0.4627082 0.6119786 0.5313628
0.4627864 0.6120865 0.5312290
0.4633854 0.6129161 0.5301518
0.4659008 0.6164787 0.5244276
0.5000000 0.6250000 0.5000000
0.6250000 0.6250000 0.5000000
0.7500000 0.6250000 0.5000000
0.8750000 0.6250000 0.5000000
0.9921331 0.6901160 0.6447771
0.5751320 0.7355145 0.6047242
0.5751598 0.7355533 0.6046037
0.5753724 0.7358516 0.6036643
0.5762735 0.7371261 0.5993635
0.5793648 0.7416438 0.5793648
0.6250000 0.7500000 0.5000000
0.7500000 0.7500000 0.5000000
0.8750000 0.7500000 0.5000000
1.0000000 0.7500000 0.5000000
0.6959607 0.8602325 0.7067649
0.6959700 0.8602452 0.7067103
0.6960413 0.8603427 0.7062887
0.6963440 0.8607584 0.7044481
0.6973939 0.8622144 0.6973939
0.7006982 0.8669671 0.6652074
0.7500000 0.8750000 0.5000000
0.8750000 0.8750000 0.5000000
1.0000000 0.8750000 0.5000000
0.8230642 0.9855957 0.8265619
0.8230671 0.9855996 0.8265428
0.8230895 0.9856292 0.8263967
0.8231845 0.9857553 0.8257692
0.8235151 0.9861955 0.8235151
0.8245678 0.9876121 0.8155226
0.8277870 0.9921024 0.7794663
0.8767435 0.9995493 0.5699791
0.9998807 0.9998807 0.5590171
0.3211622 0.3211622 0.5918422
0.3214495 0.3188221 0.5930910
0.3236058 0.2950456 0.6030485
0.3825329 0.2389909 0.6165317
0.4965299 0.2836332 0.6142803
0.6143997 0.3557041 0.6143997
0.7353532 0.4496975 0.6246455
0.8588604 0.5598455 0.6567418
0.9838335 0.6824497 0.7242808
0.3218734 0.3243825 0.5918843
0.3221588 0.3221588 0.5931204
0.3243018 0.2997614 0.6029737
0.3817005 0.2392196 0.6176561
0.4968058 0.2839556 0.6150301
0.6147028 0.3559509 0.6147028
0.7354977 0.4498191 0.6246707
0.8589127 0.5598927 0.6566809
0.9838499 0.6824656 0.7242323
0.3271634 0.3460333 0.5922125
0.3274353 0.3444731 0.5933582
0.3294812 0.3294812 0.6024697
0.3750000 0.2500000 0.6250000
0.4987451 0.2863416 0.6207331
0.6170033 0.3578253 0.6170033
0.7366035 0.4507495 0.6248513
0.8593138 0.5602547 0.6562073
0.9839761 0.6825879 0.7238582
0.3468906 0.4059586 0.5936823
0.3471172 0.4054659 0.5945426
0.3488321 0.4010143 0.6013340
0.3750000 0.3750000 0.6250000
0.5000000 0.3750000 0.6250000
0.6250000 0.3750000 0.6250000
0.7412333 0.4546444 0.6253554
0.8610114 0.5617867 0.6540714
0.9845122 0.6831074 0.7222331
0.3951241 0.5016633 0.5990938
0.3952685 0.5016939 0.5995026
0.3963695 0.5018728 0.6026902
0.4008995 0.5012741 0.6174168
0.5000000 0.5000000 0.6250000
0.6250000 0.5000000 0.6250000
0.7500000 0.5000000 0.6250000
0.8668130 0.5670186 0.6449006
0.9863686 0.6849060 0.7161239
0.4759217 0.6155974 0.6155974
0.4759898 0.6156711 0.6156711
0.4765121 0.6162358 0.6162358
0.4787069 0.6186077 0.6186077
0.5000000 0.6250000 0.6250000
0.6250000 0.6250000 0.6250000
0.7500000 0.6250000 0.6250000
0.8750000 0.6250000 0.6250000
0.9921902 0.6905405 0.6905405
0.5799874 0.7367171 0.6556989
0.5800138 0.7367516 0.6556584
0.5802163 0.7370172 0.6553423
0.5810744 0.7381497 0.6538986
0.5840190 0.7421362 0.6473963
0.6250000 0.7500000 0.6250000
0.7500000 0.7500000 0.6250000
0.8750000 0.7500000 0.6250000
1.0000000 0.7500000 0.6250000
0.6976078 0.8606166 0.7298610
0.6976170 0.8606288 0.7298228
0.6976870 0.8607228 0.7295280
0.6979849 0.8611235 0.7282440
0.6990176 0.8625258 0.7233724
0.7022682 0.8670932 0.7022682
0.7500000 0.8750000 0.6250000
0.8750000 0.8750000 0.6250000
1.0000000 0.8750000 0.6250000
0.8235827 0.9857115 0.8348274
0.8235856 0.9857153 0.8348106
0.8236078 0.9857445 0.8346808
0.8237023 0.9858692 0.8341240
0.8240312 0.9863045 0.8321266
0.8250784 0.9877046 0.8250784
0.8282807 0.9921400 0.7940505
0.8750000 1.0000000 0.6250000
1.0000000 1.0000000 0.6250000
0.4228772 0.4228772 0.7158650
0.4229804 0.4220538 0.7162697
0.4237675 0.4151942 0.7194108
0.4270037 0.3687826 0.7335378
0.5064676 0.3315173 0.7410712
0.6209427 0.3824478 0.7389140
0.7391212 0.4620022 0.7391212
0.8604444 0.5646410 0.7494713
0.9843645 0.6840815 0.7829782
0.4231330 0.4240459 0.7158786
0.4232360 0.4232360 0.7162820
0.4240215 0.4164935 0.7194130
0.4272512 0.3711439 0.7334922
0.5062645 0.3316102 0.7414236
0.6210400 0.3825659 0.7391503
0.7392192 0.4620894 0.7392192
0.8604900 0.5646827 0.7494799
0.9843803 0.6840968 0.7829587
0.4250765 0.4326041 0.7159840
0.4251778 0.4318875 0.7163777
0.4259506 0.4259506 0.7194326
0.4291319 0.3875557 0.7331539
0.5045778 0.3322962 0.7441203
0.6217698 0.3834631 0.7409583
0.7399687 0.4627567 0.7399687
0.8608402 0.5650024 0.7495449
0.9845010 0.6842141 0.7828083
0.4329642 0.4627436 0.7164426
0.4330590 0.4622896 0.7167989
0.4337823 0.4585769 0.7195623
0.4367717 0.4367717 0.7319194
0.5000000 0.3750000 0.7500000
0.6245294 0.3870870 0.7485432
0.7431035 0.4655509 0.7431035
0.8623222 0.5663558 0.7497953
0.9850141 0.6847127 0.7821568
0.4565617 0.5286100 0.7181243
0.4566390 0.5284768 0.7183873
0.4572304 0.5274007 0.7204221
0.4596961 0.5216051 0.7294218
0.5000000 0.5000000 0.7500000
0.6250000 0.5000000 0.7500000
0.7500000 0.5000000 0.7500000
0.8673882 0.5709794 0.7503237
0.9867909 0.6864390 0.7797321
0.5089099 0.6260189 0.7237583
0.5089588 0.6260318 0.7238849
0.5093332 0.6261257 0.7248615
0.5109104 0.6264194 0.7291084
0.5161990 0.6257499 0.7453255
0.6250000 0.6250000 0.7500000
0.7500000 0.6250000 0.7500000
0.8750000 0.6250000 0.7500000
0.9923635 0.6918480 0.7701348
0.5938511 0.7403520 0.7403520
0.5938741 0.7403758 0.7403758
0.5940504 0.7405585 0.7405585
0.5947978 0.7413328 0.7413328
0.5973646 0.7439903 0.7439903
0.6250000 0.7500000 0.7500000
0.7500000 0.7500000 0.7500000
0.8750000 0.7500000 0.7500000
1.0000000 0.7500000 0.7500000
0.7025809 0.8617997 0.7808390
0.7025896 0.8618106 0.7808262
0.7026563 0.8618944 0.7807271
0.7029397 0.8622514 0.7802958
0.7039225 0.8634984 0.7786644
0.7070169 0.8675307 0.7718438
0.7500000 0.8750000 0.7500000
0.8750000 0.8750000 0.7500000
1.0000000 0.8750000 0.7500000
0.8251803 0.9860704 0.8571133
0.8251831 0.9860741 0.8571014
0.8252050 0.9861024 0.8570099
0.8252980 0.9862227 0.8566178
0.8256215 0.9866427 0.8552150
0.8266518 0.9879929 0.8503158
0.8298028 0.9922613 0.8298028
0.8750000 1.0000000 0.7500000
1.0000000 1.0000000 0.7500000
0.5354193 0.5354193 0.8409514
0.5354551 0.5351356 0.8410799
0.5357294 0.5329005 0.8420698
0.5368848 0.5221163 0.8463498
0.5407476 0.4540272 0.8622372
0.6311507 0.4357886 0.8660258
0.7457697 0.4915166 0.8639558
0.8641781 0.5778561 0.8641781
0.9858622 0.6889531 0.8748716
0.5355080 0.5358260 0.8409558
0.5355438 0.5355438 0.8410841
0.5358180 0.5333209 0.8420730
0.5369725 0.5225993 0.8463486
0.5408328 0.4551049 0.8622186
0.6310920 0.4358229 0.8661359
0.7458017 0.4915582 0.8640301
0.8642091 0.5778860 0.8642091
0.9858760 0.6889667 0.8748740
0.5361872 0.5388992 0.8409891
0.5362228 0.5386283 0.8411165
0.5364954 0.5364954 0.8420976
0.5376438 0.5262360 0.8463396
0.5414851 0.4630185 0.8620776
0.6306293 0.4360835 0.8669797
0.7460455 0.4918768 0.8646002
0.8644467 0.5781146 0.8644467
0.9859818 0.6890705 0.8748921
0.5390317 0.5510854 0.8411322
0.5390665 0.5508558 0.8412555
0.5393330 0.5490512 0.8422049
0.5404557 0.5404557 0.8463083
0.5442182 0.4911362 0.8615051
0.6284114 0.4371326 0.8705515
0.7470480 0.4932106 0.8670141
0.8654522 0.5790827 0.8654522
0.9864312 0.6895117 0.8749665
0.5484038 0.5852826 0.8416432
0.5484360 0.5851431 0.8417538
0.5486830 0.5840507 0.8426052
0.5497247 0.5789547 0.8462801
0.5532336 0.5532336 0.8598161
0.6250000 0.5000000 0.8750000
0.7500000 0.5000000 0.8750000
0.8688854 0.5823924 0.8688854
0.9879876 0.6910396 0.8751928
0.5739292 0.6531553 0.8433617
0.5739553 0.6531150 0.8434432
0.5741552 0.6528005 0.8440706
0.5750007 0.6513582 0.8467707
0.5778780 0.6447697 0.8565943
0.6250000 0.6250000 0.8750000
0.7500000 0.6250000 0.8750000
0.8750000 0.6250000 0.8750000
0.9928705 0.6958297 0.8755606
0.6285964 0.7508986 0.8489287
0.6286127 0.7509030 0.8489685
0.6287382 0.7509359 0.8492746
0.6292707 0.7510657 0.8505855
0.6311041 0.7513808 0.8552667
0.6367380 0.7505484 0.8717230
0.7500000 0.7500000 0.8750000
0.8750000 0.7500000 0.8750000
1.0000000 0.7500000 0.8750000
0.7168676 0.8654038 0.8654038
0.7168751 0.8654113 0.8654113
0.7169330 0.8654691 0.8654691
0.7171790 0.8657146 0.8657146
0.7180323 0.8665663 0.8665663
0.7207215 0.8692489 0.8692489
0.7500000 0.8750000 0.8750000
0.8750000 0.8750000 0.8750000
1.0000000 0.8750000 0.8750000
0.8300437 0.9871855 0.9067030
0.8300464 0.9871888 0.9066989
0.8300672 0.9872141 0.9066675
0.8301557 0.9873217 0.9065328
0.8304636 0.9876969 0.9060511
0.8314443 0.9889011 0.9043766
0.8344443 0.9926822 0.8976293
0.8750000 1.0000000 0.8750000
1.0000000 1.0000000 0.8750000
0.6585121 0.6585121 0.9669761
0.6585238 0.6584198 0.9670149
0.6586134 0.6577053 0.9673127
0.6589936 0.6545465 0.9685862
0.6603024 0.6418121 0.9731026
0.6643159 0.5650558 0.9884914
0.7564657 0.5514202 0.9913393
0.8709627 0.6104210 0.9893507
0.9895289 0.7028711 0.9895289
0.6585411 0.6586449 0.9669774
0.6585528 0.6585528 0.9670162
0.6586423 0.6578394 0.9673139
0.6590224 0.6546862 0.9685870
0.6603310 0.6419758 0.9731019
0.6643436 0.5654449 0.9884855
0.7564465 0.5514317 0.9913724
0.8709724 0.6104348 0.9893733
0.9895382 0.7028807 0.9895382
0.6587631 0.6596592 0.9669875
0.6587748 0.6595682 0.9670261
0.6588642 0.6588642 0.9673231
0.6592436 0.6557527 0.9685932
0.6605499 0.6432242 0.9730970
0.6645562 0.5683857 0.9884406
0.7562976 0.5515200 0.9916265
0.8710466 0.6105406 0.9895466
0.9896096 0.7029543 0.9896096
0.6597033 0.6638752 0.9670304
0.6597149 0.6637890 0.9670686
0.6598036 0.6631226 0.9673626
0.6601802 0.6601802 0.9686196
0.6614770 0.6483827 0.9730765
0.6654566 0.5800600 0.9882519
0.7556398 0.5518894 0.9927063
0.8713587 0.6109887 0.9902832
0.9899129 0.7032674 0.9899129
0.6629198 0.6774249 0.9671811
0.6629311 0.6773530 0.9672180
0.6630176 0.6767967 0.9675018
0.6633846 0.6743478 0.9687151
0.6646493 0.6646493 0.9730150
0.6685380 0.6128794 0.9876280
0.7530246 0.5530962 0.9964453
0.8724023 0.6125208 0.9928350
0.9909633 0.7043518 0.9909633
0.6726320 0.7121409 0.9676756
0.6726425 0.7120973 0.9677088
0.6727224 0.7117597 0.9679636
0.6730620 0.7102822 0.9690526
0.6742335 0.7045678 0.9729071
0.6778545 0.6778545 0.9859371
0.7500000 0.6250000 1.0000000
0.8750000 0.6250000 1.0000000
0.9942557 0.7077546 0.9942557
0.6983253 0.7792413 0.9692880
0.6983337 0.7792283 0.9693127
0.6983985 0.7791282 0.9695026
0.6986735 0.7786919 0.9703133
0.6996251 0.7770375 0.9731740
0.7025967 0.7700665 0.9827317
0.7500000 0.7500000 1.0000000
0.8750000 0.7500000 1.0000000
1.0000000 0.7500000 1.0000000
0.7536734 0.8762412 0.9745494
0.7536786 0.8762424 0.9745616
0.7537190 0.8762519 0.9746556
0.7538907 0.8762909 0.9750567
0.7544868 0.8764140 0.9764646
0.7563711 0.8766613 0.9810837
0.7619939 0.8755989 0.9968126
0.8750000 0.8750000 1.0000000
1.0000000 0.8750000 1.0000000
0.8445359 0.9907160 0.9907160
0.8445383 0.9907182 0.9907182
0.8445562 0.9907356 0.9907356
0.8446326 0.9908094 0.9908094
0.8448985 0.9910662 0.9910662
0.8457457 0.9918842 0.9918842
0.8483396 0.9943879 0.9943879
0.8750000 1.0000000 1.0000000
1.0000000 1.0000000 1.0000000
