LUTs/luminance_correction_bt2020.cube
TITLE "Pre-formation 2012 Luminance Correction for BT.2020 Target"
# Use CIE 2012 Luminance to Compensate for Some Out-of-Domain Values
# This LUT assumes input and output to be XYZ I-E encoded in ST2084 (200)
# LUT resolution 45
LUT_3D_SIZE 8
DOMAIN_MIN 0.000000 0.000000 0.000000
DOMAIN_MAX 0.954545 0.954545 0.954545
0.0000007 0.0000007 0.0000007
0.0628559 0.0424541 0.0441235
0.1471031 0.1067358 0.1101815
0.2451540 0.1871271 0.1922248
0.3544128 0.2816208 0.2881601
0.4734149 0.3890875 0.3968043
0.6011881 0.5087844 0.5173751
0.7370274 0.6401796 0.6493097
0.0797778 0.1344922 0.0842263
0.1362135 0.1362714 0.0303374
0.2006005 0.1500947 0.1444163
0.2645701 0.2036035 0.2068959
0.3608128 0.2872953 0.2932879
0.4754633 0.3909754 0.3985112
0.6018229 0.5093896 0.5179211
0.7372131 0.6403620 0.6494739
0.1782806 0.2697878 0.1862026
0.1748815 0.2711691 0.1545535
0.2724918 0.2725826 0.0807424
0.3523921 0.2801218 0.2534755
0.4023325 0.3244474 0.3249171
0.4910633 0.4053920 0.4113501
0.6069389 0.5142711 0.5223066
0.7387370 0.6418598 0.6508199
0.2878425 0.4054655 0.2984445
0.2870872 0.4057770 0.2923977
0.2825725 0.4086118 0.1704150
0.4088008 0.4089127 0.1475992
0.4997239 0.4138650 0.3623086
0.5431648 0.4540346 0.4511084
0.6277977 0.5342389 0.5398672
0.7454692 0.6484820 0.6567372
0.4059726 0.5414096 0.4185543
0.4057561 0.5414948 0.4168640
0.4037915 0.5422266 0.4004556
0.4178526 0.5449473 0.2583447
0.5451311 0.5452559 0.2297886
0.6426532 0.5490699 0.4764369
0.6834145 0.5879902 0.5826753
0.7677433 0.6704605 0.6759237
0.5312982 0.6775609 0.5452198
0.5312325 0.6775855 0.5447121
0.5306757 0.6777914 0.5403331
0.5277688 0.6787860 0.5148955
0.5537904 0.6812993 0.3603227
0.6814780 0.6816092 0.3267769
0.7818730 0.6850594 0.6008759
0.8225027 0.7249399 0.7189638
0.6629233 0.8138830 0.6775883
0.6629035 0.8138901 0.6774363
0.6627389 0.8139490 0.6761646
0.6619563 0.8142231 0.6699623
0.6585348 0.8153209 0.6390048
0.6900850 0.8176636 0.4760467
0.8178385 0.8179709 0.4382823
0.9180230 0.8216074 0.7378403
0.8002066 0.9503509 0.8150522
0.8002010 0.9503528 0.8150088
0.8001540 0.9503690 0.8146491
0.7999366 0.9504437 0.8129710
0.7990826 0.9507301 0.8061783
0.7956128 0.9517946 0.7744254
0.8266530 0.9540385 0.6052683
0.9542106 0.9543398 0.5641573
0.0414853 0.0424545 0.0843902
0.0835170 0.0573117 0.0853300
0.1527076 0.1111281 0.1206307
0.2467543 0.1884590 0.1953284
0.3549034 0.2820490 0.2891511
0.4735687 0.3892272 0.3971261
0.6012355 0.5088289 0.5174774
0.7370412 0.6401930 0.6493404
0.0927003 0.1351691 0.1367468
0.1363636 0.1363636 0.1363636
0.2029608 0.1519498 0.1556052
0.2658200 0.2046485 0.2098790
0.3612698 0.2876947 0.2942617
0.4756139 0.3911122 0.3988311
0.6018700 0.5094339 0.5180232
0.7372269 0.6403754 0.6495045
0.1814292 0.2698250 0.2035025
0.1787389 0.2710813 0.1838790
0.2727273 0.2727273 0.1363636
0.3527530 0.2804126 0.2576343
0.4026192 0.3246989 0.3258417
0.4911917 0.4055088 0.4116577
0.6069837 0.5143132 0.5224071
0.7387506 0.6418729 0.6508504
0.2886993 0.4054722 0.3034703
0.2879771 0.4057784 0.2979360
0.2789218 0.4088002 0.1767785
0.4090309 0.4090543 0.1476428
0.4997985 0.4139251 0.3639199
0.5432387 0.4541018 0.4514040
0.6278341 0.5342731 0.5399627
0.7454820 0.6484944 0.6567671
0.4062271 0.5414113 0.4200626
0.4060130 0.5414962 0.4184099
0.4040705 0.5422247 0.4024025
0.4168054 0.5450120 0.2584995
0.5451944 0.5452951 0.2298033
0.6426714 0.5490845 0.4770315
0.6834348 0.5880093 0.5827677
0.7677535 0.6704704 0.6759519
0.5313761 0.6775614 0.5456807
0.5313106 0.6775860 0.5451762
0.5307555 0.6777916 0.5408257
0.5278578 0.6787849 0.5155789
0.5535135 0.6813177 0.3603725
0.6814963 0.6816206 0.3267819
0.7818779 0.6850634 0.6010728
0.8225084 0.7249454 0.7189910
0.6629468 0.8138831 0.6777269
0.6629270 0.8138902 0.6775752
0.6627625 0.8139491 0.6763059
0.6619807 0.8142231 0.6701156
0.6585623 0.8153205 0.6392295
0.6900062 0.8176689 0.4760626
0.8178438 0.8179742 0.4382839
0.9180244 0.8216086 0.7378966
0.8002134 0.9503509 0.8150918
0.8002077 0.9503529 0.8150484
0.8001608 0.9503691 0.8146889
0.7999434 0.9504438 0.8130117
0.7990896 0.9507301 0.8062229
0.7956207 0.9517945 0.7744914
0.8266303 0.9540400 0.6052732
0.9542120 0.9543407 0.5641578
0.1047227 0.1067366 0.1864926
0.1285411 0.0909462 0.2322954
0.1849464 0.1364754 0.1881522
0.2587673 0.1984721 0.2191759
0.3588528 0.2854974 0.2971650
0.4748307 0.3903733 0.3997693
0.6016263 0.5091962 0.5183210
0.7371555 0.6403037 0.6495939
0.1325857 0.1504615 0.2201400
0.1449062 0.1461508 0.2453833
0.2187701 0.1642424 0.2216933
0.2753749 0.2126411 0.2327769
0.3649551 0.2909161 0.3021385
0.4768500 0.3922351 0.4014585
0.6022584 0.5097989 0.5188651
0.7373410 0.6404859 0.6497579
0.2010186 0.2708522 0.2733278
0.2012970 0.2714068 0.2733618
0.2727273 0.2727273 0.2727273
0.3556263 0.2827182 0.2869529
0.4049499 0.3267430 0.3333039
0.4922462 0.4064685 0.4141837
0.6073531 0.5146605 0.5232363
0.7388630 0.6419818 0.6511024
0.2953020 0.4055701 0.3361609
0.2948145 0.4058353 0.3332343
0.2888062 0.4083857 0.2915589
0.4090909 0.4090909 0.2727273
0.5004098 0.4144170 0.3764091
0.5438470 0.4546550 0.4538292
0.6281345 0.5345559 0.5407506
0.7455872 0.6485963 0.6570139
0.4082925 0.5414287 0.4316633
0.4080975 0.5415106 0.4302799
0.4063300 0.5422130 0.4170914
0.4090909 0.5454545 0.2727273
0.5454545 0.5454545 0.2727273
0.6428218 0.5492054 0.4818331
0.6836029 0.5881668 0.5835300
0.7678377 0.6705520 0.6761852
0.5320165 0.6775657 0.5494110
0.5319527 0.6775901 0.5489320
0.5314117 0.6777937 0.5448063
0.5285890 0.6787769 0.5210563
0.5511618 0.6814708 0.3607877
0.6816483 0.6817144 0.3268224
0.7819186 0.6850965 0.6026894
0.8225555 0.7249908 0.7192156
0.6631407 0.8138843 0.6788658
0.6631211 0.8138914 0.6787165
0.6629578 0.8139501 0.6774665
0.6621818 0.8142234 0.6713741
0.6587892 0.8153175 0.6410685
0.6893501 0.8177127 0.4761944
0.8178874 0.8180013 0.4382973
0.9180360 0.8216183 0.7383612
0.8002691 0.9503512 0.8154187
0.8002634 0.9503532 0.8153755
0.8002166 0.9503694 0.8150176
0.7999997 0.9504440 0.8133479
0.7991476 0.9507302 0.8065906
0.7956863 0.9517936 0.7750357
0.8264420 0.9540520 0.6053133
0.9542241 0.9543482 0.5641620
0.1841346 0.1871283 0.2988308
0.1886069 0.1858227 0.3068680
0.2412010 0.1791271 0.3417514
0.2967694 0.2302106 0.3010395
0.3748722 0.2995034 0.3303185
0.4804016 0.3954346 0.4114834
0.6033980 0.5108611 0.5221472
0.7376779 0.6408096 0.6507523
0.1952159 0.2031674 0.3117787
0.1991818 0.2020529 0.3189811
0.2535203 0.1888876 0.3635007
0.3072810 0.2392944 0.3114916
0.3800043 0.3040846 0.3347523
0.4823102 0.3971971 0.4131041
0.6040192 0.5114538 0.5226839
0.7378624 0.6409909 0.6509155
0.2434050 0.2818165 0.3598083
0.2451600 0.2815894 0.3632728
0.2727273 0.2727273 0.4090909
0.3666730 0.2913859 0.3696980
0.4147996 0.3353748 0.3639635
0.4969264 0.4107282 0.4253837
0.6090286 0.5162359 0.5269977
0.7393767 0.6424794 0.6522544
0.3180336 0.4067792 0.4098306
0.3181093 0.4069129 0.4098504
0.3186533 0.4080340 0.4097704
0.4090909 0.4090909 0.4090909
0.5030905 0.4165567 0.4207189
0.5465769 0.4571366 0.4645260
0.6294992 0.5358406 0.5443249
0.7460681 0.6490623 0.6581421
0.4169595 0.5415736 0.4713599
0.4168370 0.5416433 0.4706766
0.4157275 0.5422371 0.4644106
0.4090909 0.5454545 0.4090909
0.5454545 0.5454545 0.4090909
0.6435028 0.5497511 0.5015896
0.6843689 0.5888847 0.5869815
0.7682229 0.6709254 0.6772512
0.5348760 0.6775911 0.5648773
0.5348195 0.6776144 0.5644945
0.5343398 0.6778091 0.5612120
0.5318409 0.6787471 0.5428625
0.5454545 0.6818182 0.4090909
0.6818182 0.6818182 0.4090909
0.7821046 0.6852475 0.6098266
0.8227712 0.7251986 0.7202414
0.6640231 0.8138902 0.6839256
0.6640041 0.8138972 0.6837862
0.6638463 0.8139552 0.6826198
0.6630964 0.8142250 0.6769484
0.6598200 0.8153044 0.6490979
0.6862265 0.8179145 0.4768064
0.8180889 0.8181252 0.4383578
0.9180890 0.8216627 0.7404678
0.8005238 0.9503527 0.8169036
0.8005182 0.9503547 0.8168613
0.8004718 0.9503709 0.8165105
0.8002570 0.9504452 0.8148746
0.7994132 0.9507303 0.8082591
0.7959860 0.9517896 0.7774944
0.8255692 0.9541075 0.6054981
0.9542794 0.9543824 0.5641810
0.2777677 0.2816223 0.4190112
0.2791221 0.2812816 0.4212525
0.2924351 0.2761249 0.4429339
0.3586813 0.2806236 0.4589928
0.4165720 0.3359909 0.4216214
0.4987662 0.4121361 0.4506360
0.6097991 0.5168785 0.5360038
0.7396237 0.6426942 0.6550679
0.2816201 0.2870713 0.4232119
0.2829309 0.2867420 0.4253879
0.2957862 0.2818545 0.4463931
0.3628855 0.2842407 0.4649368
0.4197897 0.3388972 0.4248158
0.5003485 0.4136044 0.4520441
0.6103825 0.5174359 0.5365143
0.7398047 0.6428721 0.6552286
0.3064790 0.3240052 0.4490594
0.3075026 0.3237708 0.4508031
0.3173564 0.3206266 0.4673590
0.3905821 0.3079020 0.5079970
0.4431605 0.3601004 0.4479457
0.5126228 0.4250186 0.4628934
0.6150939 0.5219401 0.5406251
0.7412907 0.6443333 0.6565463
0.3626167 0.4163182 0.4977235
0.3630364 0.4162881 0.4985119
0.3668522 0.4158638 0.5056570
0.4090909 0.4090909 0.5454545
0.5116729 0.4231802 0.5144539
0.5560843 0.4657655 0.4998335
0.6344710 0.5405209 0.5572787
0.7478610 0.6507995 0.6623458
0.4415878 0.5428761 0.5462790
0.4416099 0.5429131 0.5462850
0.4417880 0.5432196 0.5463210
0.4424554 0.5446525 0.5460596
0.5454545 0.5454545 0.5454545
0.6459533 0.5516935 0.5556683
0.6871932 0.5915301 0.5994021
0.7696619 0.6723203 0.6812238
0.5446706 0.6777627 0.6074814
0.5446362 0.6777825 0.6072973
0.5443440 0.6779468 0.6057330
0.5428246 0.6787315 0.5974664
0.5454545 0.6818182 0.5454545
0.6818182 0.6818182 0.5454545
0.7827969 0.6858077 0.6334163
0.8235798 0.7259773 0.7240557
0.6672543 0.8139193 0.7009611
0.6672377 0.8139260 0.7008517
0.6670992 0.8139813 0.6999385
0.6664416 0.8142383 0.6955291
0.6635747 0.8152635 0.6746700
0.6818182 0.8181818 0.5454545
0.8181818 0.8181818 0.5454545
0.9182884 0.8218295 0.7480910
0.8014767 0.9503590 0.8223110
0.8014713 0.9503610 0.8222718
0.8014266 0.9503769 0.8219462
0.8012195 0.9504503 0.8204290
0.8004062 0.9507315 0.8143111
0.7971054 0.9517755 0.7862665
0.8221315 0.9543180 0.6062050
0.9544893 0.9545112 0.5642512
0.3845265 0.3890893 0.5457239
0.3849631 0.3889836 0.5463972
0.3887270 0.3879493 0.5521801
0.4108941 0.3771395 0.5853439
0.4827941 0.3926586 0.5847215
0.5430313 0.4523829 0.5486021
0.6292631 0.5351874 0.5784663
0.7461354 0.6490023 0.6695186
0.3858124 0.3908949 0.5470348
0.3862448 0.3907902 0.5477023
0.3899719 0.3897674 0.5534345
0.4119002 0.3791585 0.5862775
0.4841319 0.3938677 0.5864537
0.5440206 0.4533106 0.5495823
0.6297439 0.5356487 0.5789029
0.7463052 0.6491694 0.6696708
0.3956126 0.4048676 0.5568899
0.3960127 0.4047716 0.5575127
0.3994582 0.4038439 0.5628566
0.4195607 0.3947312 0.5932452
0.4944840 0.4032218 0.6001104
0.5518762 0.4606855 0.5573598
0.6336431 0.5393924 0.5824367
0.7476996 0.6505423 0.6709196
0.4281319 0.4538756 0.5876679
0.4284242 0.4538153 0.5881398
0.4309295 0.4532488 0.5921724
0.4450422 0.4484250 0.6144223
0.5299540 0.4350316 0.6525602
0.5820737 0.4891799 0.5871318
0.6499652 0.5551025 0.5970878
0.7538784 0.6566308 0.6764306
0.4882450 0.5518819 0.6349936
0.4883616 0.5518765 0.6352028
0.4893486 0.5518211 0.6369729
0.4944812 0.5512721 0.6461415
0.5454545 0.5454545 0.6818182
0.6532597 0.5572399 0.6557908
0.6963290 0.6000700 0.6368995
0.7745240 0.6770328 0.6945385
0.5705147 0.6791051 0.6826852
0.5705214 0.6791158 0.6826869
0.5705761 0.6792044 0.6827006
0.5708177 0.6796123 0.6827374
0.5715339 0.6811870 0.6823357
0.6818182 0.6818182 0.6818182
0.7851053 0.6876526 0.6915537
0.8263445 0.7286380 0.7367499
0.6774872 0.8140985 0.7441214
0.6774772 0.8141042 0.7440691
0.6773935 0.8141509 0.7436337
0.6769959 0.8143676 0.7415591
0.6752664 0.8152232 0.7323625
0.6818182 0.8181818 0.6818182
0.8181818 0.8181818 0.6818182
0.9189766 0.8224033 0.7714269
0.8047110 0.9503876 0.8391474
0.8047062 0.9503894 0.8391166
0.8046670 0.9504046 0.8388617
0.8044853 0.9504746 0.8376759
0.8037720 0.9507425 0.8329324
0.8008832 0.9517345 0.8120101
0.8181818 0.9545455 0.6818182
0.9545455 0.9545455 0.6818182
0.5036930 0.5087864 0.6781181
0.5038319 0.5087532 0.6783196
0.5049940 0.5084646 0.6800034
0.5106448 0.5067894 0.6881460
0.5391070 0.4908080 0.7278137
0.6129859 0.5146047 0.7171365
0.6752874 0.5784321 0.6811410
0.7656414 0.6679038 0.7129035
0.5041061 0.5093646 0.6785146
0.5042447 0.5093315 0.6787156
0.5054033 0.5090438 0.6803950
0.5110373 0.5073748 0.6885159
0.5394043 0.4914920 0.7280657
0.6133976 0.5149913 0.7176454
0.6755856 0.5787208 0.6814359
0.7657811 0.6680419 0.7130323
0.5074381 0.5140478 0.6817000
0.5075733 0.5140155 0.6818968
0.5087043 0.5137352 0.6835406
0.5142019 0.5121169 0.6914870
0.5418017 0.4970194 0.7300851
0.6167362 0.5181256 0.7217903
0.6780211 0.5810802 0.6838444
0.7669304 0.6691777 0.7140912
0.5210420 0.5335456 0.6944704
0.5211637 0.5335170 0.6946498
0.5221818 0.5332703 0.6961477
0.5271217 0.5318727 0.7033773
0.5515952 0.5197852 0.7380866
0.6306687 0.5311992 0.7395264
0.6885502 0.5912950 0.6942449
0.7720523 0.6742431 0.7187980
0.5571011 0.5880553 0.7262134
0.5571874 0.5880385 0.7263462
0.5579086 0.5878944 0.7274542
0.5613838 0.5871062 0.7327694
0.5778680 0.5812901 0.7573688
0.6688330 0.5666898 0.7945392
0.7211598 0.6230841 0.7263064
0.7894964 0.6915358 0.7346564
0.6192578 0.6880203 0.7719915
0.6192921 0.6880191 0.7720503
0.6195768 0.6880078 0.7725397
0.6209253 0.6879362 0.7748554
0.6267791 0.6873033 0.7848595
0.6818182 0.6818182 0.8181818
0.7918970 0.6928272 0.7942951
0.8351688 0.7371125 0.7743408
0.7040639 0.8154428 0.8190567
0.7040659 0.8154459 0.8190572
0.7040823 0.8154715 0.8190614
0.7041567 0.8155887 0.8190785
0.7044254 0.8160331 0.8191111
0.7051516 0.8176266 0.8186515
0.8181818 0.8181818 0.8181818
0.9212403 0.8242689 0.8282757
0.8148121 0.9505580 0.8811843
0.8148092 0.9505596 0.8811695
0.8147852 0.9505725 0.8810468
0.8146743 0.9506318 0.8804782
0.8142388 0.9508586 0.8782371
0.8124795 0.9516896 0.8689896
0.8181818 0.9545455 0.8181818
0.9545455 0.9545455 0.8181818
0.6347554 0.6401817 0.8155874
0.6347973 0.6401718 0.8156449
0.6351444 0.6400882 0.8161217
0.6367610 0.6396782 0.8183391
0.6432688 0.6376727 0.8272085
0.6736812 0.6198069 0.8672362
0.7486916 0.6458146 0.8552766
0.8127270 0.7134440 0.8186397
0.6348802 0.6403560 0.8157008
0.6349220 0.6403460 0.8157583
0.6352689 0.6402626 0.8162348
0.6368840 0.6398530 0.8184505
0.6433860 0.6378497 0.8273129
0.6737684 0.6200171 0.8673057
0.7488116 0.6459309 0.8554211
0.8128122 0.7135290 0.8187239
0.6359046 0.6417881 0.8166314
0.6359461 0.6417782 0.8166885
0.6362904 0.6416954 0.8171620
0.6378939 0.6412890 0.8193636
0.6443484 0.6393045 0.8281689
0.6744840 0.6217432 0.8678749
0.7497987 0.6468870 0.8566105
0.8135150 0.7142292 0.8194178
0.6404347 0.6481577 0.8207258
0.6404748 0.6481482 0.8207813
0.6408082 0.6480682 0.8212415
0.6423602 0.6476764 0.8233808
0.6486046 0.6457769 0.8319334
0.6776498 0.6293902 0.8703710
0.7541964 0.6511458 0.8619459
0.8166801 0.7173840 0.8225424
0.6554549 0.6696997 0.8340426
0.6554907 0.6696914 0.8340928
0.6557876 0.6696220 0.8345086
0.6571694 0.6692839 0.8364411
0.6627181 0.6676788 0.8441526
0.6881691 0.6548841 0.8783905
0.7691179 0.6655815 0.8805726
0.8278574 0.7285405 0.8335632
0.6922304 0.7250588 0.8646868
0.6922556 0.7250540 0.8647239
0.6924650 0.7250138 0.8650310
0.6934381 0.7248198 0.8664562
0.6973161 0.7239316 0.8721073
0.7143663 0.7178660 0.8963237
0.8066769 0.7015158 0.9339469
0.8598151 0.7605713 0.8649288
0.7550146 0.8245907 0.9088691
0.7550247 0.8245903 0.9088857
0.7551079 0.8245870 0.9090228
0.7554931 0.8245706 0.9096572
0.7569995 0.8244841 0.9121367
0.7630752 0.8238020 0.9220784
0.8181818 0.8181818 0.9545455
0.9280910 0.8296608 0.9304940
0.8417043 0.9518734 0.9553986
0.8417049 0.9518742 0.9553987
0.8417095 0.9518813 0.9553999
0.8417308 0.9519136 0.9554051
0.8418103 0.9520357 0.9554224
0.8420761 0.9524649 0.9554518
0.8427880 0.9539809 0.9550186
0.9545455 0.9545455 0.9545455
