LUTs/luminance_correction.cube
TITLE "Pre-formation 2012 Luminance Correction"
# Use CIE 2012 Luminance to Compensate for Some Out-of-Domain Values
# This LUT assumes input and output to be XYZ I-E encoded in ST2084 (100)
# LUT resolution 33
LUT_3D_SIZE 33
0.0000007 0.0000007 0.0000007
0.0070222 0.0042481 0.0042483
0.0160974 0.0100471 0.0100474
0.0266446 0.0170650 0.0170656
0.0384321 0.0251638 0.0251646
0.0513259 0.0342652 0.0342663
0.0652360 0.0443180 0.0443193
0.0800968 0.0552858 0.0552874
0.0958577 0.0671417 0.0671435
0.1124781 0.0798647 0.0798669
0.1299248 0.0934385 0.0934410
0.1481698 0.1078500 0.1078526
0.1671892 0.1230882 0.1230912
0.1869623 0.1391444 0.1391476
0.2074708 0.1560113 0.1560148
0.2286986 0.1736827 0.1736865
0.2506314 0.1921537 0.1921577
0.2732562 0.2114199 0.2114242
0.2965613 0.2314779 0.2314824
0.3205359 0.2523246 0.2523294
0.3451704 0.2739579 0.2739629
0.3704557 0.2963756 0.2963808
0.3963836 0.3195762 0.3195817
0.4229464 0.3435585 0.3435642
0.4501369 0.3683217 0.3683276
0.4779485 0.3938650 0.3938711
0.5063751 0.4201881 0.4201943
0.5354107 0.4472907 0.4472971
0.5650499 0.4751728 0.4751794
0.5952876 0.5038347 0.5038414
0.6261190 0.5332766 0.5332834
0.6575395 0.5634990 0.5635060
0.6895446 0.5945025 0.5945096
0.0166452 0.0307291 0.0166461
0.0312141 0.0312141 0.0045076
0.0470388 0.0312701 0.0246577
0.0504076 0.0336284 0.0316233
0.0563391 0.0378715 0.0369131
0.0646434 0.0438906 0.0433357
0.0750956 0.0515739 0.0512166
0.0874063 0.0607598 0.0605147
0.1013012 0.0712867 0.0711120
0.1165554 0.0830190 0.0828914
0.1329969 0.0958511 0.0957565
0.1504974 0.1097041 0.1096332
0.1689614 0.1245191 0.1244658
0.1883172 0.1402526 0.1402126
0.2085104 0.1568721 0.1568422
0.2294985 0.1743529 0.1743307
0.2512482 0.1926763 0.1926601
0.2737326 0.2118279 0.2118165
0.2969296 0.2317966 0.2317889
0.3208208 0.2525737 0.2525689
0.3453908 0.2741524 0.2741499
0.3706261 0.2965274 0.2965268
0.3965153 0.3196946 0.3196955
0.4230480 0.3436507 0.3436528
0.4502151 0.3683933 0.3683964
0.4780087 0.3939205 0.3939244
0.5064212 0.4202309 0.4202355
0.5354459 0.4473237 0.4473288
0.5650768 0.4751982 0.4752038
0.5953080 0.5038541 0.5038601
0.6261344 0.5332914 0.5332976
0.6575510 0.5635102 0.5635167
0.6895533 0.5945110 0.5945177
0.0355391 0.0615745 0.0355410
0.0339771 0.0623318 0.0158034
0.0624363 0.0624363 0.0106257
0.0891506 0.0622800 0.0286637
0.0903938 0.0630824 0.0544492
0.0941568 0.0658893 0.0618436
0.0999402 0.0702684 0.0679837
0.1077776 0.0762586 0.0748285
0.1176665 0.0838882 0.0829314
0.1295132 0.0931224 0.0924523
0.1431596 0.1038763 0.1033918
0.1584217 0.1160411 0.1156831
0.1751204 0.1295059 0.1292372
0.1930966 0.1441694 0.1439658
0.2122168 0.1599454 0.1597901
0.2323726 0.1767633 0.1766443
0.2534770 0.1945662 0.1944750
0.2754611 0.2133093 0.2132395
0.2982701 0.2329573 0.2329041
0.3218601 0.2534826 0.2534424
0.3461961 0.2748635 0.2748334
0.3712496 0.2970831 0.2970610
0.3969974 0.3201282 0.3201123
0.4234203 0.3439885 0.3439775
0.4505021 0.3686558 0.3686488
0.4782293 0.3941241 0.3941201
0.5065904 0.4203884 0.4203869
0.5355753 0.4474450 0.4474455
0.5651754 0.4752914 0.4752934
0.5953829 0.5039254 0.5039286
0.6261910 0.5333457 0.5333498
0.6575936 0.5635513 0.5635563
0.6895852 0.5945420 0.5945475
0.0557780 0.0924795 0.0557806
0.0551274 0.0928048 0.0495056
0.0640863 0.0935953 0.0219329
0.0936626 0.0936626 0.0179966
0.1249447 0.0937454 0.0045589
0.1298374 0.0935303 0.0734079
0.1323822 0.0954492 0.0862074
0.1367737 0.0988716 0.0936701
0.1429809 0.1037605 0.1005216
0.1510965 0.1102015 0.1080518
0.1611746 0.1182610 0.1167692
0.1731938 0.1279521 0.1268827
0.1870644 0.1392355 0.1384504
0.2026513 0.1520345 0.1514481
0.2197999 0.1662537 0.1658102
0.2383561 0.1817934 0.1814550
0.2581784 0.1985595 0.1982999
0.2791433 0.2164689 0.2162691
0.3011468 0.2354504 0.2352964
0.3241029 0.2554451 0.2553266
0.3479413 0.2764051 0.2763141
0.3726051 0.2982915 0.2982219
0.3980481 0.3210733 0.3210206
0.4242330 0.3447259 0.3446863
0.4511293 0.3692298 0.3692006
0.4787122 0.3945696 0.3945484
0.5069610 0.4207331 0.4207183
0.5358589 0.4477109 0.4477011
0.5653916 0.4754956 0.4754897
0.5955471 0.5040817 0.5040788
0.6263152 0.5334647 0.5334643
0.6576871 0.5636416 0.5636430
0.6896551 0.5946100 0.5946129
0.0770460 0.1234269 0.0770495
0.0766831 0.1236053 0.0736837
0.0749124 0.1243903 0.0528336
0.0951146 0.1248223 0.0312171
0.1248918 0.1248919 0.0264720
0.1560359 0.1249769 0.0141987
0.1685644 0.1244629 0.0873759
0.1702001 0.1256582 0.1093062
0.1736784 0.1284169 0.1192521
0.1788153 0.1325564 0.1268519
0.1856953 0.1381450 0.1343647
0.1944316 0.1452880 0.1426729
0.2050942 0.1540639 0.1521972
0.2176870 0.1645029 0.1631385
0.2321498 0.1765850 0.1755698
0.2483740 0.1902504 0.1894850
0.2662235 0.2054145 0.2048318
0.2855526 0.2219813 0.2215348
0.3062205 0.2398550 0.2395114
0.3280986 0.2589462 0.2586812
0.3510747 0.2791756 0.2789712
0.3750531 0.3004755 0.3003179
0.3999543 0.3227889 0.3226678
0.4257126 0.3460691 0.3459765
0.4522743 0.3702779 0.3702075
0.4795953 0.3953846 0.3953317
0.5076399 0.4213647 0.4213253
0.5363790 0.4481985 0.4481698
0.5657885 0.4758706 0.4758502
0.5958487 0.5043688 0.5043548
0.6265434 0.5336835 0.5336746
0.6578589 0.5638075 0.5638025
0.6897838 0.5947351 0.5947332
0.0991689 0.1544077 0.0991730
0.0989434 0.1545158 0.0971116
0.0979896 0.1549494 0.0875535
0.0979619 0.1560040 0.0442410
0.1262312 0.1560525 0.0414440
0.1561234 0.1561234 0.0359673
0.1871832 0.1562094 0.0235415
0.2066329 0.1557002 0.0943378
0.2074959 0.1562358 0.1310201
0.2102945 0.1584727 0.1444596
0.2146688 0.1620593 0.1533425
0.2206578 0.1670183 0.1612406
0.2283862 0.1734588 0.1694647
0.2379712 0.1814933 0.1786470
0.2494834 0.1912016 0.1891263
0.2629310 0.2026163 0.2010765
0.2782625 0.2157221 0.2145642
0.2953794 0.2304642 0.2295849
0.3141537 0.2467613 0.2460888
0.3344448 0.2645182 0.2640015
0.3561128 0.2836373 0.2832392
0.3790273 0.3040251 0.3037181
0.4030721 0.3255973 0.3253605
0.4281466 0.3482799 0.3480978
0.4541660 0.3720104 0.3718708
0.4810594 0.3967364 0.3966299
0.5087684 0.4224148 0.4223342
0.5372452 0.4490108 0.4489504
0.5664505 0.4764962 0.4764514
0.5963524 0.5048483 0.5048158
0.6269248 0.5340493 0.5340262
0.6581462 0.5640850 0.5640693
0.6899991 0.5949445 0.5949345
0.1220326 0.1854162 0.1220374
0.1218842 0.1854856 0.1206898
0.1212945 0.1857531 0.1150716
0.1196948 0.1864247 0.0968879
0.1287741 0.1872335 0.0559348
0.1573893 0.1872851 0.0525846
0.1873568 0.1873569 0.0464266
0.2183598 0.1874433 0.0335559
0.2441084 0.1871453 0.0886761
0.2442759 0.1870539 0.1513273
0.2465268 0.1888483 0.1692530
0.2503210 0.1919999 0.1798349
0.2556398 0.1964748 0.1884099
0.2625975 0.2023696 0.1967935
0.2713318 0.2098107 0.2058393
0.2819551 0.2189098 0.2160180
0.2945288 0.2297408 0.2275991
0.3090544 0.2423304 0.2407234
0.3254767 0.2566583 0.2554407
0.3436964 0.2726666 0.2717373
0.3635859 0.2902710 0.2895583
0.3850050 0.3093739 0.3088257
0.4078139 0.3298743 0.3294521
0.4318810 0.3516754 0.3513503
0.4570884 0.3746887 0.3744388
0.4833333 0.3988368 0.3986453
0.5105283 0.4240531 0.4239070
0.5386003 0.4502820 0.4501712
0.5674887 0.4774774 0.4773941
0.5971439 0.5056018 0.5055398
0.6275250 0.5346248 0.5345794
0.6585989 0.5645222 0.5644896
0.6903385 0.5952746 0.5952518
0.1455559 0.2164485 0.1455614
0.1454546 0.2164947 0.1446445
0.1450646 0.2166697 0.1410131
0.1440957 0.2170844 0.1311788
0.1417771 0.2179880 0.0995440
0.1597314 0.2184658 0.0684819
0.1885711 0.2185196 0.0646134
0.2185919 0.2185920 0.0578103
0.2495540 0.2186786 0.0443776
0.2810448 0.2187349 0.0251217
0.2805708 0.2180400 0.1702113
0.2823585 0.2194427 0.1936689
0.2856900 0.2222357 0.2062912
0.2904859 0.2263251 0.2157581
0.2968410 0.2317878 0.2244803
0.3048986 0.2387526 0.2335488
0.3147962 0.2473508 0.2435643
0.3266338 0.2576868 0.2548860
0.3404571 0.2698228 0.2677249
0.3562526 0.2837726 0.2821861
0.3739535 0.2995048 0.2982965
0.3934525 0.3169519 0.3160273
0.4146173 0.3360228 0.3353131
0.4373052 0.3566145 0.3560690
0.4613749 0.3786216 0.3782025
0.4866945 0.4019442 0.4016226
0.5131455 0.4264911 0.4262450
0.5406252 0.4521823 0.4519949
0.5690458 0.4789495 0.4788075
0.5983342 0.5067354 0.5066286
0.6284296 0.5354925 0.5354130
0.6592823 0.5651823 0.5651239
0.6908517 0.5957737 0.5957315
0.1696773 0.2475017 0.1696834
0.1696064 0.2475334 0.1690424
0.1693378 0.2476520 0.1665733
0.1687014 0.2479250 0.1604215
0.1673306 0.2484797 0.1453236
0.1642226 0.2496114 0.0891650
0.1907702 0.2497002 0.0818690
0.2197678 0.2497557 0.0775092
0.2498285 0.2498286 0.0700884
0.2807599 0.2499152 0.0560353
0.3125000 0.2500000 0.0000630
0.3164143 0.2491473 0.1876337
0.3177985 0.2501952 0.2177726
0.3207482 0.2526830 0.2327236
0.3251244 0.2564570 0.2432425
0.3309987 0.2615712 0.2524334
0.3385125 0.2681514 0.2616448
0.3478176 0.2763396 0.2716076
0.3590414 0.2862631 0.2827665
0.3722653 0.2980129 0.2953977
0.3875126 0.3116336 0.3096595
0.4047492 0.3271207 0.3256204
0.4238910 0.3444264 0.3432807
0.4448183 0.3634699 0.3625926
0.4673911 0.3841502 0.3834776
0.4914626 0.4063575 0.4058419
0.5168900 0.4299822 0.4295876
0.5435417 0.4549213 0.4546202
0.5713004 0.4810822 0.4808533
0.6000648 0.5083841 0.5082112
0.6297490 0.5367584 0.5366287
0.6602815 0.5661477 0.5660513
0.6916033 0.5965049 0.5964341
0.1943483 0.2785736 0.1943550
0.1942976 0.2785958 0.1938978
0.1941079 0.2786783 0.1921655
0.1936701 0.2788650 0.1880419
0.1927797 0.2792305 0.1790205
0.1909859 0.2799191 0.1571968
0.1940539 0.2808952 0.0990930
0.2218602 0.2809364 0.0960835
0.2509749 0.2809931 0.0912544
0.2810663 0.2810664 0.0832377
0.3119740 0.2811531 0.0685308
0.3436537 0.2812412 0.0261600
0.3518373 0.2803432 0.2035217
0.3528642 0.2810657 0.2416421
0.3554915 0.2832882 0.2591667
0.3595233 0.2867991 0.2708551
0.3650078 0.2916285 0.2806077
0.3720803 0.2978960 0.2900505
0.3809006 0.3057501 0.3000472
0.3916158 0.3153341 0.3111241
0.4043353 0.3267632 0.3236186
0.4191145 0.3401087 0.3377391
0.4359493 0.3553916 0.3535944
0.4547799 0.3725844 0.3712154
0.4755016 0.3916194 0.3905737
0.4979803 0.4124002 0.4116007
0.5220671 0.4348149 0.4342038
0.5476112 0.4587465 0.4582802
0.5744693 0.4840817 0.4837270
0.6025112 0.5107160 0.5104473
0.6316226 0.5385567 0.5383543
0.6617054 0.5675237 0.5673724
0.6926773 0.5975499 0.5974378
0.2195294 0.3096624 0.2195366
0.2194927 0.3096782 0.2192056
0.2193561 0.3097366 0.2179640
0.2190461 0.3098676 0.2150877
0.2184366 0.3101185 0.2091714
0.2172861 0.3105715 0.1968591
0.2150522 0.3113881 0.1662431
0.2249639 0.3121313 0.1144768
0.2529848 0.3121742 0.1111141
0.2821895 0.3122318 0.1058345
0.3123053 0.3123054 0.0972395
0.3431942 0.3123921 0.0818576
0.3748146 0.3124817 0.0426136
0.3868675 0.3116035 0.2177567
0.3875750 0.3120262 0.2653619
0.3899258 0.3140153 0.2856651
0.3936708 0.3173035 0.2986056
0.3988353 0.3218980 0.3089835
0.4055472 0.3279107 0.3187213
0.4139703 0.3354935 0.3288178
0.4242662 0.3448022 0.3398788
0.4365667 0.3559715 0.3522991
0.4509544 0.3690960 0.3663336
0.4674527 0.3842205 0.3821299
0.4860249 0.4013373 0.3997487
0.5065824 0.4203926 0.4191824
0.5289988 0.4412963 0.4403738
0.5531252 0.4639362 0.4632333
0.5788048 0.4881895 0.4876550
0.6058844 0.5139335 0.5135284
0.6342217 0.5410526 0.5407470
0.6636901 0.5694426 0.5692133
0.6941800 0.5990124 0.5988417
0.2451879 0.3407667 0.2451956
0.2451610 0.3407781 0.2449531
0.2450613 0.3408201 0.2440495
0.2448373 0.3409136 0.2419914
0.2444063 0.3410904 0.2379105
0.2436240 0.3414017 0.2300513
0.2422097 0.3419370 0.2139586
0.2395238 0.3428754 0.1714840
0.2559497 0.3433691 0.1306525
0.2841341 0.3434132 0.1269509
0.3134099 0.3434717 0.1212372
0.3435453 0.3435454 0.1120789
0.3744191 0.3436322 0.0960071
0.4059920 0.3437229 0.0578834
0.4215291 0.3429097 0.2301575
0.4219502 0.3430561 0.2890209
0.4240617 0.3448385 0.3122672
0.4275654 0.3479368 0.3265120
0.4324651 0.3523365 0.3375550
0.4388810 0.3581418 0.3476314
0.4469791 0.3655063 0.3578770
0.4569318 0.3745958 0.3689750
0.4688892 0.3855611 0.3813747
0.4829573 0.3985177 0.3953745
0.4991837 0.4135316 0.4111581
0.5175534 0.4306143 0.4288153
0.5379940 0.4497255 0.4483591
0.5603873 0.4707826 0.4697443
0.5845858 0.4936737 0.4928855
0.6104278 0.5182714 0.5176744
0.6377512 0.5444445 0.5439938
0.6664028 0.5720666 0.5717281
0.6962442 0.6010222 0.6007695
0.2712959 0.3718853 0.2713041
0.2712760 0.3718936 0.2711248
0.2712025 0.3719241 0.2704595
0.2710384 0.3719918 0.2689611
0.2707269 0.3721187 0.2660578
0.2701755 0.3723386 0.2607153
0.2692210 0.3727063 0.2507581
0.2675419 0.3733187 0.2303243
0.2643971 0.3743726 0.1710364
0.2869896 0.3746082 0.1476125
0.3153019 0.3746535 0.1435853
0.3446347 0.3747126 0.1374521
0.3747864 0.3747865 0.1277433
0.4056479 0.3748733 0.1109702
0.4371820 0.3749648 0.0731172
0.4558437 0.3742474 0.2404534
0.4560080 0.3741398 0.3127110
0.4579114 0.3757386 0.3390222
0.4612108 0.3786747 0.3545962
0.4658907 0.3829130 0.3663241
0.4720637 0.3885505 0.3767664
0.4798971 0.3957421 0.3871966
0.4895719 0.4046617 0.3983738
0.5012538 0.4154745 0.4107986
0.5150686 0.4283139 0.4248102
0.5310859 0.4432657 0.4406263
0.5493106 0.4603591 0.4583641
0.5696850 0.4795670 0.4780565
0.5920997 0.5008139 0.4996702
0.6164087 0.5239891 0.5231242
0.6424463 0.5489607 0.5483083
0.6700419 0.5755892 0.5750990
0.6990320 0.6037379 0.6033716
0.2978296 0.4030172 0.2978383
0.2978148 0.4030233 0.2977047
0.2977601 0.4030457 0.2972106
0.2976386 0.4030952 0.2961059
0.2974102 0.4031874 0.2939978
0.2970122 0.4033457 0.2902285
0.2963423 0.4036057 0.2835736
0.2952178 0.4040257 0.2713636
0.2932756 0.4047100 0.2459511
0.2909003 0.4058142 0.1682834
0.3180695 0.4058487 0.1653501
0.3464840 0.4058948 0.1610096
0.3758633 0.4059544 0.1544702
0.4060283 0.4060284 0.1442224
0.4368798 0.4061152 0.1267384
0.4683821 0.4062074 0.0886818
0.4898305 0.4056052 0.2482364
0.4897651 0.4052653 0.3365270
0.4914876 0.4067015 0.3659782
0.4946139 0.4094989 0.3828810
0.4991113 0.4136044 0.3952967
0.5050859 0.4191082 0.4061188
0.5127057 0.4261663 0.4167582
0.5221596 0.4349602 0.4280474
0.5336264 0.4456677 0.4405362
0.5472497 0.4584388 0.4546019
0.5631184 0.4733770 0.4704941
0.5812553 0.4905279 0.4883553
0.6016168 0.5098768 0.5082375
0.6241010 0.5313550 0.5301184
0.6485636 0.5548524 0.5539212
0.6748346 0.5802327 0.5795336
0.7027356 0.6073483 0.6068257
0.3247681 0.4341616 0.3247772
0.3247570 0.4341661 0.3246771
0.3247161 0.4341826 0.3243076
0.3246254 0.4342190 0.3234856
0.3244560 0.4342868 0.3219333
0.3241642 0.4344022 0.3192097
0.3236819 0.4345896 0.3145614
0.3228966 0.4348865 0.3065517
0.3216059 0.4353548 0.2919399
0.3194052 0.4361058 0.2608271
0.3218524 0.4370549 0.1870288
0.3491805 0.4370903 0.1838592
0.3776774 0.4371371 0.1792172
0.4070949 0.4371971 0.1722841
0.4372711 0.4372712 0.1615074
0.4681143 0.4373580 0.1433040
0.4995903 0.4374508 0.1047361
0.5235067 0.4369738 0.2528708
0.5232373 0.4364231 0.3605654
0.5248028 0.4377159 0.3931810
0.5277828 0.4403959 0.4113882
0.5321296 0.4443934 0.4244801
0.5379437 0.4497933 0.4356850
0.5453945 0.4567531 0.4465491
0.5546776 0.4654612 0.4579760
0.5659840 0.4761075 0.4705620
0.5794733 0.4888571 0.4847206
0.5952516 0.5038301 0.5007306
0.6133579 0.5210869 0.5187586
0.6337609 0.5406241 0.5388738
0.6563657 0.5623789 0.5610640
0.6810283 0.5862412 0.5852555
0.7075746 0.6120698 0.6113336
0.3520931 0.4653175 0.3521025
0.3520847 0.4653209 0.3520272
0.3520539 0.4653331 0.3517494
0.3519859 0.4653602 0.3511336
0.3518593 0.4654103 0.3499790
0.3516428 0.4654952 0.3479790
0.3512896 0.4656321 0.3446413
0.3507260 0.4658463 0.3391093
0.3498292 0.4661771 0.3297131
0.3483780 0.4666896 0.3125624
0.3459261 0.4675018 0.2749366
0.3528603 0.4682968 0.2065302
0.3803159 0.4683330 0.2031343
0.4088801 0.4683803 0.1982022
0.4383291 0.4684406 0.1908873
0.4685147 0.4685148 0.1795907
0.4993512 0.4686016 0.1606598
0.5308055 0.4686949 0.1213591
0.5568879 0.4683460 0.2533009
0.5564387 0.4676057 0.3849233
0.5578690 0.4687732 0.4206730
0.5607264 0.4713548 0.4401385
0.5649502 0.4752667 0.4538821
0.5706370 0.4805894 0.4654639
0.5779579 0.4874826 0.4765610
0.5871153 0.4961419 0.4881452
0.5983116 0.5067687 0.5008573
0.6117209 0.5195424 0.5151443
0.6274650 0.5345983 0.5313129
0.6455977 0.5520108 0.5495515
0.6660980 0.5717861 0.5699447
0.6888763 0.5938662 0.5924890
0.7137884 0.6181400 0.6171128
0.3797882 0.4964845 0.3797980
0.3797819 0.4964870 0.3797411
0.3797586 0.4964961 0.3795313
0.3797073 0.4965163 0.3790677
0.3796121 0.4965536 0.3782026
0.3794503 0.4966166 0.3767175
0.3791885 0.4967175 0.3742766
0.3787765 0.4968741 0.3703330
0.3781353 0.4971126 0.3639211
0.3771322 0.4974742 0.3531205
0.3755273 0.4980268 0.3333116
0.3728343 0.4988947 0.2882637
0.3839124 0.4995398 0.2267827
0.4114713 0.4995766 0.2231705
0.4400906 0.4996243 0.2179593
0.4695657 0.4996849 0.2102740
0.4997590 0.4997591 0.1984662
0.5305900 0.4998460 0.1787995
0.5620264 0.4999397 0.1385927
0.5899884 0.4997158 0.2475829
0.5893827 0.4988069 0.4096972
0.5906978 0.4998665 0.4484928
0.5934536 0.5023676 0.4691496
0.5975791 0.5062142 0.4835099
0.6031681 0.5114841 0.4954551
0.6103942 0.5183399 0.5067878
0.6194671 0.5269851 0.5185445
0.6306001 0.5376323 0.5314081
0.6439808 0.5504748 0.5458573
0.6597459 0.5656623 0.5622244
0.6779614 0.5832814 0.5807179
0.6986156 0.6033472 0.6014359
0.7216225 0.6258044 0.6243820
0.4078389 0.5276619 0.4078490
0.4078341 0.5276637 0.4078059
0.4078165 0.5276706 0.4076470
0.4077777 0.5276857 0.4072965
0.4077058 0.5277135 0.4066449
0.4075840 0.5277605 0.4055335
0.4073883 0.5278354 0.4037260
0.4070834 0.5279510 0.4008562
0.4066159 0.5281254 0.3963214
0.4059014 0.5283859 0.3890431
0.4047980 0.5287751 0.3768354
0.4030477 0.5293637 0.3542749
0.4001259 0.5302816 0.3007970
0.4150005 0.5307838 0.2477818
0.4426432 0.5308210 0.2439633
0.4713076 0.5308691 0.2384842
0.5008042 0.5309299 0.2304393
0.5310041 0.5310042 0.2181283
0.5618306 0.5310911 0.1977175
0.5932524 0.5311851 0.1564595
0.6228214 0.5310786 0.2314284
0.6220814 0.5300222 0.4349808
0.6232999 0.5309905 0.4766743
0.6259735 0.5334276 0.4984370
0.6300229 0.5372278 0.5133695
0.6355408 0.5424677 0.5256587
0.6427044 0.5493138 0.5372252
0.6517310 0.5579780 0.5491663
0.6628449 0.5686845 0.5622043
0.6762470 0.5816403 0.5768480
0.6920869 0.5970085 0.5934535
0.7104423 0.6148871 0.6122472
0.7313081 0.6352980 0.6333391
0.4362319 0.5588491 0.4362423
0.4362283 0.5588505 0.4362096
0.4362149 0.5588557 0.4360890
0.4361854 0.5588670 0.4358233
0.4361310 0.5588878 0.4353307
0.4360391 0.5589230 0.4344942
0.4358919 0.5589789 0.4331441
0.4356642 0.5590648 0.4310265
0.4353188 0.5591936 0.4277447
0.4347994 0.5593840 0.4226400
0.4340165 0.5596640 0.4145187
0.4328196 0.5600776 0.4009192
0.4309337 0.5606981 0.3755465
0.4277975 0.5616603 0.3125375
0.4461184 0.5620287 0.2695235
0.4738292 0.5620663 0.2655087
0.5025303 0.5621147 0.2597725
0.5320445 0.5621756 0.2513791
0.5622498 0.5622499 0.2385723
0.5930728 0.5623369 0.2174087
0.6244828 0.5624312 0.1749707
0.6553990 0.5624307 0.1909670
0.6545463 0.5612476 0.4608623
0.6556857 0.5621407 0.5052463
0.6582949 0.5645298 0.5280129
0.6622887 0.5683017 0.5434655
0.6677603 0.5735330 0.5560748
0.6748914 0.5803960 0.5678699
0.6839079 0.5891114 0.5800048
0.6950454 0.5999157 0.5932388
0.7085174 0.6130295 0.6081089
0.7244862 0.6286288 0.6249931
0.7430387 0.6468216 0.6441341
0.4649553 0.5900458 0.4649660
0.4649526 0.5900468 0.4649411
0.4649424 0.5900507 0.4648494
0.4649200 0.5900592 0.4646477
0.4648787 0.5900749 0.4642742
0.4648090 0.5901012 0.4636422
0.4646979 0.5901431 0.4626278
0.4645269 0.5902073 0.4610503
0.4642694 0.5903030 0.4586387
0.4638866 0.5904435 0.4549664
0.4633193 0.5906480 0.4493192
0.4624735 0.5909452 0.4403888
0.4611905 0.5913801 0.4254320
0.4591796 0.5920284 0.3972277
0.4558456 0.5930292 0.3235114
0.4772617 0.5932745 0.2920040
0.5050273 0.5933124 0.2878030
0.5337580 0.5933610 0.2818207
0.5632864 0.5934219 0.2730896
0.5934962 0.5934963 0.2597943
0.6243164 0.5935833 0.2378684
0.6557171 0.5936780 0.1941305
0.6875000 0.5937500 0.0004950
0.6867879 0.5924801 0.4874221
0.6878649 0.5933139 0.5342321
0.6904263 0.5956703 0.5578862
0.6943838 0.5994310 0.5738008
0.6998322 0.6046748 0.5867027
0.7069595 0.6115804 0.5987192
0.7160009 0.6203791 0.6110559
0.7272036 0.6313200 0.6245070
0.7407940 0.6446374 0.6396356
0.7569458 0.6605198 0.6568403
0.4939982 0.6212514 0.4940092
0.4939961 0.6212522 0.4939902
0.4939884 0.6212551 0.4939204
0.4939714 0.6212615 0.4937670
0.4939399 0.6212733 0.4934835
0.4938871 0.6212931 0.4930047
0.4938030 0.6213246 0.4922394
0.4936739 0.6213726 0.4910567
0.4934808 0.6214441 0.4892661
0.4931959 0.6215485 0.4865796
0.4927790 0.6216993 0.4825424
0.4921681 0.6219160 0.4763867
0.4912653 0.6222279 0.4666915
0.4899043 0.6226812 0.4504325
0.4877802 0.6233531 0.4194265
0.4842666 0.6243868 0.3337902
0.5084269 0.6245211 0.3152199
0.5362361 0.6245592 0.3108429
0.5649902 0.6246079 0.3046256
0.5945299 0.6246689 0.2955675
0.6247432 0.6247433 0.2817908
0.6555614 0.6248303 0.2590924
0.6869549 0.6249253 0.2139379
0.7187500 0.6250000 0.0005888
0.7188162 0.6237177 0.5147296
0.7198466 0.6245075 0.5636491
0.7223762 0.6268461 0.5880630
0.7263154 0.6306125 0.6043767
0.7317629 0.6358892 0.6175414
0.7389142 0.6428632 0.6297706
0.7480146 0.6517773 0.6423168
0.7593242 0.6628943 0.6560062
0.7730818 0.6764625 0.6714268
0.5233506 0.6524656 0.5233617
0.5233490 0.6524662 0.5233473
0.5233431 0.6524684 0.5232942
0.5233301 0.6524732 0.5231775
0.5233062 0.6524821 0.5229620
0.5232661 0.6524971 0.5225988
0.5232023 0.6525207 0.5220199
0.5231047 0.6525568 0.5211294
0.5229592 0.6526103 0.5197906
0.5227459 0.6526882 0.5178033
0.5224364 0.6528001 0.5148642
0.5219887 0.6529597 0.5104916
0.5213390 0.6531868 0.5038669
0.5203854 0.6535112 0.4934614
0.5189550 0.6539797 0.4759767
0.5167300 0.6546713 0.4422551
0.5130566 0.6557323 0.3435230
0.5396114 0.6557685 0.3391678
0.5674543 0.6558068 0.3346252
0.5962264 0.6558555 0.3281841
0.6257747 0.6559165 0.3188101
0.6559908 0.6559909 0.3045589
0.6868076 0.6560780 0.2810771
0.7181959 0.6561732 0.2343887
0.7500000 0.6562500 0.0006994
0.7506406 0.6549584 0.5428408
0.7516396 0.6557196 0.5935090
0.7541527 0.6580550 0.6185457
0.7580912 0.6618437 0.6351928
0.7635595 0.6671739 0.6485891
0.7707619 0.6742423 0.6610220
0.7799557 0.6833047 0.6737857
0.7914141 0.6946387 0.6877360
0.5530032 0.6836881 0.5530145
0.5530020 0.6836886 0.5530035
0.5529975 0.6836902 0.5529631
0.5529876 0.6836938 0.5528744
0.5529695 0.6837005 0.5527105
0.5529389 0.6837118 0.5524348
0.5528905 0.6837296 0.5519963
0.5528166 0.6837567 0.5513240
0.5527067 0.6837968 0.5503185
0.5525464 0.6838551 0.5488374
0.5523152 0.6839386 0.5466719
0.5519838 0.6840569 0.5435048
0.5515091 0.6842238 0.5388296
0.5508253 0.6844595 0.5317811
0.5498272 0.6847940 0.5207299
0.5483364 0.6852749 0.5021172
0.5460239 0.6859822 0.4658277
0.5440545 0.6869870 0.3672173
0.5708132 0.6870167 0.3638446
0.5986812 0.6870550 0.3591470
0.6274663 0.6871037 0.3524936
0.6570207 0.6871647 0.3428147
0.6872389 0.6872391 0.3280959
0.7180550 0.6873262 0.3038189
0.7494400 0.6874217 0.2554751
0.7812500 0.6875000 0.0008298
0.7822700 0.6862013 0.5717957
0.7832523 0.6869488 0.6238170
0.7857635 0.6892956 0.6493339
0.7897185 0.6931233 0.6662471
0.7952290 0.6985276 0.6798435
0.8025100 0.7057171 0.6924715
0.8118320 0.7149621 0.7054618
0.5829475 0.7149185 0.5829590
0.5829466 0.7149188 0.5829507
0.5829432 0.7149201 0.5829199
0.5829357 0.7149228 0.5828524
0.5829219 0.7149279 0.5827280
0.5828987 0.7149363 0.5825187
0.5828619 0.7149497 0.5821863
0.5828059 0.7149701 0.5816781
0.5827228 0.7150003 0.5809209
0.5826020 0.7150440 0.5798117
0.5824285 0.7151063 0.5782035
0.5821816 0.7151943 0.5758799
0.5818312 0.7153179 0.5725114
0.5813333 0.7154908 0.5675697
0.5806204 0.7157333 0.5601473
0.5795847 0.7160758 0.5485242
0.5780427 0.7165661 0.5289017
0.5756564 0.7172853 0.4902569
0.5752397 0.7182357 0.3927278
0.6020307 0.7182655 0.3892474
0.6299159 0.7183038 0.3844057
0.6587097 0.7183525 0.3775517
0.6882680 0.7184134 0.3675793
0.7184876 0.7184877 0.3523998
0.7493035 0.7185749 0.3273145
0.7806869 0.7186707 0.2771868
0.8125000 0.7187500 0.0009835
0.8137128 0.7174457 0.6016169
0.8146927 0.7181942 0.6545727
0.8172164 0.7205670 0.6804243
0.8212049 0.7244504 0.6975358
0.8267792 0.7299503 0.7113016
0.8341668 0.7372887 0.7241175
