LUTs/luminance_correction_bt2020.cube
TITLE "Pre-formation 2012 Luminance Correction for BT.2020 Target"
# Use CIE 2012 Luminance to Compensate for Some Out-of-Domain Values
# This LUT assumes input and output to be XYZ I-E encoded in ST2084 (200)
# LUT resolution 45
LUT_3D_SIZE 5
0.0000007 0.0000007 0.0000007
0.1320040 0.0948269 0.0979820
0.3168518 0.2486362 0.2547221
0.5362539 0.4474442 0.4556379
0.7840026 0.6865054 0.6957363
0.1609991 0.2472074 0.1684006
0.2497762 0.2498626 0.0711537
0.3674992 0.2932975 0.2927358
0.5438114 0.4545388 0.4620147
0.7848212 0.6873174 0.6964659
0.3657417 0.4960696 0.3777371
0.3633256 0.4969852 0.3574325
0.4996856 0.4998069 0.2007284
0.6270208 0.5336278 0.5252846
0.7978091 0.7002183 0.7079459
0.5963678 0.7457023 0.6107334
0.5961203 0.7457927 0.6088151
0.5910807 0.7474394 0.5624921
0.7496567 0.7497891 0.3807265
0.8815824 0.7842585 0.7742494
0.8471378 0.9958693 0.8619232
0.8471128 0.9958778 0.8617326
0.8466843 0.9960228 0.8584142
0.8413470 0.9976275 0.8081740
0.9996703 0.9997975 0.6092957
0.0929852 0.0948276 0.1686718
0.1672260 0.1221733 0.1702240
0.3216420 0.2527574 0.2643206
0.5368343 0.4479807 0.4568723
0.7840637 0.6865651 0.6958730
0.1822773 0.2482184 0.2505707
0.2500000 0.2500000 0.2500000
0.3701803 0.2956154 0.3017577
0.5443498 0.4550368 0.4632226
0.7848819 0.6873767 0.6966023
0.3682694 0.4960914 0.3919599
0.3661288 0.4969650 0.3761121
0.5000000 0.5000000 0.2500000
0.6272454 0.5338345 0.5264323
0.7978624 0.7002705 0.7080768
0.5966588 0.7457042 0.6124436
0.5964141 0.7457942 0.6105696
0.5914326 0.7474333 0.5655921
0.7497237 0.7498306 0.3807458
0.8816041 0.7842795 0.7743718
0.8471674 0.9958694 0.8620970
0.8471425 0.9958780 0.8619068
0.8467144 0.9960229 0.8585965
0.8413833 0.9976268 0.8085132
0.9996766 0.9998014 0.6092980
0.2450545 0.2486376 0.3781732
0.2611932 0.2421897 0.4051320
0.3758455 0.2994939 0.3806650
0.5461296 0.4565762 0.4767225
0.7850908 0.6875692 0.6981699
0.2748568 0.2929749 0.4099935
0.2863661 0.2893267 0.4298923
0.4045190 0.3251458 0.4090625
0.5530000 0.4630414 0.4826571
0.7859007 0.6883728 0.6988928
0.3997599 0.4974944 0.5008013
0.3999789 0.4978772 0.5008455
0.5000000 0.5000000 0.5000000
0.6309405 0.5372337 0.5446703
0.7987585 0.7011470 0.7102770
0.6013949 0.7457478 0.6375582
0.6011936 0.7458316 0.6362554
0.5971131 0.7473490 0.6072080
0.7500000 0.7500000 0.5000000
0.8819698 0.7846333 0.7764248
0.8476658 0.9958724 0.8649869
0.8476414 0.9958809 0.8648042
0.8472214 0.9960248 0.8616251
0.8419939 0.9976166 0.8140791
0.9997837 0.9998676 0.6093359
0.4425944 0.4474461 0.6112530
0.4442964 0.4470190 0.6137928
0.4862818 0.4212660 0.6737455
0.6084774 0.5142484 0.6142184
0.7950008 0.6972589 0.7203308
0.4474309 0.4542593 0.6160109
0.4490727 0.4538485 0.6184707
0.4893154 0.4301784 0.6762040
0.6121284 0.5177308 0.6178318
0.7957351 0.6979889 0.7209952
0.5003384 0.5340406 0.6641976
0.5013243 0.5338534 0.6657683
0.5234288 0.5263490 0.6999650
0.6605312 0.5641925 0.6654635
0.8074568 0.7096550 0.7315304
0.6367485 0.7472615 0.7508749
0.6367733 0.7473007 0.7508813
0.6371689 0.7479661 0.7509287
0.7500000 0.7500000 0.7500000
0.8856076 0.7881493 0.7959965
0.8525651 0.9959158 0.8903789
0.8525451 0.9959236 0.8902532
0.8522012 0.9960575 0.8880760
0.8479397 0.9975296 0.8580928
1.0000000 1.0000000 0.7500000
0.6810172 0.6865075 0.8624559
0.6812043 0.6864629 0.8627086
0.6844506 0.6856142 0.8670836
0.7334575 0.6525072 0.9299790
0.8596086 0.7603440 0.8654934
0.6815729 0.6872834 0.8629526
0.6817592 0.6872388 0.8632045
0.6849928 0.6863939 0.8675644
0.7337764 0.6535998 0.9302078
0.8599827 0.7607200 0.8658626
0.6904048 0.6997304 0.8707815
0.6905796 0.6996889 0.8710196
0.6936110 0.6989061 0.8751397
0.7388606 0.6708112 0.9337868
0.8661138 0.7668861 0.8719112
0.7472623 0.7848115 0.9175585
0.7473645 0.7847934 0.9177080
0.7491283 0.7844618 0.9202847
0.7732145 0.7762213 0.9543450
0.9143371 0.8156274 0.9192140
0.8884218 0.9973687 1.0008400
0.8884243 0.9973724 1.0008406
0.8884658 0.9974350 1.0008505
0.8888663 0.9980790 1.0008906
1.0000000 1.0000000 1.0000000
