LUTs/luminance_correction.cube
TITLE "Pre-formation 2012 Luminance Correction"
# Use CIE 2012 Luminance to Compensate for Some Out-of-Domain Values
# This LUT assumes input and output to be XYZ I-E encoded in ST2084 (100)
# LUT resolution 33
LUT_3D_SIZE 9
0.0000007 0.0000007 0.0000007
0.0384321 0.0251638 0.0251646
0.0958577 0.0671417 0.0671435
0.1671892 0.1230882 0.1230912
0.2506314 0.1921537 0.1921577
0.3451704 0.2739579 0.2739629
0.4501369 0.3683217 0.3683276
0.5650499 0.4751728 0.4751794
0.6895446 0.5945025 0.5945096
0.0770460 0.1234269 0.0770495
0.1248918 0.1248919 0.0264720
0.1736784 0.1284169 0.1192521
0.2050942 0.1540639 0.1521972
0.2662235 0.2054145 0.2048318
0.3510747 0.2791756 0.2789712
0.4522743 0.3702779 0.3702075
0.5657885 0.4758706 0.4758502
0.6897838 0.5947351 0.5947332
0.1696773 0.2475017 0.1696834
0.1673306 0.2484797 0.1453236
0.2498285 0.2498286 0.0700884
0.3177985 0.2501952 0.2177726
0.3385125 0.2681514 0.2616448
0.3875126 0.3116336 0.3096595
0.4673911 0.3841502 0.3834776
0.5713004 0.4810822 0.4808533
0.6916033 0.5965049 0.5964341
0.2712959 0.3718853 0.2713041
0.2707269 0.3721187 0.2660578
0.2643971 0.3743726 0.1710364
0.3747864 0.3747865 0.1277433
0.4560080 0.3741398 0.3127110
0.4720637 0.3885505 0.3767664
0.5150686 0.4283139 0.4248102
0.5920997 0.5008139 0.4996702
0.6990320 0.6037379 0.6033716
0.3797882 0.4964845 0.3797980
0.3796121 0.4965536 0.3782026
0.3781353 0.4971126 0.3639211
0.3839124 0.4995398 0.2267827
0.4997590 0.4997591 0.1984662
0.5893827 0.4988069 0.4096972
0.6031681 0.5114841 0.4954551
0.6439808 0.5504748 0.5458573
0.7216225 0.6258044 0.6243820
0.4939982 0.6212514 0.4940092
0.4939399 0.6212733 0.4934835
0.4934808 0.6214441 0.4892661
0.4912653 0.6222279 0.4666915
0.5084269 0.6245211 0.3152199
0.6247432 0.6247433 0.2817908
0.7188162 0.6237177 0.5147296
0.7317629 0.6358892 0.6175414
0.7730818 0.6764625 0.6714268
0.6131757 0.7461565 0.6131873
0.6131562 0.7461636 0.6130119
0.6130054 0.7462180 0.6116460
0.6123388 0.7464549 0.6054335
0.6096515 0.7473559 0.5768668
0.6332628 0.7495150 0.4153734
0.7497368 0.7497370 0.3774688
0.8449770 0.7486911 0.6323090
0.8582180 0.7614430 0.7429600
0.7367862 0.8711797 0.7367982
0.7367798 0.8711819 0.7367410
0.7367310 0.8711990 0.7363000
0.7365204 0.8712724 0.7343836
0.7357531 0.8715348 0.7271582
0.7328932 0.8724551 0.6959993
0.7583230 0.8745192 0.5270543
0.8747385 0.8747386 0.4853677
0.9683967 0.8736905 0.7632729
0.8644258 0.9963062 0.8644378
0.8644239 0.9963069 0.8644201
0.8644088 0.9963120 0.8642845
0.8643445 0.9963338 0.8637032
0.8641171 0.9964106 0.8616281
0.8633555 0.9966631 0.8544247
0.8606085 0.9975210 0.8243725
0.8835852 0.9995327 0.6500899
0.9997473 0.9997474 0.6054250
0.0404677 0.0404685 0.0819462
0.0714147 0.0485462 0.0714160
0.1087358 0.0769315 0.0818190
0.1716497 0.1266765 0.1282291
0.2522080 0.1934839 0.1940450
0.3457361 0.2744551 0.2746668
0.4503380 0.3685049 0.3685868
0.5651190 0.4752378 0.4752713
0.6895669 0.5945241 0.5945401
0.0877668 0.1245696 0.1245708
0.1250000 0.1250000 0.1250000
0.1771600 0.1311585 0.1311610
0.2077431 0.1562366 0.1562400
0.2675340 0.2065274 0.2065316
0.3516061 0.2796437 0.2796487
0.4524712 0.3704574 0.3704633
0.5658571 0.4759351 0.4759417
0.6898061 0.5947567 0.5947637
0.1723241 0.2476443 0.1857518
0.1704608 0.2484991 0.1704650
0.2500000 0.2500000 0.1250000
0.3183265 0.2506264 0.2226043
0.3390798 0.2686438 0.2629055
0.3878752 0.3119564 0.3102114
0.4675609 0.3843056 0.3837113
0.5713656 0.4811435 0.4809418
0.6916252 0.5965262 0.5964643
0.2720607 0.3719204 0.2762993
0.2715177 0.3721477 0.2715254
0.2654964 0.3743356 0.1927578
0.3749869 0.3749869 0.1278465
0.4561193 0.3742312 0.3148360
0.4722119 0.3886844 0.3771998
0.5151750 0.4284123 0.4249944
0.5921533 0.5008646 0.4997487
0.6990524 0.6037577 0.6034004
0.3800327 0.4964949 0.3814234
0.3798588 0.4965635 0.3798685
0.3784005 0.4971186 0.3659830
0.3826079 0.4996123 0.2269841
0.4998193 0.4998194 0.1985033
0.5894108 0.4988299 0.4106119
0.6032115 0.5115245 0.4956061
0.6440135 0.5505059 0.5459187
0.7216390 0.6258205 0.6244074
0.4940798 0.6212547 0.4945542
0.4940218 0.6212766 0.4940326
0.4935643 0.6214470 0.4898492
0.4913574 0.6222291 0.4674825
0.5080542 0.6245440 0.3152908
0.6247624 0.6247625 0.2818045
0.7188242 0.6237242 0.5150913
0.7317763 0.6359020 0.6175924
0.7730919 0.6764724 0.6714466
0.6132030 0.7461576 0.6133702
0.6131836 0.7461646 0.6131952
0.6130330 0.7462190 0.6118328
0.6123671 0.7464557 0.6056367
0.6096832 0.7473561 0.5771593
0.6331472 0.7495223 0.4153986
0.7497430 0.7497431 0.3774738
0.8449794 0.7486932 0.6324342
0.8582222 0.7614472 0.7429762
0.7367951 0.8711800 0.7368579
0.7367888 0.8711823 0.7368007
0.7367399 0.8711994 0.7363601
0.7365294 0.8712727 0.7344453
0.7357624 0.8715350 0.7272262
0.7329037 0.8724552 0.6960996
0.7582860 0.8745215 0.5270630
0.8747405 0.8747406 0.4853695
0.9683975 0.8736912 0.7633099
0.8644286 0.9963063 0.8644562
0.8644266 0.9963070 0.8644386
0.8644116 0.9963121 0.8643029
0.8643472 0.9963339 0.8637218
0.8641199 0.9964107 0.8616472
0.8633584 0.9966631 0.8544459
0.8606117 0.9975210 0.8244035
0.8835735 0.9995334 0.6500927
0.9997479 0.9997480 0.6054256
0.1000650 0.1000666 0.1783448
0.1204860 0.0813736 0.2172151
0.1595560 0.1163444 0.1595584
0.1985457 0.1484969 0.1622998
0.2633786 0.2029343 0.2077939
0.3499666 0.2781763 0.2799732
0.4518689 0.3698998 0.3705644
0.5656479 0.4757353 0.4759754
0.6897382 0.5946899 0.5947747
0.1243303 0.1401289 0.2050254
0.1341287 0.1341296 0.2282591
0.1973436 0.1469437 0.1973458
0.2252287 0.1706320 0.1844852
0.2769445 0.2145355 0.2190324
0.3555866 0.2831515 0.2847627
0.4539706 0.3718243 0.3724150
0.5663823 0.4764292 0.4766426
0.6899769 0.5949221 0.5949979
0.1884838 0.2493173 0.2493192
0.1886518 0.2495177 0.2495192
0.2500000 0.2500000 0.2500000
0.3221713 0.2537542 0.2537572
0.3433020 0.2723098 0.2723144
0.3906115 0.3143931 0.3143983
0.4688553 0.3854901 0.3854960
0.5718643 0.4816133 0.4816198
0.6917932 0.5966889 0.5966959
0.2775943 0.3722290 0.3067571
0.2772247 0.3724128 0.3042443
0.2732024 0.3741393 0.2732053
0.3750000 0.3750000 0.2500000
0.4569632 0.3749229 0.3298668
0.4733409 0.3897040 0.3804938
0.5159881 0.4291639 0.4264038
0.5925633 0.5012524 0.5003506
0.6992092 0.6039098 0.6036218
0.3818786 0.4965782 0.3930088
0.3817208 0.4966431 0.3917222
0.3803994 0.4971681 0.3804077
0.3750000 0.5000000 0.2500001
0.5000000 0.5000000 0.2500001
0.5896258 0.4990054 0.4173920
0.6035435 0.5118339 0.4967611
0.6442635 0.5507444 0.5463897
0.7217658 0.6259440 0.6246018
0.4947031 0.6212804 0.4986397
0.4946467 0.6213019 0.4981484
0.4942023 0.6214696 0.4942128
0.4920598 0.6222387 0.4733508
0.5050909 0.6247201 0.3158415
0.6249096 0.6249097 0.2819099
0.7188855 0.6237743 0.5178307
0.7318791 0.6360004 0.6179837
0.7731694 0.6765483 0.6715984
0.6134126 0.7461658 0.6147633
0.6133933 0.7461728 0.6145917
0.6132441 0.7462269 0.6132556
0.6125843 0.7464624 0.6071835
0.6099255 0.7473580 0.5793778
0.6322496 0.7495787 0.4155926
0.7497904 0.7497905 0.3775124
0.8449984 0.7487089 0.6333915
0.8582545 0.7614788 0.7431009
0.7368636 0.8711826 0.7373150
0.7368572 0.8711848 0.7372583
0.7368085 0.8712019 0.7368204
0.7365986 0.8712751 0.7349177
0.7358339 0.8715371 0.7277465
0.7329837 0.8724556 0.6968670
0.7580011 0.8745393 0.5271301
0.8747554 0.8747555 0.4853831
0.9684036 0.8736965 0.7635938
0.8644497 0.9963071 0.8645976
0.8644478 0.9963077 0.8645800
0.8644327 0.9963128 0.8644446
0.8643685 0.9963347 0.8638647
0.8641413 0.9964114 0.8617943
0.8633805 0.9966637 0.8546081
0.8606364 0.9975212 0.8246412
0.8834832 0.9995387 0.6501148
0.9997523 0.9997525 0.6054301
0.1734415 0.1734439 0.2828848
0.1772894 0.1708048 0.2908271
0.2221495 0.1642650 0.3103018
0.2576191 0.1972132 0.2576224
0.2987533 0.2331215 0.2559206
0.3660508 0.2923690 0.3008544
0.4581315 0.3756116 0.3787430
0.5678694 0.4778254 0.4789426
0.6904641 0.5953928 0.5957699
0.1833118 0.1887964 0.2936260
0.1866725 0.1866748 0.3006895
0.2339650 0.1735410 0.3321223
0.2707628 0.2083867 0.2707660
0.3079616 0.2411105 0.2639981
0.3708150 0.2966107 0.3049806
0.4601090 0.3774259 0.3804916
0.5685887 0.4785054 0.4795966
0.6907012 0.5956235 0.5959916
0.2260062 0.2608410 0.3317764
0.2273868 0.2603053 0.3350837
0.2500000 0.2500000 0.3750000
0.3352645 0.2641938 0.3352668
0.3590397 0.2859890 0.3078471
0.4014107 0.3240255 0.3312927
0.4741815 0.3903679 0.3929096
0.5739607 0.4835882 0.4844787
0.6925054 0.5973787 0.5976786
0.2963051 0.3741495 0.3741518
0.2963516 0.3742019 0.3742042
0.2967074 0.3746037 0.3746051
0.3750000 0.3750000 0.3750000
0.4603426 0.3776703 0.3776732
0.4779754 0.3938898 0.3938951
0.5193735 0.4322947 0.4323008
0.5942906 0.5028862 0.5028928
0.6998739 0.6045544 0.6045614
0.3891705 0.4969933 0.4302400
0.3890704 0.4970442 0.4296093
0.3882343 0.4974532 0.4242588
0.3826680 0.4997045 0.3826692
0.5000000 0.5000000 0.3750000
0.5905243 0.4997366 0.4423609
0.6049421 0.5131371 0.5015969
0.6453210 0.5517530 0.5483833
0.7223039 0.6264677 0.6254275
0.4972932 0.6213960 0.5143128
0.4972435 0.6214161 0.5139263
0.4968518 0.6215724 0.5108454
0.4949675 0.6222877 0.4949762
0.5000000 0.6250000 0.3750001
0.6250000 0.6250000 0.3750001
0.7191449 0.6239861 0.5288055
0.7323153 0.6364179 0.6196398
0.7734984 0.6768706 0.6722437
0.6142976 0.7462014 0.6204844
0.6142791 0.7462082 0.6203261
0.6141356 0.7462612 0.6190943
0.6135013 0.7464916 0.6135122
0.6109474 0.7473670 0.5883120
0.6282297 0.7498195 0.4164323
0.7499922 0.7499922 0.3776766
0.8450788 0.7487759 0.6373798
0.8583915 0.7616131 0.7436305
0.7371542 0.8711937 0.7392381
0.7371479 0.8711959 0.7391828
0.7370998 0.8712129 0.7387564
0.7368925 0.8712856 0.7369043
0.7361373 0.8715457 0.7299316
0.7333235 0.8724576 0.7000706
0.7567687 0.8746150 0.5274173
0.8748191 0.8748192 0.4854411
0.9684296 0.8737189 0.7647944
0.8645396 0.9963104 0.8651973
0.8645377 0.9963110 0.8651799
0.8645227 0.9963161 0.8650456
0.8644587 0.9963379 0.8644705
0.8642324 0.9964145 0.8624178
0.8634746 0.9966663 0.8552956
0.8607415 0.9975218 0.8256471
0.8830970 0.9995614 0.6502088
0.9997714 0.9997715 0.6054493
0.2587061 0.2587092 0.3935782
0.2599346 0.2579151 0.3959349
0.2718854 0.2483525 0.4180711
0.3278412 0.2546945 0.4145926
0.3633817 0.2889882 0.3633856
0.4067586 0.3285723 0.3589616
0.4772850 0.3931349 0.4046600
0.5752582 0.4847841 0.4889262
0.6929558 0.5978062 0.5991977
0.2623608 0.2642956 0.3973243
0.2635441 0.2635471 0.3996060
0.2749889 0.2546787 0.4209346
0.3323943 0.2585737 0.4211656
0.3678321 0.2929370 0.3678360
0.4098952 0.3314030 0.3618023
0.4789268 0.3946495 0.4061307
0.5759292 0.4854197 0.4895384
0.6931875 0.5980316 0.5994145
0.2845746 0.2996397 0.4186711
0.2854744 0.2991519 0.4204786
0.2938694 0.2938719 0.4368736
0.3595192 0.2814892 0.4652093
0.3966603 0.3186706 0.3966640
0.4312646 0.3507684 0.3810534
0.4907610 0.4055891 0.4167103
0.5809504 0.4901790 0.4941162
0.6949507 0.5997479 0.6010642
0.3350261 0.3842990 0.4575230
0.3353702 0.3841880 0.4583240
0.3383378 0.3831400 0.4651571
0.3750000 0.3750000 0.5000000
0.4699355 0.3852148 0.4699375
0.4922743 0.4067987 0.4343082
0.5303093 0.4424199 0.4516645
0.6000915 0.5083771 0.5115088
0.7021581 0.6067703 0.6078009
0.4094251 0.4990406 0.4990432
0.4094396 0.4990563 0.4990589
0.4095513 0.4991773 0.4991797
0.4100252 0.4996906 0.4996918
0.5000000 0.5000000 0.5000000
0.5934588 0.5020951 0.5020977
0.6096347 0.5175083 0.5175141
0.6489192 0.5551860 0.5551926
0.7241577 0.6282725 0.6282795
0.5056106 0.6218706 0.5546695
0.5055800 0.6218861 0.5544856
0.5053398 0.6220070 0.5530332
0.5041888 0.6225543 0.5459329
0.5000000 0.6250000 0.5000000
0.6250000 0.6250000 0.5000000
0.7200305 0.6247059 0.5604959
0.7338173 0.6378554 0.6252954
0.7746366 0.6779859 0.6744779
0.6172983 0.7463332 0.6381760
0.6172821 0.7463396 0.6380544
0.6171574 0.7463886 0.6371101
0.6166062 0.7466019 0.6328636
0.6143933 0.7474095 0.6144020
0.6250000 0.7500000 0.5000001
0.7500000 0.7500000 0.5000001
0.8453575 0.7490074 0.6502983
0.8588672 0.7620798 0.7454647
0.7381581 0.8712330 0.7456649
0.7381521 0.8712352 0.7456144
0.7381061 0.8712518 0.7452250
0.7379076 0.8713227 0.7435349
0.7371849 0.8715766 0.7371960
0.7344950 0.8724657 0.7105121
0.7522101 0.8748797 0.5284374
0.8750000 0.8750000 0.5000002
0.9685200 0.8737968 0.7688847
0.8648522 0.9963219 0.8672594
0.8648503 0.9963226 0.8672425
0.8648355 0.9963277 0.8671121
0.8647723 0.9963493 0.8665536
0.8645491 0.9964253 0.8645607
0.8638015 0.9966752 0.8576554
0.8611063 0.9975240 0.8290770
0.8817257 0.9996406 0.6505384
0.9998379 0.9998380 0.6055163
0.3547863 0.3547900 0.5093459
0.3552147 0.3545172 0.5101153
0.3587159 0.3521547 0.5163462
0.3798856 0.3320599 0.5519601
0.4392483 0.3541188 0.5266825
0.4756173 0.3904388 0.4756217
0.5212970 0.4336747 0.4696250
0.5958588 0.5042391 0.5177147
0.7005548 0.6051724 0.6097654
0.3561116 0.3568064 0.5106223
0.3565349 0.3565386 0.5113840
0.3599936 0.3542220 0.5175502
0.3808474 0.3346933 0.5527115
0.4408626 0.3555614 0.5288049
0.4771346 0.3918353 0.4771389
0.5223652 0.4346722 0.4706143
0.5964115 0.5047652 0.5182236
0.7007706 0.6053827 0.6099678
0.3654758 0.3712540 0.5194610
0.3658630 0.3710209 0.5201672
0.3690177 0.3690212 0.5258701
0.3876612 0.3531569 0.5578475
0.4523171 0.3657959 0.5442299
0.4881163 0.4019618 0.4881206
0.5302370 0.4420321 0.4778936
0.6005660 0.5087224 0.5220463
0.7024140 0.6069850 0.6115084
0.3948514 0.4184869 0.5449695
0.3951245 0.4183513 0.5454962
0.3973276 0.4172147 0.5497157
0.4095374 0.4095399 0.5721696
0.4874982 0.3969504 0.5988433
0.5252908 0.4364793 0.5252948
0.5585811 0.4686650 0.5038980
0.6166941 0.5241229 0.5368386
0.7091502 0.6135584 0.6178169
0.4494331 0.5086246 0.5829746
0.4495350 0.5085952 0.5832041
0.4503412 0.5083555 0.5850163
0.4543525 0.5070025 0.5939019
0.5000000 0.5000000 0.6250000
0.6011564 0.5080017 0.6011582
0.6230083 0.5299505 0.5608309
0.6596092 0.5653932 0.5756505
0.7298760 0.6338424 0.6371478
0.5268727 0.6239774 0.6239802
0.5268774 0.6239824 0.6239852
0.5269142 0.6240209 0.6240237
0.5270706 0.6241847 0.6241871
0.5276139 0.6247539 0.6247548
0.6250000 0.6250000 0.6250000
0.7226824 0.6268281 0.6268306
0.7384437 0.6422813 0.6422873
0.7781931 0.6814713 0.6814782
0.6261195 0.7468305 0.6796281
0.6261097 0.7468354 0.6795709
0.6260341 0.7468733 0.6791274
0.6257002 0.7470373 0.6771606
0.6243669 0.7476512 0.6691199
0.6250000 0.7500000 0.6250000
0.7500000 0.7500000 0.6250000
0.8462305 0.7497290 0.6840579
0.8603716 0.7635550 0.7512119
0.7412800 0.8713672 0.7638074
0.7412748 0.8713692 0.7637689
0.7412349 0.8713845 0.7634722
0.7410630 0.8714502 0.7621872
0.7404374 0.8716847 0.7574126
0.7381160 0.8725034 0.7381247
0.7500000 0.8750000 0.6250001
0.8750000 0.8750000 0.6250001
0.9688075 0.8740444 0.7810838
0.8658437 0.9963598 0.8735814
0.8658419 0.9963604 0.8735659
0.8658277 0.9963654 0.8734469
0.8657672 0.9963865 0.8729372
0.8655535 0.9964607 0.8711204
0.8648381 0.9967046 0.8648491
0.8622613 0.9975324 0.8393292
0.8770546 0.9998950 0.6516138
1.0000000 1.0000000 0.6250002
0.4609706 0.4609748 0.6294917
0.4611212 0.4608793 0.6297471
0.4622996 0.4601185 0.6317390
0.4677995 0.4562395 0.6409046
0.4969638 0.4242314 0.6861797
0.5561197 0.4622073 0.6450658
0.5935247 0.5007441 0.5935294
0.6416101 0.5476936 0.5868940
0.7211427 0.6251754 0.6392784
0.4614420 0.4616911 0.6299207
0.4615920 0.4615962 0.6301752
0.4627657 0.4608400 0.6321605
0.4682430 0.4569871 0.6412942
0.4972545 0.4253230 0.6863690
0.5566768 0.4627240 0.6457632
0.5940384 0.5012323 0.5940431
0.6419674 0.5480374 0.5872308
0.7213206 0.6253496 0.6394461
0.4649609 0.4670616 0.6331028
0.4651065 0.4669710 0.6333510
0.4662455 0.4662496 0.6352867
0.4715534 0.4625894 0.6441813
0.4994312 0.4333895 0.6877667
0.5608456 0.4665899 0.6510154
0.5979053 0.5049083 0.5979099
0.6446736 0.5506421 0.5897801
0.7226773 0.6266779 0.6407248
0.4782445 0.4876869 0.6447831
0.4783733 0.4876120 0.6450070
0.4793799 0.4870176 0.6467518
0.4840453 0.4840490 0.6547328
0.5077689 0.4626905 0.6928088
0.5766859 0.4812749 0.6716288
0.6129968 0.5192883 0.6130014
0.6555110 0.5610897 0.5999652
0.7282738 0.6321617 0.6459948
0.5113488 0.5409749 0.6713829
0.5114364 0.5409336 0.6715453
0.5121187 0.5406085 0.6728083
0.5152343 0.5390415 0.6785159
0.5298545 0.5298570 0.7040490
0.6151456 0.5165610 0.7301187
0.6536587 0.5582911 0.6536627
0.6867224 0.5913247 0.6290235
0.7458343 0.6494101 0.6624673
0.5682603 0.6333795 0.7083548
0.5682927 0.6333707 0.7084255
0.5685440 0.6333018 0.7089725
0.5696618 0.6329825 0.7113974
0.5743091 0.6314504 0.7213087
0.6250000 0.6250000 0.7500000
0.7294520 0.6319506 0.7294536
0.7512861 0.6545468 0.6867764
0.7884754 0.6915537 0.7018801
0.6480255 0.7489519 0.7489548
0.6480271 0.7489535 0.7489564
0.6480393 0.7489659 0.7489688
0.6480911 0.7490187 0.7490215
0.6482717 0.7492026 0.7492050
0.6488479 0.7497893 0.7497902
0.7500000 0.7500000 0.7500000
0.8487708 0.7517952 0.7517977
0.8648741 0.7679685 0.7679746
0.7501892 0.8718576 0.8049812
0.7501861 0.8718592 0.8049631
0.7501618 0.8718710 0.8048233
0.7500574 0.8719218 0.8042206
0.7496778 0.8721025 0.8020165
0.7482773 0.8727258 0.7936741
0.7500000 0.8750000 0.7500000
0.8750000 0.8750000 0.7500000
0.9696831 0.8747952 0.8124379
0.8688406 0.9964849 0.8909376
0.8688390 0.9964855 0.8909258
0.8688267 0.9964901 0.8908345
0.8687741 0.9965097 0.8904440
0.8685881 0.9965785 0.8890557
0.8679661 0.9968045 0.8843087
0.8657323 0.9975689 0.8657410
0.8750000 1.0000000 0.7500001
1.0000000 1.0000000 0.7500001
0.5767448 0.5767493 0.7535221
0.5767963 0.5767168 0.7536049
0.5771934 0.5764638 0.7542440
0.5789312 0.5753263 0.7570285
0.5856701 0.5704243 0.7676423
0.6192408 0.5303058 0.8165769
0.6780297 0.5784851 0.7688867
0.7165302 0.6193074 0.7165350
0.7672079 0.6701429 0.7101689
0.5769064 0.5769947 0.7536618
0.5769577 0.5769622 0.7537445
0.5773543 0.5767098 0.7543829
0.5790899 0.5755746 0.7571643
0.5858195 0.5706837 0.7677658
0.6193309 0.5307179 0.8166280
0.6782149 0.5786622 0.7691121
0.7166990 0.6194723 0.7167038
0.7673224 0.6702561 0.7102785
0.5781352 0.5788637 0.7547225
0.5781860 0.5788317 0.7548045
0.5785787 0.5785831 0.7554376
0.5802969 0.5774658 0.7581958
0.5869559 0.5726597 0.7687038
0.6200177 0.5338364 0.8170158
0.6796252 0.5800107 0.7708315
0.7179864 0.6207304 0.7179912
0.7681978 0.6711212 0.7111157
0.5831505 0.5865359 0.7590133
0.5831993 0.5865059 0.7590926
0.5835759 0.5862729 0.7597039
0.5852231 0.5852275 0.7623663
0.5915934 0.5807611 0.7724912
0.6228403 0.5462835 0.8185751
0.6854002 0.5855329 0.7779394
0.7233044 0.6259313 0.7233092
0.7718488 0.6747308 0.7146048
0.5983785 0.6102327 0.7716438
0.5984209 0.6102086 0.7717144
0.5987486 0.6100211 0.7722588
0.6001791 0.6091837 0.7746261
0.6056737 0.6056776 0.7835781
0.6316420 0.5817680 0.8230984
0.7030498 0.6023965 0.8004826
0.7400615 0.6423568 0.7400662
0.7837079 0.6864738 0.7259069
0.6329298 0.6656426 0.7978430
0.6329583 0.6656296 0.7978938
0.6331782 0.6655284 0.7982854
0.6341339 0.6650811 0.7999828
0.6377424 0.6632838 0.8063145
0.6534298 0.6534322 0.8324744
0.7418270 0.6389920 0.8588073
0.7811055 0.6828259 0.7811095
0.8148624 0.7174559 0.7553071
0.6909214 0.7584251 0.8337487
0.6909320 0.7584223 0.8337709
0.6910134 0.7584007 0.8339421
0.6913646 0.7583063 0.8346799
0.6926526 0.7579434 0.8373737
0.6976041 0.7563245 0.8475403
0.7500000 0.7500000 0.8750000
0.8553091 0.7568135 0.8553106
0.8774789 0.7803027 0.8121029
0.7724447 0.8739585 0.8739614
0.7724452 0.8739591 0.8739619
0.7724491 0.8739630 0.8739658
0.7724659 0.8739796 0.8739825
0.7725243 0.8740377 0.8740404
0.7727112 0.8742233 0.8742257
0.7732905 0.8747989 0.8747998
0.8750000 0.8750000 0.8750000
0.9722557 0.8769697 0.8769723
0.8774722 0.9969440 0.9307064
0.8774712 0.9969445 0.9307007
0.8774636 0.9969481 0.9306572
0.8774312 0.9969633 0.9304714
0.8773167 0.9970170 0.9298140
0.8769340 0.9971924 0.9276028
0.8755676 0.9977791 0.9194901
0.8750000 1.0000000 0.8750000
1.0000000 1.0000000 0.8750000
0.7017166 0.7017213 0.8810652
0.7017332 0.7017108 0.8810907
0.7018605 0.7016301 0.8812865
0.7024068 0.7012807 0.8821257
0.7043713 0.6999842 0.8851280
0.7113735 0.6948290 0.8956401
0.7446304 0.6548554 0.9419188
0.8045766 0.7025041 0.8975717
0.8441982 0.7456694 0.8442031
0.7017687 0.7018003 0.8811082
0.7017852 0.7017899 0.8811337
0.7019124 0.7017092 0.8813294
0.7024586 0.7013600 0.8821683
0.7044223 0.7000644 0.8851696
0.7114213 0.6949130 0.8956777
0.7446598 0.6549873 0.9419351
0.8046345 0.7025610 0.8976412
0.8442506 0.7457219 0.8442555
0.7021671 0.7024058 0.8814372
0.7021836 0.7023953 0.8814626
0.7023104 0.7023151 0.8816578
0.7028549 0.7019676 0.8824945
0.7048122 0.7006786 0.8854876
0.7117875 0.6955563 0.8959661
0.7448845 0.6559954 0.9420592
0.8050785 0.7029967 0.8981735
0.8446520 0.7461241 0.8446568
0.7038403 0.7049524 0.8828150
0.7038566 0.7049422 0.8828401
0.7039817 0.7048636 0.8830331
0.7045188 0.7045234 0.8838604
0.7064494 0.7032620 0.8868195
0.7133250 0.6982610 0.8971729
0.7458301 0.6601979 0.9425782
0.8069445 0.7048283 0.9004179
0.8463440 0.7478199 0.8463489
0.7094000 0.7134637 0.8873488
0.7094155 0.7134542 0.8873730
0.7095350 0.7133810 0.8875587
0.7100476 0.7130646 0.8883546
0.7118894 0.7118938 0.8911999
0.7184335 0.7072865 0.9011364
0.7489964 0.6738245 0.9442756
0.8131648 0.7109324 0.9079829
0.8520427 0.7535350 0.8520475
0.7248557 0.7374924 0.8995762
0.7248692 0.7374848 0.8995977
0.7249729 0.7374261 0.8997628
0.7254175 0.7371727 0.9004703
0.7270120 0.7362401 0.9029959
0.7326397 0.7326437 0.9117669
0.7580334 0.7094206 0.9487905
0.8305388 0.7279572 0.9299630
0.8684859 0.7700587 0.8684905
0.7590711 0.7920423 0.9244464
0.7590802 0.7920381 0.9244619
0.7591501 0.7920062 0.9245815
0.7594498 0.7918685 0.9250934
0.7605196 0.7913678 0.9269142
0.7642333 0.7895138 0.9331559
0.7797588 0.7797613 0.9579633
0.8675428 0.7636879 0.9852948
0.9076865 0.8096469 0.9076905
0.8170380 0.8837280 0.9591998
0.8170414 0.8837271 0.9592067
0.8170676 0.8837202 0.9592597
0.8171793 0.8836904 0.9594860
0.8175750 0.8835833 0.9602862
0.8189094 0.8832046 0.9629723
0.8238766 0.8815749 0.9727789
0.8750000 0.8750000 1.0000000
0.9791344 0.8824883 0.9791360
0.8998012 0.9989933 0.9989961
0.8998014 0.9989935 0.9989962
0.8998026 0.9989946 0.9989974
0.8998077 0.9989996 0.9990024
0.8998256 0.9990170 0.9990197
0.8998829 0.9990727 0.9990753
0.9000609 0.9992457 0.9992480
0.9006173 0.9997867 0.9997876
1.0000000 1.0000000 1.0000000
