LUTs/luminance_correction_srgb.cube
TITLE "Pre-formation 2012 Luminance Correction for BT.709 Target"
# Use CIE 2012 Luminance to Compensate for Some Out-of-Domain Values
# This LUT assumes input and output to be BT.2020 I-D65 encoded in Log2 (-10 stop to +6.5 stop)
# LUT resolution 36
LUT_3D_SIZE 36
0.0000000 0.0000000 0.0000000
0.0285714 0.0000000 0.0000000
0.0571429 0.0000000 0.0000000
0.0857143 0.0000000 0.0000000
0.1142857 0.0000000 0.0000000
0.1428571 0.0000000 0.0000000
0.1714286 0.0000000 0.0000000
0.1982773 0.0058806 0.0058806
0.2213410 0.0289442 0.0289442
0.2457129 0.0533161 0.0533161
0.2711251 0.0787283 0.0787283
0.2973449 0.1049482 0.1049482
0.3241801 0.1317834 0.1317834
0.3514775 0.1590808 0.1590808
0.3791184 0.1867217 0.1867217
0.4070125 0.2146157 0.2146157
0.4350921 0.2426954 0.2426954
0.4633071 0.2709103 0.2709103
0.4916205 0.2992238 0.2992238
0.5200054 0.3276086 0.3276086
0.5484420 0.3560453 0.3560453
0.5769161 0.3845194 0.3845194
0.6054172 0.4130205 0.4130205
0.6339379 0.4415412 0.4415412
0.6624728 0.4700760 0.4700760
0.6910178 0.4986210 0.4986210
0.7195701 0.5271734 0.5271734
0.7481278 0.5557311 0.5557311
0.7766893 0.5842926 0.5842926
0.8052536 0.6128569 0.6128569
0.8338199 0.6414232 0.6414232
0.8623876 0.6699909 0.6699909
0.8909563 0.6985596 0.6985596
0.9195258 0.7271291 0.7271291
0.9480959 0.7556991 0.7556991
0.9766663 0.7842696 0.7842696
0.0000000 0.0285714 0.0000000
0.0285714 0.0285714 0.0000000
0.0571429 0.0285714 0.0000000
0.0857143 0.0285714 0.0000000
0.1142857 0.0285714 0.0000000
0.1428571 0.0285714 0.0000000
0.1714286 0.0285714 0.0000000
0.2000000 0.0285714 0.0000000
0.2268584 0.0342973 0.0087408
0.2498505 0.0573389 0.0402955
0.2742018 0.0817240 0.0700557
0.2996163 0.1071620 0.0990408
0.3258473 0.1334096 0.1276955
0.3526958 0.1602697 0.1562196
0.3800056 0.1875878 0.1847025
0.4076569 0.2152450 0.2131822
0.4355592 0.2431516 0.2416731
0.4636453 0.2712407 0.2701791
0.4918651 0.2994627 0.2986995
0.5201821 0.3277813 0.3272322
0.5485697 0.3561700 0.3557746
0.5770083 0.3846094 0.3843246
0.6054838 0.4130855 0.4128802
0.6339859 0.4415881 0.4414402
0.6625074 0.4701099 0.4700032
0.6910428 0.4986455 0.4985686
0.7195882 0.5271910 0.5271356
0.7481408 0.5557438 0.5557038
0.7766987 0.5843018 0.5842729
0.8052604 0.6128635 0.6128427
0.8338248 0.6414279 0.6414129
0.8623911 0.6699943 0.6699835
0.8909589 0.6985621 0.6985543
0.9195277 0.7271309 0.7271253
0.9480972 0.7557004 0.7556964
0.9766672 0.7842705 0.7842676
0.0000000 0.0571429 0.0000000
0.0285714 0.0571429 0.0000000
0.0571429 0.0571429 0.0000000
0.0857143 0.0571429 0.0000000
0.1142857 0.0571429 0.0000000
0.1428571 0.0571429 0.0000000
0.1714286 0.0571429 0.0000000
0.2000000 0.0571429 0.0000000
0.2285714 0.0571429 0.0000000
0.2554372 0.0627573 0.0125412
0.2783768 0.0857821 0.0539485
0.3027131 0.1101768 0.0889893
0.3281295 0.1356337 0.1211399
0.3543687 0.1619013 0.1518170
0.3812269 0.1887796 0.1816853
0.4085456 0.2161126 0.2110846
0.4362045 0.2437817 0.2401998
0.4641129 0.2716974 0.2691366
0.4922035 0.2997933 0.2979579
0.5204268 0.3280204 0.3267025
0.5487465 0.3563428 0.3553953
0.5771360 0.3847342 0.3840524
0.6055759 0.4131756 0.4126847
0.6340525 0.4416531 0.4412995
0.6625554 0.4701568 0.4699020
0.6910774 0.4986793 0.4984956
0.7196132 0.5272155 0.5270830
0.7481589 0.5557614 0.5556659
0.7767117 0.5843145 0.5842456
0.8052698 0.6128727 0.6128230
0.8338315 0.6414345 0.6413987
0.8623960 0.6699991 0.6699733
0.8909624 0.6985655 0.6985469
0.9195302 0.7271334 0.7271199
0.9480990 0.7557022 0.7556925
0.9766686 0.7842718 0.7842648
0.0000000 0.0857143 0.0000000
0.0285714 0.0857143 0.0000000
0.0571429 0.0857143 0.0000000
0.0857143 0.0857143 0.0000000
0.1142857 0.0857143 0.0000000
0.1428571 0.0857143 0.0000000
0.1714286 0.0857143 0.0000000
0.2000000 0.0857143 0.0000000
0.2285714 0.0857143 0.0000000
0.2571429 0.0857143 0.0000000
0.2840142 0.0912485 0.0175397
0.3069153 0.1142608 0.0699311
0.3312409 0.1386623 0.1098926
0.3566587 0.1641329 0.1447317
0.3829040 0.1904152 0.1770353
0.4097691 0.2173065 0.2079478
0.4370944 0.2446504 0.2380431
0.4647587 0.2723280 0.2676336
0.4926714 0.3002503 0.2969003
0.5207654 0.3283511 0.3259532
0.5489913 0.3565819 0.3548618
0.5773128 0.3849070 0.3836711
0.6057037 0.4133004 0.4124115
0.6341447 0.4417432 0.4411034
0.6626220 0.4702218 0.4697610
0.6911254 0.4987262 0.4983942
0.7196478 0.5272493 0.5270100
0.7481839 0.5557858 0.5556134
0.7767298 0.5843321 0.5842077
0.8052828 0.6128854 0.6127957
0.8338409 0.6414437 0.6413790
0.8624028 0.6700057 0.6699591
0.8909673 0.6985703 0.6985367
0.9195337 0.7271368 0.7271126
0.9481016 0.7557047 0.7556872
0.9766704 0.7842736 0.7842610
0.0225773 0.1094790 0.0225773
0.0285714 0.1142857 0.0000000
0.0571429 0.1142857 0.0000000
0.0857143 0.1142857 0.0000000
0.1142857 0.1142857 0.0000000
0.1428571 0.1142857 0.0000000
0.1714286 0.1142857 0.0000000
0.2000000 0.1142857 0.0000000
0.2285714 0.1142857 0.0000000
0.2571429 0.1142857 0.0000000
0.2857143 0.1142857 0.0000000
0.3125897 0.1197620 0.0240208
0.3354629 0.1427652 0.0881523
0.3597807 0.1671717 0.1324882
0.3851996 0.1926521 0.1695297
0.4114492 0.2189450 0.2031074
0.4383195 0.2458458 0.2348162
0.4656494 0.2731976 0.2654329
0.4933177 0.3008814 0.2953754
0.5212336 0.3288084 0.3248846
0.5493300 0.3569128 0.3541068
0.5775577 0.3851462 0.3831347
0.6058806 0.4134732 0.4120287
0.6342724 0.4418680 0.4408295
0.6627142 0.4703119 0.4695645
0.6911920 0.4987913 0.4982531
0.7196958 0.5272962 0.5269085
0.7482185 0.5558197 0.5555403
0.7767548 0.5843565 0.5841551
0.8053008 0.6129030 0.6127578
0.8338539 0.6414564 0.6413517
0.8624121 0.6700149 0.6699394
0.8909740 0.6985769 0.6985225
0.9195386 0.7271416 0.7271023
0.9481051 0.7557081 0.7556798
0.9766729 0.7842761 0.7842556
0.0473210 0.1342227 0.0473210
0.0503501 0.1379641 0.0331820
0.0571429 0.1428571 0.0000000
0.0857143 0.1428571 0.0000000
0.1142857 0.1428571 0.0000000
0.1428571 0.1428571 0.0000000
0.1714286 0.1428571 0.0000000
0.2000000 0.1428571 0.0000000
0.2285714 0.1428571 0.0000000
0.2571429 0.1428571 0.0000000
0.2857143 0.1428571 0.0000000
0.3140354 0.1434404 0.0044767
0.3411642 0.1482918 0.0322740
0.3640171 0.1712881 0.1084194
0.3883292 0.1956982 0.1564835
0.4137489 0.2211858 0.1952764
0.4400017 0.2474864 0.2298317
0.4668757 0.2743941 0.2621388
0.4942090 0.3017515 0.2931423
0.5218802 0.3294397 0.3233438
0.5497983 0.3573702 0.3530302
0.5778965 0.3854771 0.3823757
0.6061255 0.4137125 0.4114902
0.6344493 0.4420409 0.4404456
0.6628419 0.4704367 0.4692900
0.6912842 0.4988814 0.4980563
0.7197624 0.5273613 0.5267672
0.7482665 0.5558666 0.5554387
0.7767894 0.5843904 0.5840820
0.8053258 0.6129274 0.6127052
0.8338720 0.6414740 0.6413138
0.8624252 0.6700276 0.6699120
0.8909834 0.6985861 0.6985028
0.9195454 0.7271482 0.7270881
0.9481100 0.7557129 0.7556696
0.9766765 0.7842795 0.7842483
0.0730238 0.1599255 0.0730238
0.0752431 0.1626089 0.0644616
0.0783432 0.1664789 0.0459296
0.0857143 0.1714286 0.0000000
0.1142857 0.1714286 0.0000000
0.1428571 0.1714286 0.0000000
0.1714286 0.1714286 0.0000000
0.2000000 0.1714286 0.0000000
0.2285714 0.1714286 0.0000000
0.2571429 0.1714286 0.0000000
0.2854006 0.1717592 0.0055434
0.3133197 0.1729488 0.0183756
0.3412614 0.1750323 0.0336530
0.3692712 0.1782504 0.0512948
0.3925760 0.1998246 0.1304723
0.4168841 0.2242372 0.1816005
0.4423043 0.2497300 0.2217530
0.4685595 0.2760361 0.2570467
0.4954361 0.3029488 0.2897986
0.5227719 0.3303102 0.3210869
0.5504451 0.3580017 0.3514777
0.5783649 0.3859346 0.3812933
0.6064643 0.4140435 0.4107283
0.6346943 0.4422802 0.4399056
0.6630189 0.4706096 0.4689054
0.6914120 0.4990062 0.4977814
0.7198546 0.5274514 0.5265703
0.7483331 0.5559317 0.5552973
0.7768374 0.5844373 0.5839804
0.8053604 0.6129613 0.6126321
0.8338969 0.6414985 0.6412612
0.8624432 0.6700452 0.6698741
0.8909964 0.6985988 0.6984755
0.9195548 0.7271574 0.7270684
0.9481167 0.7557195 0.7556554
0.9766813 0.7842843 0.7842380
0.0994662 0.1863679 0.0994662
0.1010900 0.1883047 0.0939743
0.1033435 0.1910475 0.0837340
0.1064964 0.1950125 0.0609320
0.1142857 0.2000000 0.0000000
0.1428571 0.2000000 0.0000000
0.1714296 0.1999982 0.0000630
0.1999379 0.1999379 0.0038101
0.2282576 0.1999794 0.0088122
0.2564455 0.2002057 0.0153795
0.2845562 0.2007284 0.0238228
0.3126402 0.2016884 0.0344113
0.3407388 0.2032555 0.0473274
0.3688814 0.2056282 0.0626334
0.3970839 0.2090351 0.0802609
0.4211384 0.2283707 0.1540220
0.4454436 0.2527852 0.2075936
0.4708642 0.2782818 0.2487822
0.4971210 0.3045919 0.2846268
0.5239996 0.3315081 0.3177066
0.5513372 0.3588725 0.3492034
0.5790119 0.3865664 0.3797322
0.6069328 0.4145010 0.4096416
0.6350332 0.4426112 0.4391415
0.6632638 0.4708489 0.4683643
0.6915889 0.4991791 0.4973963
0.7199824 0.5275762 0.5262951
0.7484253 0.5560218 0.5551002
0.7769040 0.5845023 0.5838389
0.8054085 0.6130082 0.6125304
0.8339316 0.6415323 0.6411880
0.8624682 0.6700696 0.6698215
0.8910145 0.6986164 0.6984375
0.9195678 0.7271701 0.7270411
0.9481261 0.7557287 0.7556357
0.9766881 0.7842909 0.7842238
0.1264693 0.2133710 0.1264693
0.1276543 0.2147716 0.1228176
0.1292952 0.2167371 0.1166061
0.1315739 0.2195236 0.1049171
0.1347656 0.2235584 0.0781776
0.1455098 0.2276811 0.0230044
0.1727983 0.2277645 0.0251649
0.2003642 0.2279020 0.0280861
0.2281260 0.2281260 0.0319982
0.2560271 0.2284849 0.0371712
0.2840310 0.2290467 0.0439013
0.3121165 0.2299033 0.0524842
0.3402728 0.2311735 0.0631768
0.3684941 0.2330069 0.0761561
0.3967763 0.2355866 0.0914864
0.4251139 0.2391322 0.1091072
0.4497034 0.2569239 0.1787842
0.4740064 0.2813398 0.2342574
0.4994273 0.3068390 0.2762245
0.5256853 0.3331520 0.3124763
0.5525653 0.3600708 0.3457965
0.5799042 0.3874374 0.3774453
0.6075799 0.4151329 0.4080744
0.6355018 0.4430688 0.4380518
0.6636028 0.4711800 0.4675987
0.6918339 0.4994184 0.4968544
0.7201593 0.5277491 0.5259095
0.7485531 0.5561466 0.5548248
0.7769962 0.5845925 0.5836417
0.8054750 0.6130732 0.6123889
0.8339796 0.6415792 0.6410863
0.8625028 0.6701035 0.6697483
0.8910395 0.6986408 0.6983849
0.9195858 0.7271877 0.7270032
0.9481391 0.7557414 0.7556084
0.9766975 0.7843000 0.7842041
0.1538918 0.2407935 0.1538918
0.1547543 0.2418066 0.1514047
0.1559480 0.2432216 0.1474236
0.1576015 0.2452081 0.1406290
0.1598986 0.2480264 0.1277382
0.1631188 0.2521122 0.0975371
0.1762257 0.2554761 0.0509948
0.2023769 0.2556962 0.0532424
0.2291606 0.2560003 0.0562659
0.2564199 0.2564199 0.0602921
0.2840331 0.2569982 0.0655842
0.3119073 0.2577933 0.0724287
0.3399728 0.2588834 0.0811107
0.3681779 0.2603722 0.0918785
0.3964845 0.2623946 0.1049046
0.4248645 0.2651228 0.1202542
0.4532979 0.2687695 0.1378721
0.4782701 0.2854822 0.2045017
0.5025716 0.3098990 0.2614269
0.5279928 0.3354002 0.3039724
0.5542516 0.3617153 0.3405234
0.5811326 0.3886360 0.3740191
0.6084724 0.4160041 0.4057783
0.6361489 0.4437008 0.4364801
0.6640714 0.4716377 0.4665067
0.6921728 0.4997495 0.4960877
0.7204043 0.5279884 0.5253671
0.7487300 0.5563195 0.5544390
0.7771240 0.5847173 0.5833662
0.8055673 0.6131634 0.6121916
0.8340462 0.6416443 0.6409448
0.8625509 0.6701504 0.6696466
0.8910741 0.6986747 0.6983117
0.9196108 0.7272121 0.7269505
0.9481571 0.7557590 0.7555704
0.9767105 0.7843128 0.7841768
0.1816251 0.2685268 0.1816251
0.1822515 0.2692594 0.1799030
0.1831185 0.2702798 0.1772589
0.1843186 0.2717052 0.1730207
0.1859811 0.2737071 0.1657667
0.1882917 0.2765484 0.1519113
0.1915326 0.2806714 0.1187911
0.2062222 0.2834995 0.0791537
0.2316213 0.2838144 0.0814618
0.2578766 0.2842345 0.0845567
0.2847907 0.2847907 0.0886628
0.3122031 0.2855225 0.0940387
0.3399854 0.2864816 0.1009643
0.3680357 0.2877366 0.1097171
0.3962743 0.2893803 0.1205391
0.4246406 0.2915375 0.1335995
0.4530900 0.2943724 0.1489638
0.4815913 0.2980923 0.1665806
0.5068381 0.3140441 0.2309554
0.5311385 0.3384616 0.2889732
0.5565598 0.3639643 0.3319451
0.5828193 0.3902808 0.3687147
0.6097010 0.4172029 0.4023380
0.6370415 0.4445721 0.4341774
0.6647186 0.4722696 0.4649318
0.6926415 0.5002072 0.4949941
0.7207433 0.5283195 0.5245995
0.7489750 0.5565588 0.5538961
0.7773010 0.5848902 0.5829801
0.8056950 0.6132882 0.6119159
0.8341384 0.6417344 0.6407474
0.8626174 0.6702154 0.6695050
0.8911221 0.6987216 0.6982100
0.9196454 0.7272460 0.7268773
0.9481821 0.7557834 0.7555178
0.9767285 0.7843304 0.7841388
0.2095870 0.2964887 0.2095870
0.2100411 0.2970183 0.2083807
0.2106699 0.2977546 0.2065817
0.2115401 0.2987803 0.2038179
0.2127448 0.3002132 0.1993832
0.2144140 0.3022261 0.1917752
0.2167344 0.3050843 0.1771657
0.2199903 0.3092343 0.1416690
0.2357636 0.3116815 0.1074308
0.2606523 0.3120631 0.1097815
0.2865436 0.3125647 0.1129267
0.3132170 0.3132170 0.1170892
0.3404882 0.3140574 0.1225245
0.3682050 0.3151327 0.1295078
0.3962439 0.3165047 0.1383112
0.4245059 0.3182588 0.1491723
0.4529144 0.3205125 0.1622578
0.4814131 0.3234240 0.1776332
0.5099630 0.3271970 0.1952496
0.5354071 0.3426087 0.2579671
0.5597067 0.3670267 0.3167977
0.5851281 0.3925304 0.3600822
0.6113881 0.4188480 0.3970109
0.6382703 0.4457710 0.4307268
0.6656113 0.4731410 0.4626243
0.6932888 0.5008392 0.4934168
0.7212120 0.5287773 0.5235048
0.7493140 0.5568900 0.5531280
0.7775460 0.5851295 0.5824370
0.8058720 0.6134611 0.6115297
0.8342662 0.6418592 0.6404717
0.8627096 0.6703056 0.6693076
0.8911887 0.6987867 0.6980683
0.9196935 0.7272929 0.7267756
0.9482168 0.7558173 0.7554446
0.9767535 0.7843548 0.7840862
0.2377162 0.3246178 0.2377162
0.2380450 0.3250004 0.2368641
0.2385003 0.3255319 0.2356194
0.2391307 0.3262710 0.2337628
0.2400033 0.3273004 0.2309093
0.2412114 0.3287388 0.2263266
0.2428854 0.3307598 0.2184504
0.2452128 0.3336301 0.2032633
0.2484797 0.3377997 0.1658866
0.2650065 0.3399750 0.1357915
0.2895424 0.3404037 0.1381723
0.3151796 0.3409631 0.1413532
0.3416837 0.3416837 0.1455559
0.3688547 0.3426012 0.1510335
0.3965248 0.3437591 0.1580580
0.4245552 0.3452147 0.1668979
0.4528336 0.3470478 0.1777871
0.4812722 0.3493706 0.1908907
0.5098062 0.3523372 0.2062744
0.5383908 0.3561486 0.2238907
0.5639767 0.3711752 0.2853961
0.5882757 0.3955936 0.3448265
0.6136973 0.4210980 0.3883390
0.6399576 0.4474164 0.4253834
0.6668402 0.4743401 0.4591664
0.6941815 0.5017107 0.4911058
0.7218593 0.5294093 0.5219258
0.7497827 0.5573477 0.5520324
0.7778850 0.5854607 0.5816684
0.8061170 0.6137005 0.6109863
0.8344432 0.6420321 0.6400854
0.8628374 0.6704304 0.6690318
0.8912809 0.6988768 0.6978709
0.9197600 0.7273579 0.7266339
0.9482648 0.7558642 0.7553428
0.9767882 0.7843887 0.7840130
0.2659672 0.3528689 0.2659672
0.2662050 0.3531452 0.2653619
0.2665344 0.3535288 0.2644905
0.2669906 0.3540616 0.2632174
0.2676223 0.3548026 0.2613180
0.2684966 0.3558348 0.2583978
0.2697071 0.3572772 0.2537048
0.2713845 0.3593039 0.2456283
0.2737171 0.3621831 0.2300055
0.2769919 0.3663668 0.1911751
0.2940483 0.3683475 0.1642117
0.3183372 0.3688097 0.1666140
0.3437954 0.3694102 0.1698203
0.3701795 0.3701795 0.1740517
0.3972791 0.3711520 0.1795596
0.4249157 0.3723690 0.1866136
0.4529400 0.3738844 0.1954796
0.4812300 0.3757741 0.2063892
0.5096901 0.3781465 0.2195060
0.5382493 0.3811528 0.2348957
0.5668589 0.3849919 0.2525121
0.5925469 0.3997430 0.3131341
0.6168455 0.4241617 0.3730044
0.6422671 0.4496666 0.4166829
0.6685276 0.4759856 0.4538110
0.6954105 0.5029098 0.4876425
0.7227521 0.5302808 0.5196123
0.7504301 0.5579798 0.5504522
0.7783537 0.5859184 0.5805722
0.8064560 0.6140316 0.6102175
0.8346882 0.6422715 0.6395418
0.8630144 0.6706033 0.6686454
0.8914087 0.6990016 0.6975951
0.9198523 0.7274481 0.7264365
0.9483314 0.7559293 0.7552012
0.9768362 0.7844356 0.7839112
0.2943068 0.3812085 0.2943068
0.2944787 0.3814080 0.2938749
0.2947168 0.3816848 0.2932597
0.2950467 0.3820691 0.2923741
0.2955035 0.3826029 0.2910801
0.2961361 0.3833453 0.2891493
0.2970116 0.3843795 0.2861800
0.2982238 0.3858247 0.2814056
0.2999038 0.3878557 0.2731807
0.3022401 0.3907413 0.2572333
0.3055206 0.3949352 0.2172986
0.3229519 0.3967762 0.1926745
0.3470665 0.3972624 0.1950921
0.3723977 0.3978923 0.1983167
0.3986963 0.3986963 0.2025685
0.4257449 0.3997082 0.2080981
0.4533575 0.4009675 0.2151734
0.4813773 0.4025258 0.2240581
0.5096756 0.4044561 0.2349824
0.5381510 0.4068643 0.2481087
0.5667283 0.4098991 0.2635028
0.5953559 0.4137583 0.2811194
0.6211174 0.4283119 0.3410996
0.6454157 0.4527307 0.4012910
0.6708374 0.4782360 0.4450898
0.6970981 0.5045554 0.4822786
0.7239811 0.5314800 0.5161452
0.7513229 0.5588513 0.5481369
0.7790010 0.5865505 0.5789912
0.8069247 0.6144894 0.6091208
0.8350272 0.6426026 0.6387728
0.8632594 0.6708427 0.6681018
0.8915857 0.6991745 0.6972087
0.9199800 0.7275729 0.7261607
0.9484236 0.7560194 0.7550037
0.9769028 0.7845006 0.7837696
0.3227107 0.4096124 0.3227107
0.3228348 0.4097563 0.3224016
0.3230069 0.4099561 0.3219646
0.3232452 0.4102332 0.3213422
0.3235754 0.4106180 0.3204462
0.3240327 0.4111526 0.3191369
0.3246659 0.4118960 0.3171831
0.3255423 0.4129316 0.3141778
0.3267558 0.4143789 0.3093438
0.3284376 0.4164129 0.3010097
0.3307765 0.4193031 0.2848224
0.3340612 0.4235044 0.2440603
0.3517593 0.4252450 0.2211677
0.3757502 0.4257484 0.2235964
0.4009908 0.4263994 0.2268340
0.4272284 0.4272284 0.2311005
0.4542404 0.4282685 0.2366457
0.4818356 0.4295582 0.2437362
0.5098522 0.4311473 0.2526345
0.5381565 0.4331068 0.2635694
0.5666429 0.4355407 0.2767026
0.5952332 0.4385961 0.2920999
0.6238737 0.4424697 0.3097166
0.6496882 0.4568814 0.3692313
0.6739862 0.4813004 0.4296564
0.6994079 0.5068060 0.4735423
0.7256688 0.5331257 0.5107750
0.7525519 0.5600505 0.5446670
0.7798939 0.5874221 0.5766745
0.8075721 0.6151215 0.6075392
0.8354959 0.6430604 0.6376758
0.8635984 0.6711738 0.6673325
0.8918307 0.6994139 0.6966649
0.9201570 0.7277458 0.7257742
0.9485514 0.7561442 0.7547279
0.9769950 0.7845907 0.7835721
0.3511610 0.4380627 0.3511610
0.3512507 0.4381666 0.3509394
0.3513749 0.4383107 0.3506277
0.3515471 0.4385106 0.3501870
0.3517856 0.4387881 0.3495594
0.3521160 0.4391733 0.3486557
0.3525737 0.4397083 0.3473353
0.3532073 0.4404525 0.3453647
0.3540844 0.4414892 0.3423332
0.3552988 0.4429379 0.3374556
0.3569819 0.4449741 0.3290417
0.3593228 0.4478676 0.3126785
0.3626104 0.4520742 0.2713024
0.3804991 0.4537427 0.2496829
0.4044017 0.4542583 0.2521195
0.4295776 0.4549245 0.2553664
0.4557714 0.4557714 0.2596435
0.4827572 0.4568318 0.2651999
0.5103400 0.4581433 0.2723014
0.5383541 0.4597546 0.2812094
0.5666627 0.4617351 0.2921519
0.5951570 0.4641875 0.3052901
0.6237567 0.4672578 0.3206898
0.6524064 0.4711418 0.3383065
0.6782591 0.4854515 0.3974842
0.7025570 0.5098706 0.4580789
0.7279788 0.5353764 0.5020279
0.7542397 0.5616963 0.5392923
0.7811230 0.5886213 0.5732026
0.8084650 0.6159930 0.6052216
0.8361433 0.6436925 0.6360937
0.8640672 0.6716316 0.6662354
0.8921697 0.6997450 0.6958956
0.9204020 0.7279852 0.7252304
0.9487284 0.7563171 0.7543413
0.9771228 0.7847156 0.7832962
0.3796451 0.4665467 0.3796451
0.3797098 0.4666217 0.3794858
0.3797994 0.4667257 0.3792628
0.3799237 0.4668699 0.3789492
0.3800960 0.4670699 0.3785059
0.3803346 0.4673476 0.3778744
0.3806652 0.4677330 0.3769653
0.3811231 0.4682684 0.3756368
0.3817570 0.4690131 0.3736540
0.3826346 0.4700505 0.3706033
0.3838497 0.4715004 0.3656941
0.3855337 0.4735382 0.3572220
0.3878760 0.4764340 0.3407302
0.3911658 0.4806445 0.2989021
0.4091910 0.4822610 0.2782138
0.4330305 0.4827855 0.2806560
0.4581600 0.4834625 0.2839097
0.4843223 0.4843223 0.2881945
0.5112892 0.4853973 0.2937589
0.5388631 0.4867246 0.3008683
0.5668755 0.4883518 0.3097833
0.5951871 0.4903475 0.3207313
0.6236872 0.4928132 0.3338731
0.6522935 0.4958941 0.3492745
0.6809500 0.4997857 0.3668913
0.7068302 0.5140220 0.4258252
0.7311280 0.5384412 0.4865428
0.7565498 0.5639471 0.5305374
0.7828107 0.5902671 0.5678247
0.8096941 0.6171923 0.6017482
0.8370362 0.6445641 0.6337754
0.8647145 0.6722637 0.6646529
0.8926385 0.7002028 0.6947982
0.9207411 0.7283163 0.7244609
0.9489734 0.7565565 0.7537975
0.9772997 0.7848885 0.7829097
0.4081534 0.4950550 0.4081534
0.4082001 0.4951091 0.4080389
0.4082648 0.4951841 0.4078789
0.4083545 0.4952881 0.4076549
0.4084788 0.4954324 0.4073400
0.4086512 0.4956326 0.4068947
0.4088899 0.4959104 0.4062605
0.4092206 0.4962960 0.4053474
0.4096787 0.4968317 0.4040130
0.4103128 0.4975767 0.4020213
0.4111908 0.4986147 0.3989568
0.4124063 0.5000654 0.3940246
0.4140910 0.5021043 0.3855103
0.4164343 0.5050019 0.3689248
0.4197257 0.5092152 0.3267659
0.4378489 0.5107942 0.3067560
0.4616430 0.5113250 0.3092024
0.4867392 0.5120099 0.3124609
0.5128789 0.5128789 0.3167511
0.5398323 0.5139645 0.3223214
0.5673997 0.5153030 0.3294364
0.5954109 0.5169417 0.3383565
0.6237247 0.5189483 0.3493085
0.6522288 0.5214236 0.3624529
0.6808401 0.5245123 0.3778554
0.7095013 0.5284093 0.3954724
0.7354014 0.5425927 0.4542300
0.7596991 0.5670119 0.5150365
0.7851209 0.5925180 0.5590641
0.8113819 0.6188381 0.5963679
0.8382653 0.6457634 0.6303010
0.8656074 0.6731353 0.6623341
0.8932858 0.7008350 0.6932155
0.9212098 0.7287741 0.7233635
0.9493124 0.7568877 0.7530280
0.9775448 0.7851279 0.7823658
0.4366793 0.5235809 0.4366793
0.4367130 0.5236199 0.4365968
0.4367597 0.5236740 0.4364820
0.4368244 0.5237491 0.4363215
0.4369141 0.5238531 0.4360968
0.4370385 0.5239975 0.4357809
0.4372109 0.5241977 0.4353342
0.4374497 0.5244756 0.4346980
0.4377805 0.5248613 0.4337820
0.4382387 0.5253972 0.4324434
0.4388730 0.5261426 0.4304453
0.4397512 0.5271809 0.4273708
0.4409670 0.5286321 0.4224218
0.4426523 0.5306719 0.4138769
0.4449963 0.5335707 0.3972235
0.4482888 0.5377860 0.3548233
0.4664824 0.5393380 0.3353064
0.4902440 0.5398735 0.3377557
0.5153162 0.5405639 0.3410177
0.5414397 0.5414397 0.3453119
0.5683833 0.5425328 0.3508863
0.5959460 0.5438795 0.3580055
0.6239564 0.5455264 0.3669292
0.6522717 0.5475409 0.3778840
0.6807788 0.5500231 0.3910303
0.7093935 0.5531174 0.4064337
0.7380583 0.5570183 0.4240507
0.7639726 0.5711637 0.4826811
0.7882703 0.5955829 0.5435519
0.8136921 0.6210890 0.5876033
0.8399531 0.6474093 0.6249190
0.8668366 0.6743346 0.6588590
0.8941787 0.7017065 0.6908964
0.9218572 0.7294062 0.7217806
0.9497811 0.7573454 0.7519305
0.9778838 0.7854590 0.7815963
0.4652178 0.5521195 0.4652178
0.4652421 0.5521476 0.4651585
0.4652758 0.5521867 0.4650759
0.4653225 0.5522408 0.4649607
0.4653873 0.5523158 0.4647999
0.4654771 0.5524199 0.4645747
0.4656015 0.5525643 0.4642581
0.4657738 0.5527646 0.4638104
0.4660127 0.5530425 0.4631727
0.4663436 0.5534284 0.4622546
0.4668018 0.5539644 0.4609129
0.4674363 0.5547099 0.4589102
0.4683146 0.5557486 0.4558284
0.4695307 0.5572002 0.4508674
0.4712164 0.5592405 0.4423003
0.4735609 0.5621403 0.4255977
0.4768542 0.5663570 0.3830220
0.4950984 0.5678896 0.3638627
0.5188367 0.5684284 0.3663140
0.5438916 0.5691229 0.3695786
0.5700034 0.5700034 0.3738756
0.5969400 0.5711020 0.3794530
0.6244994 0.5724546 0.3865752
0.6525090 0.5741075 0.3955016
0.6808255 0.5761276 0.4064584
0.7093348 0.5786148 0.4196061
0.7379520 0.5817131 0.4350101
0.7666192 0.5856168 0.4526271
0.7925439 0.5997347 0.5111656
0.8168416 0.6241540 0.5720829
0.8422633 0.6496602 0.6161515
0.8685244 0.6759805 0.6534758
0.8954079 0.7029058 0.6874207
0.9227501 0.7302778 0.7194612
0.9504285 0.7579776 0.7503475
0.9783525 0.7859168 0.7804987
0.4937655 0.5806672 0.4937655
0.4937831 0.5806875 0.4937228
0.4938074 0.5807157 0.4936633
0.4938411 0.5807547 0.4935806
0.4938878 0.5808088 0.4934653
0.4939526 0.5808839 0.4933042
0.4940423 0.5809880 0.4930786
0.4941668 0.5811324 0.4927614
0.4943392 0.5813327 0.4923131
0.4945781 0.5816107 0.4916743
0.4949090 0.5819966 0.4907547
0.4953673 0.5825328 0.4894108
0.4960019 0.5832784 0.4874047
0.4968803 0.5843173 0.4843177
0.4980966 0.5857692 0.4793479
0.4997825 0.5878100 0.4707648
0.5021274 0.5907104 0.4540265
0.5054213 0.5949281 0.4113237
0.5237020 0.5964467 0.3924232
0.5474234 0.5969878 0.3948761
0.5724660 0.5976853 0.3981424
0.5985693 0.5985693 0.4024415
0.6255008 0.5996718 0.4080211
0.6530578 0.6010286 0.4151454
0.6810670 0.6026858 0.4240736
0.7093843 0.6047100 0.4350320
0.7378950 0.6072008 0.4481806
0.7665141 0.6103020 0.4635851
0.7951831 0.6142077 0.4812022
0.8211153 0.6283059 0.5396743
0.8454129 0.6527252 0.6006251
0.8708346 0.6782314 0.6447061
0.8970957 0.7045517 0.6820366
0.9239792 0.7314771 0.7159851
0.9513214 0.7588492 0.7480279
