LUTs/luminance_correction.cube
TITLE "Pre-formation 2012 Luminance Correction"
# Use CIE 2012 Luminance to Compensate for Some Out-of-Domain Values
# This LUT assumes input and output to be XYZ I-E encoded in ST2084 (100)
# LUT resolution 33
LUT_3D_SIZE 5
0.0000007 0.0000007 0.0000007
0.0958577 0.0671417 0.0671435
0.2506314 0.1921537 0.1921577
0.4501369 0.3683217 0.3683276
0.6895446 0.5945025 0.5945096
0.1696773 0.2475017 0.1696834
0.2498285 0.2498286 0.0700884
0.3385125 0.2681514 0.2616448
0.4673911 0.3841502 0.3834776
0.6916033 0.5965049 0.5964341
0.3797882 0.4964845 0.3797980
0.3781353 0.4971126 0.3639211
0.4997590 0.4997591 0.1984662
0.6031681 0.5114841 0.4954551
0.7216225 0.6258044 0.6243820
0.6131757 0.7461565 0.6131873
0.6130054 0.7462180 0.6116460
0.6096515 0.7473559 0.5768668
0.7497368 0.7497370 0.3774688
0.8582180 0.7614430 0.7429600
0.8644258 0.9963062 0.8644378
0.8644088 0.9963120 0.8642845
0.8641171 0.9964106 0.8616281
0.8606085 0.9975210 0.8243725
0.9997473 0.9997474 0.6054250
0.1000650 0.1000666 0.1783448
0.1595560 0.1163444 0.1595584
0.2633786 0.2029343 0.2077939
0.4518689 0.3698998 0.3705644
0.6897382 0.5946899 0.5947747
0.1884838 0.2493173 0.2493192
0.2500000 0.2500000 0.2500000
0.3433020 0.2723098 0.2723144
0.4688553 0.3854901 0.3854960
0.6917932 0.5966889 0.5966959
0.3818786 0.4965782 0.3930088
0.3803994 0.4971681 0.3804077
0.5000000 0.5000000 0.2500001
0.6035435 0.5118339 0.4967611
0.7217658 0.6259440 0.6246018
0.6134126 0.7461658 0.6147633
0.6132441 0.7462269 0.6132556
0.6099255 0.7473580 0.5793778
0.7497904 0.7497905 0.3775124
0.8582545 0.7614788 0.7431009
0.8644497 0.9963071 0.8645976
0.8644327 0.9963128 0.8644446
0.8641413 0.9964114 0.8617943
0.8606364 0.9975212 0.8246412
0.9997523 0.9997525 0.6054301
0.2587061 0.2587092 0.3935782
0.2718854 0.2483525 0.4180711
0.3633817 0.2889882 0.3633856
0.4772850 0.3931349 0.4046600
0.6929558 0.5978062 0.5991977
0.2845746 0.2996397 0.4186711
0.2938694 0.2938719 0.4368736
0.3966603 0.3186706 0.3966640
0.4907610 0.4055891 0.4167103
0.6949507 0.5997479 0.6010642
0.4094251 0.4990406 0.4990432
0.4095513 0.4991773 0.4991797
0.5000000 0.5000000 0.5000000
0.6096347 0.5175083 0.5175141
0.7241577 0.6282725 0.6282795
0.6172983 0.7463332 0.6381760
0.6171574 0.7463886 0.6371101
0.6143933 0.7474095 0.6144020
0.7500000 0.7500000 0.5000001
0.8588672 0.7620798 0.7454647
0.8648522 0.9963219 0.8672594
0.8648355 0.9963277 0.8671121
0.8645491 0.9964253 0.8645607
0.8611063 0.9975240 0.8290770
0.9998379 0.9998380 0.6055163
0.4609706 0.4609748 0.6294917
0.4622996 0.4601185 0.6317390
0.4969638 0.4242314 0.6861797
0.5935247 0.5007441 0.5935294
0.7211427 0.6251754 0.6392784
0.4649609 0.4670616 0.6331028
0.4662455 0.4662496 0.6352867
0.4994312 0.4333895 0.6877667
0.5979053 0.5049083 0.5979099
0.7226773 0.6266779 0.6407248
0.5113488 0.5409749 0.6713829
0.5121187 0.5406085 0.6728083
0.5298545 0.5298570 0.7040490
0.6536587 0.5582911 0.6536627
0.7458343 0.6494101 0.6624673
0.6480255 0.7489519 0.7489548
0.6480393 0.7489659 0.7489688
0.6482717 0.7492026 0.7492050
0.7500000 0.7500000 0.7500000
0.8648741 0.7679685 0.7679746
0.8688406 0.9964849 0.8909376
0.8688267 0.9964901 0.8908345
0.8685881 0.9965785 0.8890557
0.8657323 0.9975689 0.8657410
1.0000000 1.0000000 0.7500001
0.7017166 0.7017213 0.8810652
0.7018605 0.7016301 0.8812865
0.7043713 0.6999842 0.8851280
0.7446304 0.6548554 0.9419188
0.8441982 0.7456694 0.8442031
0.7021671 0.7024058 0.8814372
0.7023104 0.7023151 0.8816578
0.7048122 0.7006786 0.8854876
0.7448845 0.6559954 0.9420592
0.8446520 0.7461241 0.8446568
0.7094000 0.7134637 0.8873488
0.7095350 0.7133810 0.8875587
0.7118894 0.7118938 0.8911999
0.7489964 0.6738245 0.9442756
0.8520427 0.7535350 0.8520475
0.7590711 0.7920423 0.9244464
0.7591501 0.7920062 0.9245815
0.7605196 0.7913678 0.9269142
0.7797588 0.7797613 0.9579633
0.9076865 0.8096469 0.9076905
0.8998012 0.9989933 0.9989961
0.8998026 0.9989946 0.9989974
0.8998256 0.9990170 0.9990197
0.9000609 0.9992457 0.9992480
1.0000000 1.0000000 1.0000000
