LUTs/luminance_correction_srgb.cube
TITLE "Pre-formation 2012 Luminance Correction for BT.709 Target"
# Use CIE 2012 Luminance to Compensate for Some Out-of-Domain Values
# This LUT assumes input and output to be BT.2020 I-D65 encoded in Log2 (-10 stop to +6.5 stop)
# LUT resolution 36
LUT_3D_SIZE 8
0.0000000 0.0000000 0.0000000
0.1428571 0.0000000 0.0000000
0.2711251 0.0787283 0.0787283
0.4070125 0.2146157 0.2146157
0.5484420 0.3560453 0.3560453
0.6910178 0.4986210 0.4986210
0.8338199 0.6414232 0.6414232
0.9766663 0.7842696 0.7842696
0.0473210 0.1342227 0.0473210
0.1428571 0.1428571 0.0000000
0.2857143 0.1428571 0.0000000
0.4137489 0.2211858 0.1952764
0.5497983 0.3573702 0.3530302
0.6912842 0.4988814 0.4980563
0.8338720 0.6414740 0.6413138
0.9766765 0.7842795 0.7842483
0.1816251 0.2685268 0.1816251
0.1882917 0.2765484 0.1519113
0.2847907 0.2847907 0.0886628
0.4246406 0.2915375 0.1335995
0.5565598 0.3639643 0.3319451
0.6926415 0.5002072 0.4949941
0.8341384 0.6417344 0.6407474
0.9767285 0.7843304 0.7841388
0.3227107 0.4096124 0.3227107
0.3240327 0.4111526 0.3191369
0.3307765 0.4193031 0.2848224
0.4272284 0.4272284 0.2311005
0.5666429 0.4355407 0.2767026
0.6994079 0.5068060 0.4735423
0.8354959 0.6430604 0.6376758
0.9769950 0.7845907 0.7835721
0.4652178 0.5521195 0.4652178
0.4654771 0.5524199 0.4645747
0.4668018 0.5539644 0.4609129
0.4735609 0.5621403 0.4255977
0.5700034 0.5700034 0.3738756
0.7093348 0.5786148 0.4196061
0.8422633 0.6496602 0.6161515
0.9783525 0.7859168 0.7804987
0.6080065 0.6949082 0.6080065
0.6080571 0.6949668 0.6078829
0.6083165 0.6952674 0.6072368
0.6096418 0.6968127 0.6035575
0.6164038 0.7049935 0.5680426
0.7128445 0.7128445 0.5167167
0.8521597 0.7215141 0.5624722
0.9851201 0.7925167 0.7589601
0.7508503 0.8377519 0.7508503
0.7508602 0.8377634 0.7508262
0.7509108 0.8378220 0.7507025
0.7511701 0.8381226 0.7500558
0.7524956 0.8396681 0.7463731
0.7592581 0.8478499 0.7108190
0.8556985 0.8556985 0.6595707
0.9950106 0.8643794 0.7053311
0.8937048 0.9806065 0.8937048
0.8937067 0.9806087 0.8937001
0.8937166 0.9806201 0.8936761
0.8937673 0.9806788 0.8935523
0.8940266 0.9809794 0.8929055
0.8953520 0.9825249 0.8892221
0.9021148 0.9907069 0.8536604
0.9985551 0.9985551 0.8024272
0.0000000 0.0000000 0.1428571
0.1428571 0.0000000 0.1428571
0.2722393 0.0806886 0.1533989
0.4073724 0.2151365 0.2344714
0.5485184 0.3561529 0.3602601
0.6910329 0.4986423 0.4994585
0.8338229 0.6414273 0.6415872
0.9766669 0.7842704 0.7843016
0.0564573 0.1370633 0.1370633
0.1428571 0.1428571 0.1428571
0.2857143 0.1428571 0.1428571
0.4139822 0.2215855 0.2215855
0.5498696 0.3574729 0.3574729
0.6912991 0.4989024 0.4989024
0.8338749 0.6414782 0.6414782
0.9766770 0.7842803 0.7842803
0.1838876 0.2696896 0.2049502
0.1901782 0.2770798 0.1901782
0.2857143 0.2857143 0.1428571
0.4285714 0.2857143 0.1428571
0.5566060 0.3640430 0.3381335
0.6926555 0.5002273 0.4958874
0.8341413 0.6417385 0.6409135
0.9767291 0.7843312 0.7841710
0.3231740 0.4098654 0.3276366
0.3244822 0.4113839 0.3244822
0.3311489 0.4194056 0.2947685
0.4276478 0.4276478 0.2315200
0.5674977 0.4343947 0.2764566
0.6994170 0.5068214 0.4748023
0.8354986 0.6430643 0.6378512
0.9769956 0.7845915 0.7836045
0.4653091 0.5521699 0.4661956
0.4655678 0.5524695 0.4655678
0.4668899 0.5540097 0.4619940
0.4736337 0.5621602 0.4276796
0.5700855 0.5700855 0.3739577
0.7095001 0.5783978 0.4195597
0.8422651 0.6496632 0.6163995
0.9783531 0.7859176 0.7805330
0.6080243 0.6949180 0.6081980
0.6080750 0.6949766 0.6080750
0.6083342 0.6952770 0.6074319
0.6096590 0.6968216 0.6037700
0.6164180 0.7049974 0.5684548
0.7128606 0.7128606 0.5167327
0.8521919 0.7214720 0.5624632
0.9851205 0.7925173 0.7590086
0.7508538 0.8377539 0.7508877
0.7508636 0.8377653 0.7508636
0.7509143 0.8378239 0.7507401
0.7511736 0.8381245 0.7500939
0.7524989 0.8396699 0.7464147
0.7592609 0.8478507 0.7108997
0.8557017 0.8557017 0.6595738
0.9950168 0.8643712 0.7053293
0.8937055 0.9806068 0.8937121
0.8937074 0.9806091 0.8937074
0.8937173 0.9806205 0.8936834
0.8937679 0.9806792 0.8935597
0.8940273 0.9809798 0.8929129
0.8953527 0.9825253 0.8892303
0.9021153 0.9907071 0.8536762
0.9985557 0.9985557 0.8024279
0.0381088 0.0381088 0.2732833
0.1428571 -0.0000000 0.2857143
0.2764537 0.0890835 0.2764537
0.4090845 0.2176668 0.2977709
0.5489039 0.3566982 0.3792275
0.6911103 0.4987509 0.5036318
0.8338380 0.6414486 0.6424230
0.9766698 0.7842745 0.7844656
0.0928963 0.1520636 0.2620804
0.1428571 0.1428571 0.2857143
0.2857143 0.1428571 0.2857143
0.4150965 0.2235458 0.2962560
0.5502295 0.3579936 0.3773286
0.6913755 0.4990100 0.5031173
0.8338901 0.6414994 0.6423157
0.9766800 0.7842845 0.7844443
0.1945419 0.2751479 0.2751479
0.1993144 0.2799204 0.2799204
0.2857143 0.2857143 0.2857143
0.4285714 0.2857143 0.2857143
0.5568393 0.3644426 0.3644426
0.6927268 0.5003300 0.5003300
0.8341563 0.6417596 0.6417596
0.9767321 0.7843353 0.7843353
0.3255042 0.4111349 0.3494143
0.3267447 0.4125467 0.3478074
0.3330353 0.4199370 0.3330353
0.4285714 0.4285714 0.2857143
0.5714286 0.4285714 0.2857143
0.6994632 0.5069001 0.4809906
0.8355126 0.6430844 0.6387445
0.9769985 0.7845957 0.7837706
0.4657752 0.5524271 0.4710483
0.4660312 0.5527225 0.4704938
0.4673394 0.5542411 0.4673394
0.4740060 0.5622627 0.4376256
0.5705049 0.5705049 0.3743771
0.7103549 0.5772518 0.4193137
0.8422741 0.6496786 0.6176594
0.9783558 0.7859215 0.7807084
0.6081157 0.6949686 0.6091728
0.6081663 0.6950270 0.6090528
0.6084250 0.6953266 0.6084250
0.6097470 0.6968669 0.6048512
0.6164908 0.7050174 0.5705367
0.7129427 0.7129427 0.5168148
0.8523572 0.7212550 0.5624169
0.9851222 0.7925203 0.7592566
0.7508716 0.8377638 0.7510790
0.7508815 0.8377752 0.7510551
0.7509321 0.8378338 0.7509321
0.7511913 0.8381342 0.7502890
0.7525161 0.8396787 0.7466272
0.7592751 0.8478546 0.7113119
0.8557177 0.8557177 0.6595899
0.9950491 0.8643291 0.7053203
0.8937090 0.9806088 0.8937495
0.8937109 0.9806110 0.8937448
0.8937208 0.9806225 0.8937208
0.8937714 0.9806811 0.8935972
0.8940308 0.9809816 0.8929510
0.8953561 0.9825270 0.8892718
0.9021181 0.9907078 0.8537568
0.9985588 0.9985588 0.8024310
0.1660192 0.1660192 0.4011936
0.1623949 0.0846632 0.4220154
0.2855568 0.1163188 0.4202736
0.4154458 0.2280756 0.4154458
0.5507368 0.3593440 0.4407684
0.6915009 0.4993010 0.5224357
0.8339156 0.6415574 0.6465883
0.9766850 0.7842958 0.7853011
0.1819369 0.2074897 0.3991260
0.1809660 0.1809660 0.4161404
0.2857143 0.1428571 0.4285714
0.4193108 0.2319406 0.4193108
0.5519417 0.3605240 0.4406280
0.6917610 0.4995553 0.5220846
0.8339675 0.6416080 0.6464889
0.9766952 0.7843057 0.7852802
0.2341081 0.2959286 0.3968888
0.2357534 0.2949208 0.4049376
0.2857143 0.2857143 0.4285714
0.4285714 0.2857143 0.4285714
0.5579536 0.3664029 0.4391132
0.6930866 0.5008507 0.5201857
0.8342327 0.6418672 0.6459744
0.9767472 0.7843566 0.7851728
0.3364364 0.4170424 0.4170424
0.3373991 0.4180051 0.4180051
0.3421715 0.4227776 0.4227776
0.4285714 0.4285714 0.4285714
0.5714286 0.4285714 0.4285714
0.6996965 0.5072998 0.5072998
0.8355839 0.6431872 0.6431872
0.9770134 0.7846167 0.7846167
0.4681184 0.5537169 0.4925518
0.4683613 0.5539920 0.4922715
0.4696019 0.5554038 0.4906645
0.4758924 0.5627941 0.4758924
0.5714286 0.5714286 0.4285714
0.7142857 0.5714286 0.4285714
0.8423203 0.6497573 0.6238478
0.9783697 0.7859416 0.7816016
0.6085823 0.6952266 0.6140115
0.6086323 0.6952842 0.6139054
0.6088883 0.6955797 0.6133509
0.6101965 0.6970982 0.6101965
0.6168632 0.7051199 0.5804828
0.7133621 0.7133621 0.5172343
0.8532120 0.7201090 0.5621709
0.9851313 0.7925357 0.7605166
0.7509630 0.8378143 0.7520533
0.7509729 0.8378257 0.7520300
0.7510234 0.8378842 0.7519099
0.7512821 0.8381838 0.7512821
0.7526042 0.8397240 0.7477083
0.7593480 0.8478745 0.7133939
0.8557998 0.8557998 0.6596720
0.9952143 0.8641121 0.7052740
0.8937268 0.9806187 0.8939408
0.8937288 0.9806209 0.8939362
0.8937386 0.9806323 0.8939123
0.8937893 0.9806909 0.8937893
0.8940485 0.9809913 0.8931461
0.8953733 0.9825358 0.8894843
0.9021323 0.9907117 0.8541691
0.9985748 0.9985748 0.8024470
0.3056356 0.3056356 0.5408100
0.3053366 0.2973795 0.5445808
0.3021219 0.1844728 0.5658531
0.4281453 0.2584151 0.5607783
0.5575282 0.3701580 0.5575282
0.6933575 0.5019696 0.5836474
0.8343072 0.6421084 0.6653607
0.9767627 0.7844046 0.7894648
0.3090897 0.3156947 0.5404231
0.3088763 0.3088763 0.5440508
0.3052521 0.2275204 0.5648725
0.4284140 0.2591760 0.5631308
0.5583030 0.3709327 0.5583030
0.6935939 0.5022012 0.5836255
0.8343580 0.6421581 0.6652929
0.9767728 0.7844145 0.7894454
0.3247197 0.3534292 0.5389629
0.3247940 0.3503468 0.5419832
0.3238231 0.3238231 0.5589976
0.4285714 0.2857143 0.5714286
0.5621680 0.3747978 0.5621680
0.6947988 0.5033811 0.5834852
0.8346182 0.6424125 0.6649418
0.9768246 0.7844651 0.7893461
0.3766071 0.4388704 0.5382520
0.3769652 0.4387858 0.5397460
0.3786105 0.4377779 0.5477947
0.4285714 0.4285714 0.5714286
0.5714286 0.4285714 0.5714286
0.7008107 0.5092601 0.5819703
0.8359438 0.6437079 0.6630429
0.9770898 0.7847243 0.7888316
0.4791044 0.5597104 0.5597104
0.4792935 0.5598995 0.5598995
0.4802562 0.5608622 0.5608622
0.4850287 0.5656347 0.5656347
0.5714286 0.5714286 0.5714286
0.7142857 0.5714286 0.5714286
0.8425536 0.6501569 0.6501569
0.9784410 0.7860443 0.7860443
0.6109281 0.6965204 0.6354624
0.6109755 0.6965741 0.6354089
0.6112185 0.6968492 0.6351286
0.6124590 0.6982610 0.6335216
0.6187496 0.7056513 0.6187496
0.7142857 0.7142857 0.5714286
0.8571429 0.7142857 0.5714286
0.9851775 0.7926144 0.7667049
0.7514297 0.8380725 0.7568892
0.7514394 0.8380837 0.7568686
0.7514894 0.8381413 0.7567626
0.7517455 0.8384368 0.7562081
0.7530537 0.8399553 0.7530537
0.7597203 0.8479770 0.7233399
0.8562192 0.8562192 0.6600914
0.9960691 0.8629661 0.7050280
0.8938182 0.9806693 0.8949150
0.8938202 0.9806715 0.8949105
0.8938300 0.9806829 0.8948871
0.8938806 0.9807413 0.8947670
0.8941393 0.9810409 0.8941393
0.8954613 0.9825812 0.8905655
0.9022051 0.9907317 0.8562510
0.9986569 0.9986569 0.8025291
0.4478459 0.4478459 0.6830203
0.4478000 0.4463712 0.6837473
0.4474828 0.4377823 0.6875472
0.4465216 0.3276137 0.7080626
0.5709392 0.4011161 0.7031744
0.7002334 0.5128632 0.7002334
0.8361684 0.6447815 0.7265086
0.9771544 0.7849559 0.8082310
0.4485354 0.4499136 0.6829456
0.4484927 0.4484927 0.6836671
0.4481938 0.4402367 0.6874379
0.4449791 0.3273300 0.7087102
0.5710024 0.4012723 0.7036354
0.7003854 0.5130152 0.7003854
0.8362146 0.6448267 0.7265045
0.9771643 0.7849656 0.8082178
0.4519747 0.4597375 0.6825856
0.4519469 0.4585519 0.6832802
0.4517335 0.4517335 0.6869079
0.4481092 0.3703775 0.7077297
0.5712711 0.4020331 0.7059879
0.7011601 0.5137899 0.7011601
0.8364511 0.6450583 0.7264827
0.9772151 0.7850153 0.8081500
0.4675544 0.4968371 0.6812401
0.4675768 0.4962864 0.6818200
0.4676512 0.4932039 0.6848403
0.4666803 0.4666803 0.7018547
0.5714286 0.4285714 0.7142857
0.7050251 0.5176549 0.7050251
0.8376560 0.6462382 0.7263423
0.9774753 0.7852696 0.8077989
0.5193931 0.5817404 0.6808202
0.5194642 0.5817276 0.6811092
0.5198224 0.5816429 0.6826031
0.5214677 0.5806350 0.6906518
0.5714286 0.5714286 0.7142857
0.7142857 0.5714286 0.7142857
0.8436679 0.6521172 0.7248274
0.9788009 0.7865650 0.8059000
0.6219246 0.7025306 0.7025306
0.6219616 0.7025676 0.7025676
0.6221507 0.7027567 0.7027567
0.6231133 0.7037193 0.7037193
0.6278858 0.7084918 0.7084918
0.7142857 0.7142857 0.7142857
0.8571429 0.7142857 0.7142857
0.9854108 0.7930141 0.7930141
0.7537760 0.8393671 0.7783300
0.7537852 0.8393776 0.7783196
0.7538327 0.8394312 0.7782660
0.7540756 0.8397063 0.7779858
0.7553162 0.8411181 0.7763788
0.7616067 0.8485084 0.7616067
0.8571429 0.8571429 0.7142857
1.0000000 0.8571429 0.7142857
0.8942849 0.9809274 0.8997504
0.8942868 0.9809296 0.8997464
0.8942966 0.9809409 0.8997258
0.8943466 0.9809985 0.8996197
0.8946026 0.9812939 0.8990652
0.8959108 0.9828125 0.8959108
0.9025775 0.9908342 0.8661970
0.9990764 0.9990764 0.8029485
0.5905763 0.5905763 0.8257507
0.5905678 0.5902932 0.8258922
0.5905213 0.5888076 0.8266203
0.5902004 0.5801513 0.8304259
0.5896727 0.4705247 0.8507932
0.7137836 0.5439425 0.8459415
0.8430608 0.6556906 0.8430608
0.9790166 0.7876298 0.8693665
0.5907114 0.5909841 0.8257361
0.5907031 0.5907031 0.8258775
0.5906572 0.5892284 0.8266044
0.5903400 0.5806394 0.8304043
0.5893787 0.4704708 0.8509197
0.7137964 0.5439733 0.8460315
0.8430905 0.6557203 0.8430905
0.9790256 0.7876386 0.8693657
0.5914003 0.5930416 0.8256625
0.5913925 0.5927707 0.8258028
0.5913498 0.5913498 0.8265243
0.5910509 0.5830938 0.8302951
0.5878362 0.4701871 0.8515674
0.7138596 0.5441294 0.8464926
0.8432425 0.6558723 0.8432425
0.9790718 0.7876839 0.8693617
0.5948368 0.6028211 0.8253077
0.5948318 0.6025946 0.8254428
0.5948040 0.6014090 0.8261374
0.5945906 0.5945906 0.8297651
0.5909663 0.5132346 0.8505868
0.7141283 0.5448903 0.8488451
0.8440172 0.6566470 0.8440172
0.9793082 0.7879155 0.8693398
0.6104068 0.6397999 0.8239844
0.6104115 0.6396942 0.8240972
0.6104340 0.6391435 0.8246771
0.6105083 0.6360611 0.8276975
0.6095374 0.6095374 0.8447119
0.7142857 0.5714286 0.8571429
0.8478823 0.6605121 0.8478823
0.9805131 0.7890954 0.8691994
0.6622363 0.7245999 0.8236210
0.6622502 0.7245975 0.8236773
0.6623214 0.7245847 0.8239663
0.6626795 0.7245001 0.8254603
0.6643248 0.7234922 0.8335090
0.7142857 0.7142857 0.8571429
0.8571429 0.7142857 0.8571429
0.9865250 0.7949743 0.8676846
0.7647745 0.8453805 0.8453805
0.7647817 0.8453877 0.8453877
0.7648187 0.8454247 0.8454247
0.7650078 0.8456138 0.8456138
0.7659705 0.8465765 0.8465765
0.7707430 0.8513490 0.8513490
0.8571429 0.8571429 0.8571429
1.0000000 0.8571429 0.8571429
0.8966313 0.9822222 0.9211891
0.8966331 0.9822242 0.9211871
0.8966424 0.9822347 0.9211767
0.8966898 0.9822884 0.9211232
0.8969328 0.9825634 0.9208429
0.8981733 0.9839753 0.9192359
0.9044639 0.9913655 0.9044639
1.0000000 1.0000000 0.8571429
0.7334086 0.7334086 0.9685831
0.7334070 0.7333536 0.9686107
0.7333985 0.7330701 0.9687523
0.7333518 0.7315824 0.9694805
0.7330303 0.7229128 0.9732872
0.7325869 0.6133923 0.9936257
0.8566383 0.6867936 0.9887810
0.9859122 0.7985420 0.9859122
0.7334350 0.7334884 0.9685802
0.7334334 0.7334334 0.9686078
0.7334249 0.7331503 0.9687494
0.7333784 0.7316648 0.9694774
0.7330576 0.7230084 0.9732830
0.7325298 0.6133818 0.9936504
0.8566408 0.6867996 0.9887986
0.9859180 0.7985478 0.9859180
0.7335702 0.7338959 0.9685657
0.7335686 0.7338413 0.9685933
0.7335602 0.7335602 0.9687346
0.7335143 0.7320855 0.9694616
0.7331971 0.7234965 0.9732615
0.7322358 0.6133280 0.9937769
0.8566535 0.6868304 0.9888887
0.9859477 0.7985775 0.9859477
0.7342589 0.7359514 0.9684923
0.7342575 0.7358988 0.9685196
0.7342497 0.7356278 0.9686599
0.7342070 0.7342070 0.9693814
0.7339080 0.7259510 0.9731522
0.7306934 0.6130442 0.9944245
0.8567167 0.6869866 0.9893497
0.9860997 0.7987295 0.9860997
0.7376949 0.7457223 0.9681385
0.7376939 0.7456782 0.9681649
0.7376890 0.7454518 0.9682999
0.7376612 0.7442662 0.9689945
0.7374478 0.7374478 0.9726222
0.7338235 0.6560918 0.9934440
0.8569854 0.6877474 0.9917022
0.9868744 0.7995042 0.9868744
0.7532631 0.7826776 0.9668195
0.7532640 0.7826571 0.9668415
0.7532686 0.7825514 0.9669543
0.7532911 0.7820006 0.9675343
0.7533655 0.7789182 0.9705546
0.7523946 0.7523946 0.9875690
0.8571429 0.7142857 1.0000000
0.9907394 0.8033692 0.9907394
0.8050907 0.8674575 0.9664672
0.8050934 0.8674570 0.9664782
0.8051073 0.8674547 0.9665345
0.8051785 0.8674419 0.9668235
0.8055367 0.8673572 0.9683174
0.8071820 0.8663493 0.9763661
0.8571429 0.8571429 1.0000000
1.0000000 0.8571429 1.0000000
0.9076303 0.9882363 0.9882363
0.9076317 0.9882377 0.9882377
0.9076389 0.9882449 0.9882449
0.9076758 0.9882818 0.9882818
0.9078650 0.9884710 0.9884710
0.9088276 0.9894336 0.9894336
0.9136001 0.9942061 0.9942061
1.0000000 1.0000000 1.0000000
