LUTs/moment_compression.cube
TITLE "Moment Compression v1m= 0.93 sim=0.2 DCI-P3 I-ESpherical Chroma Compression v1s=1 sis=1"
# Compress chroma in two ways. In the moment plane and spherically. Resolution 33
# Reduces the purity in the moment plane relative to the color space DCI-P3 and illuminant E
# At a purity of 1.0, the compression is 7.0%.
# Very high purities are compressed by 80.0%.
# At a radius of 1.0, the compression is 0.0%.
# Very high radii are compressed by 0.0%.
LUT_3D_SIZE 5
0.0000000 0.0000000 0.0000000
0.2417544 0.0566248 0.0566248
0.4913354 0.2565928 0.2565928
0.7413151 0.5032078 0.5032078
0.9913142 0.7530411 0.7530411
0.0566248 0.2417544 0.0566248
0.2459802 0.2459802 0.0898778
0.4915452 0.3046268 0.2601373
0.7413253 0.5064181 0.5033895
0.9913146 0.7531991 0.7530499
0.2565928 0.4913354 0.2565928
0.3046268 0.4915452 0.2601373
0.4957815 0.4957815 0.3118811
0.7415351 0.5545292 0.5070713
0.9913248 0.7564097 0.7532319
0.5032078 0.7413151 0.5032078
0.5064181 0.7413253 0.5033895
0.5545292 0.7415351 0.5070713
0.7457719 0.7457719 0.5602585
0.9915346 0.8045245 0.7569207
0.7530411 0.9913142 0.7530411
0.7531991 0.9913146 0.7530499
0.7564097 0.9913248 0.7532319
0.8045245 0.9915346 0.7569207
0.9957714 0.9957714 0.8101795
0.0566248 0.0566248 0.2417544
0.2459802 0.0898778 0.2459802
0.4915452 0.2601373 0.3046268
0.7413253 0.5033895 0.5064181
0.9913146 0.7530499 0.7531991
0.0898778 0.2459802 0.2459802
0.2500000 0.2500000 0.2500000
0.4917544 0.3066248 0.3066248
0.7413354 0.5065928 0.5065928
0.9913151 0.7532078 0.7532078
0.2601373 0.4915452 0.3046268
0.3066248 0.4917544 0.3066248
0.4959802 0.4959802 0.3398778
0.7415452 0.5546268 0.5101373
0.9913253 0.7564181 0.7533895
0.5033895 0.7413253 0.5064181
0.5065928 0.7413354 0.5065928
0.5546268 0.7415452 0.5101373
0.7457815 0.7457815 0.5618811
0.9915351 0.8045292 0.7570713
0.7530499 0.9913146 0.7531991
0.7532078 0.9913151 0.7532078
0.7564181 0.9913253 0.7533895
0.8045292 0.9915351 0.7570713
0.9957719 0.9957719 0.8102585
0.2565928 0.2565928 0.4913354
0.3046268 0.2601373 0.4915452
0.4957815 0.3118811 0.4957815
0.7415351 0.5070713 0.5545292
0.9913248 0.7532319 0.7564097
0.2601373 0.3046268 0.4915452
0.3066248 0.3066248 0.4917544
0.4959802 0.3398778 0.4959802
0.7415452 0.5101373 0.5546268
0.9913253 0.7533895 0.7564181
0.3118811 0.4957815 0.4957815
0.3398778 0.4959802 0.4959802
0.5000000 0.5000000 0.5000000
0.7417544 0.5566248 0.5566248
0.9913354 0.7565928 0.7565928
0.5070713 0.7415351 0.5545292
0.5101373 0.7415452 0.5546268
0.5566248 0.7417544 0.5566248
0.7459802 0.7459802 0.5898778
0.9915452 0.8046268 0.7601373
0.7532319 0.9913248 0.7564097
0.7533895 0.9913253 0.7564181
0.7565928 0.9913354 0.7565928
0.8046268 0.9915452 0.7601373
0.9957815 0.9957815 0.8118811
0.5032078 0.5032078 0.7413151
0.5064181 0.5033895 0.7413253
0.5545292 0.5070713 0.7415351
0.7457719 0.5602585 0.7457719
0.9915346 0.7569207 0.8045245
0.5033895 0.5064181 0.7413253
0.5065928 0.5065928 0.7413354
0.5546268 0.5101373 0.7415452
0.7457815 0.5618811 0.7457815
0.9915351 0.7570713 0.8045292
0.5070713 0.5545292 0.7415351
0.5101373 0.5546268 0.7415452
0.5566248 0.5566248 0.7417544
0.7459802 0.5898778 0.7459802
0.9915452 0.7601373 0.8046268
0.5602585 0.7457719 0.7457719
0.5618811 0.7457815 0.7457815
0.5898778 0.7459802 0.7459802
0.7500000 0.7500000 0.7500000
0.9917544 0.8066248 0.8066248
0.7569207 0.9915346 0.8045245
0.7570713 0.9915351 0.8045292
0.7601373 0.9915452 0.8046268
0.8066248 0.9917544 0.8066248
0.9959802 0.9959802 0.8398778
0.7530411 0.7530411 0.9913142
0.7531991 0.7530499 0.9913146
0.7564097 0.7532319 0.9913248
0.8045245 0.7569207 0.9915346
0.9957714 0.8101795 0.9957714
0.7530499 0.7531991 0.9913146
0.7532078 0.7532078 0.9913151
0.7564181 0.7533895 0.9913253
0.8045292 0.7570713 0.9915351
0.9957719 0.8102585 0.9957719
0.7532319 0.7564097 0.9913248
0.7533895 0.7564181 0.9913253
0.7565928 0.7565928 0.9913354
0.8046268 0.7601373 0.9915452
0.9957815 0.8118811 0.9957815
0.7569207 0.8045245 0.9915346
0.7570713 0.8045292 0.9915351
0.7601373 0.8046268 0.9915452
0.8066248 0.8066248 0.9917544
0.9959802 0.8398778 0.9959802
0.8101795 0.9957714 0.9957714
0.8102585 0.9957719 0.9957719
0.8118811 0.9957815 0.9957815
0.8398778 0.9959802 0.9959802
1.0000000 1.0000000 1.0000000
