LUTs/moment_compression.cube
TITLE "Moment Compression v1m= 0.93 sim=0.2 DCI-P3 I-ESpherical Chroma Compression v1s=1 sis=1"
# Compress chroma in two ways. In the moment plane and spherically. Resolution 33
# Reduces the purity in the moment plane relative to the color space DCI-P3 and illuminant E
# At a purity of 1.0, the compression is 7.0%.
# Very high purities are compressed by 80.0%.
# At a radius of 1.0, the compression is 0.0%.
# Very high radii are compressed by 0.0%.
LUT_3D_SIZE 9
0.0000000 0.0000000 0.0000000
0.1183009 0.0134882 0.0134882
0.2417544 0.0566248 0.0566248
0.3664110 0.1431334 0.1431334
0.4913354 0.2565928 0.2565928
0.6163188 0.3788275 0.3788275
0.7413151 0.5032078 0.5032078
0.8663143 0.6280712 0.6280712
0.9913142 0.7530411 0.7530411
0.0134882 0.1183009 0.0134882
0.1217185 0.1217185 0.0250767
0.2425313 0.1357104 0.0636868
0.3665829 0.1799900 0.1456757
0.4913732 0.2675647 0.2572422
0.6163271 0.3814496 0.3789754
0.7413170 0.5037950 0.5032406
0.8663147 0.6282006 0.6280784
0.9913142 0.7530696 0.7530427
0.0566248 0.2417544 0.0566248
0.1357104 0.2425313 0.0636868
0.2459802 0.2459802 0.0898778
0.3673613 0.2600878 0.1563566
0.4915452 0.3046268 0.2601373
0.6163649 0.3924393 0.3796457
0.7413253 0.5064181 0.5033895
0.8663166 0.6287879 0.6281111
0.9913146 0.7531991 0.7530499
0.1431334 0.3664110 0.1431334
0.1799900 0.3665829 0.1456757
0.2600878 0.3673613 0.1563566
0.3708173 0.3708173 0.1926739
0.4923240 0.3849505 0.2721731
0.6165369 0.4295468 0.3826317
0.7413631 0.5174117 0.5040645
0.8663249 0.6314112 0.6282603
0.9913165 0.7537863 0.7530827
0.2565928 0.4913354 0.2565928
0.2675647 0.4913732 0.2572422
0.3046268 0.4915452 0.2601373
0.3849505 0.4923240 0.2721731
0.4957815 0.4957815 0.3118811
0.6173158 0.5099203 0.3950123
0.7415351 0.5545292 0.5070713
0.8663627 0.6424057 0.6289364
0.9913248 0.7564097 0.7532319
0.3788275 0.6163188 0.3788275
0.3814496 0.6163271 0.3789754
0.3924393 0.6163649 0.3796457
0.4295468 0.6165369 0.3826317
0.5099203 0.6173158 0.3950123
0.6207736 0.6207736 0.4355530
0.7423140 0.6349137 0.5195303
0.8665347 0.6795254 0.6319478
0.9913626 0.7674043 0.7539082
0.5032078 0.7413151 0.5032078
0.5037950 0.7413170 0.5032406
0.5064181 0.7413253 0.5033895
0.5174117 0.7413631 0.5040645
0.5545292 0.7415351 0.5070713
0.6349137 0.7423140 0.5195303
0.7457719 0.7457719 0.5602585
0.8673136 0.7599122 0.6444241
0.9915346 0.8045245 0.7569207
0.6280712 0.8663143 0.6280712
0.6282006 0.8663147 0.6280784
0.6287879 0.8663166 0.6281111
0.6314112 0.8663249 0.6282603
0.6424057 0.8663627 0.6289364
0.6795254 0.8665347 0.6319478
0.7599122 0.8673136 0.6444241
0.8707715 0.8707715 0.6851938
0.9923135 0.8849119 0.7694008
0.7530411 0.9913142 0.7530411
0.7530696 0.9913142 0.7530427
0.7531991 0.9913146 0.7530499
0.7537863 0.9913165 0.7530827
0.7564097 0.9913248 0.7532319
0.7674043 0.9913626 0.7539082
0.8045245 0.9915346 0.7569207
0.8849119 0.9923135 0.7694008
0.9957714 0.9957714 0.8101795
0.0134882 0.0134882 0.1183009
0.1217185 0.0250767 0.1217185
0.2425313 0.0636868 0.1357104
0.3665829 0.1456757 0.1799900
0.4913732 0.2572422 0.2675647
0.6163271 0.3789754 0.3814496
0.7413170 0.5032406 0.5037950
0.8663147 0.6280784 0.6282006
0.9913142 0.7530427 0.7530696
0.0250767 0.1217185 0.1217185
0.1250000 0.1250000 0.1250000
0.2433009 0.1384882 0.1384882
0.3667544 0.1816248 0.1816248
0.4914110 0.2681334 0.2681334
0.6163354 0.3815928 0.3815928
0.7413188 0.5038275 0.5038275
0.8663151 0.6282078 0.6282078
0.9913143 0.7530712 0.7530712
0.0636868 0.2425313 0.1357104
0.1384882 0.2433009 0.1384882
0.2467185 0.2467185 0.1500767
0.3675313 0.2607104 0.1886868
0.4915829 0.3049900 0.2706757
0.6163732 0.3925647 0.3822422
0.7413271 0.5064496 0.5039754
0.8663170 0.6287950 0.6282406
0.9913147 0.7532006 0.7530784
0.1456757 0.3665829 0.1799900
0.1816248 0.3667544 0.1816248
0.2607104 0.3675313 0.1886868
0.3709802 0.3709802 0.2148778
0.4923613 0.3850878 0.2813566
0.6165452 0.4296268 0.3851373
0.7413649 0.5174393 0.5046457
0.8663253 0.6314181 0.6283895
0.9913166 0.7537879 0.7531111
0.2572422 0.4913732 0.2675647
0.2681334 0.4914110 0.2681334
0.3049900 0.4915829 0.2706757
0.3850878 0.4923613 0.2813566
0.4958173 0.4958173 0.3176739
0.6173240 0.5099505 0.3971731
0.7415369 0.5545468 0.5076317
0.8663631 0.6424117 0.6290645
0.9913249 0.7564112 0.7532603
0.3789754 0.6163271 0.3814496
0.3815928 0.6163354 0.3815928
0.3925647 0.6163732 0.3822422
0.4296268 0.6165452 0.3851373
0.5099505 0.6173240 0.3971731
0.6207815 0.6207815 0.4368811
0.7423158 0.6349203 0.5200123
0.8665351 0.6795292 0.6320713
0.9913627 0.7674057 0.7539364
0.5032406 0.7413170 0.5037950
0.5038275 0.7413188 0.5038275
0.5064496 0.7413271 0.5039754
0.5174393 0.7413649 0.5046457
0.5545468 0.7415369 0.5076317
0.6349203 0.7423158 0.5200123
0.7457736 0.7457736 0.5605530
0.8673140 0.7599137 0.6445303
0.9915347 0.8045254 0.7569478
0.6280784 0.8663147 0.6282006
0.6282078 0.8663151 0.6282078
0.6287950 0.8663170 0.6282406
0.6314181 0.8663253 0.6283895
0.6424117 0.8663631 0.6290645
0.6795292 0.8665351 0.6320713
0.7599137 0.8673140 0.6445303
0.8707719 0.8707719 0.6852585
0.9923136 0.8849122 0.7694241
0.7530427 0.9913142 0.7530696
0.7530712 0.9913143 0.7530712
0.7532006 0.9913147 0.7530784
0.7537879 0.9913166 0.7531111
0.7564112 0.9913249 0.7532603
0.7674057 0.9913627 0.7539364
0.8045254 0.9915347 0.7569478
0.8849122 0.9923136 0.7694241
0.9957715 0.9957715 0.8101938
0.0566248 0.0566248 0.2417544
0.1357104 0.0636868 0.2425313
0.2459802 0.0898778 0.2459802
0.3673613 0.1563566 0.2600878
0.4915452 0.2601373 0.3046268
0.6163649 0.3796457 0.3924393
0.7413253 0.5033895 0.5064181
0.8663166 0.6281111 0.6287879
0.9913146 0.7530499 0.7531991
0.0636868 0.1357104 0.2425313
0.1384882 0.1384882 0.2433009
0.2467185 0.1500767 0.2467185
0.3675313 0.1886868 0.2607104
0.4915829 0.2706757 0.3049900
0.6163732 0.3822422 0.3925647
0.7413271 0.5039754 0.5064496
0.8663170 0.6282406 0.6287950
0.9913147 0.7530784 0.7532006
0.0898778 0.2459802 0.2459802
0.1500767 0.2467185 0.2467185
0.2500000 0.2500000 0.2500000
0.3683009 0.2634882 0.2634882
0.4917544 0.3066248 0.3066248
0.6164110 0.3931334 0.3931334
0.7413354 0.5065928 0.5065928
0.8663188 0.6288275 0.6288275
0.9913151 0.7532078 0.7532078
0.1563566 0.3673613 0.2600878
0.1886868 0.3675313 0.2607104
0.2634882 0.3683009 0.2634882
0.3717185 0.3717185 0.2750767
0.4925313 0.3857104 0.3136868
0.6165829 0.4299900 0.3956757
0.7413732 0.5175647 0.5072422
0.8663271 0.6314496 0.6289754
0.9913170 0.7537950 0.7532406
0.2601373 0.4915452 0.3046268
0.2706757 0.4915829 0.3049900
0.3066248 0.4917544 0.3066248
0.3857104 0.4925313 0.3136868
0.4959802 0.4959802 0.3398778
0.6173613 0.5100878 0.4063566
0.7415452 0.5546268 0.5101373
0.8663649 0.6424393 0.6296457
0.9913253 0.7564181 0.7533895
0.3796457 0.6163649 0.3924393
0.3822422 0.6163732 0.3925647
0.3931334 0.6164110 0.3931334
0.4299900 0.6165829 0.3956757
0.5100878 0.6173613 0.4063566
0.6208173 0.6208173 0.4426739
0.7423240 0.6349505 0.5221731
0.8665369 0.6795468 0.6326317
0.9913631 0.7674117 0.7540645
0.5033895 0.7413253 0.5064181
0.5039754 0.7413271 0.5064496
0.5065928 0.7413354 0.5065928
0.5175647 0.7413732 0.5072422
0.5546268 0.7415452 0.5101373
0.6349505 0.7423240 0.5221731
0.7457815 0.7457815 0.5618811
0.8673158 0.7599203 0.6450123
0.9915351 0.8045292 0.7570713
0.6281111 0.8663166 0.6287879
0.6282406 0.8663170 0.6287950
0.6288275 0.8663188 0.6288275
0.6314496 0.8663271 0.6289754
0.6424393 0.8663649 0.6296457
0.6795468 0.8665369 0.6326317
0.7599203 0.8673158 0.6450123
0.8707736 0.8707736 0.6855530
0.9923140 0.8849137 0.7695303
0.7530499 0.9913146 0.7531991
0.7530784 0.9913147 0.7532006
0.7532078 0.9913151 0.7532078
0.7537950 0.9913170 0.7532406
0.7564181 0.9913253 0.7533895
0.7674117 0.9913631 0.7540645
0.8045292 0.9915351 0.7570713
0.8849137 0.9923140 0.7695303
0.9957719 0.9957719 0.8102585
0.1431334 0.1431334 0.3664110
0.1799900 0.1456757 0.3665829
0.2600878 0.1563566 0.3673613
0.3708173 0.1926739 0.3708173
0.4923240 0.2721731 0.3849505
0.6165369 0.3826317 0.4295468
0.7413631 0.5040645 0.5174117
0.8663249 0.6282603 0.6314112
0.9913165 0.7530827 0.7537863
0.1456757 0.1799900 0.3665829
0.1816248 0.1816248 0.3667544
0.2607104 0.1886868 0.3675313
0.3709802 0.2148778 0.3709802
0.4923613 0.2813566 0.3850878
0.6165452 0.3851373 0.4296268
0.7413649 0.5046457 0.5174393
0.8663253 0.6283895 0.6314181
0.9913166 0.7531111 0.7537879
0.1563566 0.2600878 0.3673613
0.1886868 0.2607104 0.3675313
0.2634882 0.2634882 0.3683009
0.3717185 0.2750767 0.3717185
0.4925313 0.3136868 0.3857104
0.6165829 0.3956757 0.4299900
0.7413732 0.5072422 0.5175647
0.8663271 0.6289754 0.6314496
0.9913170 0.7532406 0.7537950
0.1926739 0.3708173 0.3708173
0.2148778 0.3709802 0.3709802
0.2750767 0.3717185 0.3717185
0.3750000 0.3750000 0.3750000
0.4933009 0.3884882 0.3884882
0.6167544 0.4316248 0.4316248
0.7414110 0.5181334 0.5181334
0.8663354 0.6315928 0.6315928
0.9913188 0.7538275 0.7538275
0.2721731 0.4923240 0.3849505
0.2813566 0.4923613 0.3850878
0.3136868 0.4925313 0.3857104
0.3884882 0.4933009 0.3884882
0.4967185 0.4967185 0.4000767
0.6175313 0.5107104 0.4386868
0.7415829 0.5549900 0.5206757
0.8663732 0.6425647 0.6322422
0.9913271 0.7564496 0.7539754
0.3826317 0.6165369 0.4295468
0.3851373 0.6165452 0.4296268
0.3956757 0.6165829 0.4299900
0.4316248 0.6167544 0.4316248
0.5107104 0.6175313 0.4386868
0.6209802 0.6209802 0.4648778
0.7423613 0.6350878 0.5313566
0.8665452 0.6796268 0.6351373
0.9913649 0.7674393 0.7546457
0.5040645 0.7413631 0.5174117
0.5046457 0.7413649 0.5174393
0.5072422 0.7413732 0.5175647
0.5181334 0.7414110 0.5181334
0.5549900 0.7415829 0.5206757
0.6350878 0.7423613 0.5313566
0.7458173 0.7458173 0.5676739
0.8673240 0.7599505 0.6471731
0.9915369 0.8045468 0.7576317
0.6282603 0.8663249 0.6314112
0.6283895 0.8663253 0.6314181
0.6289754 0.8663271 0.6314496
0.6315928 0.8663354 0.6315928
0.6425647 0.8663732 0.6322422
0.6796268 0.8665452 0.6351373
0.7599505 0.8673240 0.6471731
0.8707815 0.8707815 0.6868811
0.9923158 0.8849203 0.7700123
0.7530827 0.9913165 0.7537863
0.7531111 0.9913166 0.7537879
0.7532406 0.9913170 0.7537950
0.7538275 0.9913188 0.7538275
0.7564496 0.9913271 0.7539754
0.7674393 0.9913649 0.7546457
0.8045468 0.9915369 0.7576317
0.8849203 0.9923158 0.7700123
0.9957736 0.9957736 0.8105530
0.2565928 0.2565928 0.4913354
0.2675647 0.2572422 0.4913732
0.3046268 0.2601373 0.4915452
0.3849505 0.2721731 0.4923240
0.4957815 0.3118811 0.4957815
0.6173158 0.3950123 0.5099203
0.7415351 0.5070713 0.5545292
0.8663627 0.6289364 0.6424057
0.9913248 0.7532319 0.7564097
0.2572422 0.2675647 0.4913732
0.2681334 0.2681334 0.4914110
0.3049900 0.2706757 0.4915829
0.3850878 0.2813566 0.4923613
0.4958173 0.3176739 0.4958173
0.6173240 0.3971731 0.5099505
0.7415369 0.5076317 0.5545468
0.8663631 0.6290645 0.6424117
0.9913249 0.7532603 0.7564112
0.2601373 0.3046268 0.4915452
0.2706757 0.3049900 0.4915829
0.3066248 0.3066248 0.4917544
0.3857104 0.3136868 0.4925313
0.4959802 0.3398778 0.4959802
0.6173613 0.4063566 0.5100878
0.7415452 0.5101373 0.5546268
0.8663649 0.6296457 0.6424393
0.9913253 0.7533895 0.7564181
0.2721731 0.3849505 0.4923240
0.2813566 0.3850878 0.4923613
0.3136868 0.3857104 0.4925313
0.3884882 0.3884882 0.4933009
0.4967185 0.4000767 0.4967185
0.6175313 0.4386868 0.5107104
0.7415829 0.5206757 0.5549900
0.8663732 0.6322422 0.6425647
0.9913271 0.7539754 0.7564496
0.3118811 0.4957815 0.4957815
0.3176739 0.4958173 0.4958173
0.3398778 0.4959802 0.4959802
0.4000767 0.4967185 0.4967185
0.5000000 0.5000000 0.5000000
0.6183009 0.5134882 0.5134882
0.7417544 0.5566248 0.5566248
0.8664110 0.6431334 0.6431334
0.9913354 0.7565928 0.7565928
0.3950123 0.6173158 0.5099203
0.3971731 0.6173240 0.5099505
0.4063566 0.6173613 0.5100878
0.4386868 0.6175313 0.5107104
0.5134882 0.6183009 0.5134882
0.6217185 0.6217185 0.5250767
0.7425313 0.6357104 0.5636868
0.8665829 0.6799900 0.6456757
0.9913732 0.7675647 0.7572422
0.5070713 0.7415351 0.5545292
0.5076317 0.7415369 0.5545468
0.5101373 0.7415452 0.5546268
0.5206757 0.7415829 0.5549900
0.5566248 0.7417544 0.5566248
0.6357104 0.7425313 0.5636868
0.7459802 0.7459802 0.5898778
0.8673613 0.7600878 0.6563566
0.9915452 0.8046268 0.7601373
0.6289364 0.8663627 0.6424057
0.6290645 0.8663631 0.6424117
0.6296457 0.8663649 0.6424393
0.6322422 0.8663732 0.6425647
0.6431334 0.8664110 0.6431334
0.6799900 0.8665829 0.6456757
0.7600878 0.8673613 0.6563566
0.8708173 0.8708173 0.6926739
0.9923240 0.8849505 0.7721731
0.7532319 0.9913248 0.7564097
0.7532603 0.9913249 0.7564112
0.7533895 0.9913253 0.7564181
0.7539754 0.9913271 0.7564496
0.7565928 0.9913354 0.7565928
0.7675647 0.9913732 0.7572422
0.8046268 0.9915452 0.7601373
0.8849505 0.9923240 0.7721731
0.9957815 0.9957815 0.8118811
0.3788275 0.3788275 0.6163188
0.3814496 0.3789754 0.6163271
0.3924393 0.3796457 0.6163649
0.4295468 0.3826317 0.6165369
0.5099203 0.3950123 0.6173158
0.6207736 0.4355530 0.6207736
0.7423140 0.5195303 0.6349137
0.8665347 0.6319478 0.6795254
0.9913626 0.7539082 0.7674043
0.3789754 0.3814496 0.6163271
0.3815928 0.3815928 0.6163354
0.3925647 0.3822422 0.6163732
0.4296268 0.3851373 0.6165452
0.5099505 0.3971731 0.6173240
0.6207815 0.4368811 0.6207815
0.7423158 0.5200123 0.6349203
0.8665351 0.6320713 0.6795292
0.9913627 0.7539364 0.7674057
0.3796457 0.3924393 0.6163649
0.3822422 0.3925647 0.6163732
0.3931334 0.3931334 0.6164110
0.4299900 0.3956757 0.6165829
0.5100878 0.4063566 0.6173613
0.6208173 0.4426739 0.6208173
0.7423240 0.5221731 0.6349505
0.8665369 0.6326317 0.6795468
0.9913631 0.7540645 0.7674117
0.3826317 0.4295468 0.6165369
0.3851373 0.4296268 0.6165452
0.3956757 0.4299900 0.6165829
0.4316248 0.4316248 0.6167544
0.5107104 0.4386868 0.6175313
0.6209802 0.4648778 0.6209802
0.7423613 0.5313566 0.6350878
0.8665452 0.6351373 0.6796268
0.9913649 0.7546457 0.7674393
0.3950123 0.5099203 0.6173158
0.3971731 0.5099505 0.6173240
0.4063566 0.5100878 0.6173613
0.4386868 0.5107104 0.6175313
0.5134882 0.5134882 0.6183009
0.6217185 0.5250767 0.6217185
0.7425313 0.5636868 0.6357104
0.8665829 0.6456757 0.6799900
0.9913732 0.7572422 0.7675647
0.4355530 0.6207736 0.6207736
0.4368811 0.6207815 0.6207815
0.4426739 0.6208173 0.6208173
0.4648778 0.6209802 0.6209802
0.5250767 0.6217185 0.6217185
0.6250000 0.6250000 0.6250000
0.7433009 0.6384882 0.6384882
0.8667544 0.6816248 0.6816248
0.9914110 0.7681334 0.7681334
0.5195303 0.7423140 0.6349137
0.5200123 0.7423158 0.6349203
0.5221731 0.7423240 0.6349505
0.5313566 0.7423613 0.6350878
0.5636868 0.7425313 0.6357104
0.6384882 0.7433009 0.6384882
0.7467185 0.7467185 0.6500767
0.8675313 0.7607104 0.6886868
0.9915829 0.8049900 0.7706757
0.6319478 0.8665347 0.6795254
0.6320713 0.8665351 0.6795292
0.6326317 0.8665369 0.6795468
0.6351373 0.8665452 0.6796268
0.6456757 0.8665829 0.6799900
0.6816248 0.8667544 0.6816248
0.7607104 0.8675313 0.6886868
0.8709802 0.8709802 0.7148778
0.9923613 0.8850878 0.7813566
0.7539082 0.9913626 0.7674043
0.7539364 0.9913627 0.7674057
0.7540645 0.9913631 0.7674117
0.7546457 0.9913649 0.7674393
0.7572422 0.9913732 0.7675647
0.7681334 0.9914110 0.7681334
0.8049900 0.9915829 0.7706757
0.8850878 0.9923613 0.7813566
0.9958173 0.9958173 0.8176739
0.5032078 0.5032078 0.7413151
0.5037950 0.5032406 0.7413170
0.5064181 0.5033895 0.7413253
0.5174117 0.5040645 0.7413631
0.5545292 0.5070713 0.7415351
0.6349137 0.5195303 0.7423140
0.7457719 0.5602585 0.7457719
0.8673136 0.6444241 0.7599122
0.9915346 0.7569207 0.8045245
0.5032406 0.5037950 0.7413170
0.5038275 0.5038275 0.7413188
0.5064496 0.5039754 0.7413271
0.5174393 0.5046457 0.7413649
0.5545468 0.5076317 0.7415369
0.6349203 0.5200123 0.7423158
0.7457736 0.5605530 0.7457736
0.8673140 0.6445303 0.7599137
0.9915347 0.7569478 0.8045254
0.5033895 0.5064181 0.7413253
0.5039754 0.5064496 0.7413271
0.5065928 0.5065928 0.7413354
0.5175647 0.5072422 0.7413732
0.5546268 0.5101373 0.7415452
0.6349505 0.5221731 0.7423240
0.7457815 0.5618811 0.7457815
0.8673158 0.6450123 0.7599203
0.9915351 0.7570713 0.8045292
0.5040645 0.5174117 0.7413631
0.5046457 0.5174393 0.7413649
0.5072422 0.5175647 0.7413732
0.5181334 0.5181334 0.7414110
0.5549900 0.5206757 0.7415829
0.6350878 0.5313566 0.7423613
0.7458173 0.5676739 0.7458173
0.8673240 0.6471731 0.7599505
0.9915369 0.7576317 0.8045468
0.5070713 0.5545292 0.7415351
0.5076317 0.5545468 0.7415369
0.5101373 0.5546268 0.7415452
0.5206757 0.5549900 0.7415829
0.5566248 0.5566248 0.7417544
0.6357104 0.5636868 0.7425313
0.7459802 0.5898778 0.7459802
0.8673613 0.6563566 0.7600878
0.9915452 0.7601373 0.8046268
0.5195303 0.6349137 0.7423140
0.5200123 0.6349203 0.7423158
0.5221731 0.6349505 0.7423240
0.5313566 0.6350878 0.7423613
0.5636868 0.6357104 0.7425313
0.6384882 0.6384882 0.7433009
0.7467185 0.6500767 0.7467185
0.8675313 0.6886868 0.7607104
0.9915829 0.7706757 0.8049900
0.5602585 0.7457719 0.7457719
0.5605530 0.7457736 0.7457736
0.5618811 0.7457815 0.7457815
0.5676739 0.7458173 0.7458173
0.5898778 0.7459802 0.7459802
0.6500767 0.7467185 0.7467185
0.7500000 0.7500000 0.7500000
0.8683009 0.7634882 0.7634882
0.9917544 0.8066248 0.8066248
0.6444241 0.8673136 0.7599122
0.6445303 0.8673140 0.7599137
0.6450123 0.8673158 0.7599203
0.6471731 0.8673240 0.7599505
0.6563566 0.8673613 0.7600878
0.6886868 0.8675313 0.7607104
0.7634882 0.8683009 0.7634882
0.8717185 0.8717185 0.7750767
0.9925313 0.8857104 0.8136868
0.7569207 0.9915346 0.8045245
0.7569478 0.9915347 0.8045254
0.7570713 0.9915351 0.8045292
0.7576317 0.9915369 0.8045468
0.7601373 0.9915452 0.8046268
0.7706757 0.9915829 0.8049900
0.8066248 0.9917544 0.8066248
0.8857104 0.9925313 0.8136868
0.9959802 0.9959802 0.8398778
0.6280712 0.6280712 0.8663143
0.6282006 0.6280784 0.8663147
0.6287879 0.6281111 0.8663166
0.6314112 0.6282603 0.8663249
0.6424057 0.6289364 0.8663627
0.6795254 0.6319478 0.8665347
0.7599122 0.6444241 0.8673136
0.8707715 0.6851938 0.8707715
0.9923135 0.7694008 0.8849119
0.6280784 0.6282006 0.8663147
0.6282078 0.6282078 0.8663151
0.6287950 0.6282406 0.8663170
0.6314181 0.6283895 0.8663253
0.6424117 0.6290645 0.8663631
0.6795292 0.6320713 0.8665351
0.7599137 0.6445303 0.8673140
0.8707719 0.6852585 0.8707719
0.9923136 0.7694241 0.8849122
0.6281111 0.6287879 0.8663166
0.6282406 0.6287950 0.8663170
0.6288275 0.6288275 0.8663188
0.6314496 0.6289754 0.8663271
0.6424393 0.6296457 0.8663649
0.6795468 0.6326317 0.8665369
0.7599203 0.6450123 0.8673158
0.8707736 0.6855530 0.8707736
0.9923140 0.7695303 0.8849137
0.6282603 0.6314112 0.8663249
0.6283895 0.6314181 0.8663253
0.6289754 0.6314496 0.8663271
0.6315928 0.6315928 0.8663354
0.6425647 0.6322422 0.8663732
0.6796268 0.6351373 0.8665452
0.7599505 0.6471731 0.8673240
0.8707815 0.6868811 0.8707815
0.9923158 0.7700123 0.8849203
0.6289364 0.6424057 0.8663627
0.6290645 0.6424117 0.8663631
0.6296457 0.6424393 0.8663649
0.6322422 0.6425647 0.8663732
0.6431334 0.6431334 0.8664110
0.6799900 0.6456757 0.8665829
0.7600878 0.6563566 0.8673613
0.8708173 0.6926739 0.8708173
0.9923240 0.7721731 0.8849505
0.6319478 0.6795254 0.8665347
0.6320713 0.6795292 0.8665351
0.6326317 0.6795468 0.8665369
0.6351373 0.6796268 0.8665452
0.6456757 0.6799900 0.8665829
0.6816248 0.6816248 0.8667544
0.7607104 0.6886868 0.8675313
0.8709802 0.7148778 0.8709802
0.9923613 0.7813566 0.8850878
0.6444241 0.7599122 0.8673136
0.6445303 0.7599137 0.8673140
0.6450123 0.7599203 0.8673158
0.6471731 0.7599505 0.8673240
0.6563566 0.7600878 0.8673613
0.6886868 0.7607104 0.8675313
0.7634882 0.7634882 0.8683009
0.8717185 0.7750767 0.8717185
0.9925313 0.8136868 0.8857104
0.6851938 0.8707715 0.8707715
0.6852585 0.8707719 0.8707719
0.6855530 0.8707736 0.8707736
0.6868811 0.8707815 0.8707815
0.6926739 0.8708173 0.8708173
0.7148778 0.8709802 0.8709802
0.7750767 0.8717185 0.8717185
0.8750000 0.8750000 0.8750000
0.9933009 0.8884882 0.8884882
0.7694008 0.9923135 0.8849119
0.7694241 0.9923136 0.8849122
0.7695303 0.9923140 0.8849137
0.7700123 0.9923158 0.8849203
0.7721731 0.9923240 0.8849505
0.7813566 0.9923613 0.8850878
0.8136868 0.9925313 0.8857104
0.8884882 0.9933009 0.8884882
0.9967185 0.9967185 0.9000767
0.7530411 0.7530411 0.9913142
0.7530696 0.7530427 0.9913142
0.7531991 0.7530499 0.9913146
0.7537863 0.7530827 0.9913165
0.7564097 0.7532319 0.9913248
0.7674043 0.7539082 0.9913626
0.8045245 0.7569207 0.9915346
0.8849119 0.7694008 0.9923135
0.9957714 0.8101795 0.9957714
0.7530427 0.7530696 0.9913142
0.7530712 0.7530712 0.9913143
0.7532006 0.7530784 0.9913147
0.7537879 0.7531111 0.9913166
0.7564112 0.7532603 0.9913249
0.7674057 0.7539364 0.9913627
0.8045254 0.7569478 0.9915347
0.8849122 0.7694241 0.9923136
0.9957715 0.8101938 0.9957715
0.7530499 0.7531991 0.9913146
0.7530784 0.7532006 0.9913147
0.7532078 0.7532078 0.9913151
0.7537950 0.7532406 0.9913170
0.7564181 0.7533895 0.9913253
0.7674117 0.7540645 0.9913631
0.8045292 0.7570713 0.9915351
0.8849137 0.7695303 0.9923140
0.9957719 0.8102585 0.9957719
0.7530827 0.7537863 0.9913165
0.7531111 0.7537879 0.9913166
0.7532406 0.7537950 0.9913170
0.7538275 0.7538275 0.9913188
0.7564496 0.7539754 0.9913271
0.7674393 0.7546457 0.9913649
0.8045468 0.7576317 0.9915369
0.8849203 0.7700123 0.9923158
0.9957736 0.8105530 0.9957736
0.7532319 0.7564097 0.9913248
0.7532603 0.7564112 0.9913249
0.7533895 0.7564181 0.9913253
0.7539754 0.7564496 0.9913271
0.7565928 0.7565928 0.9913354
0.7675647 0.7572422 0.9913732
0.8046268 0.7601373 0.9915452
0.8849505 0.7721731 0.9923240
0.9957815 0.8118811 0.9957815
0.7539082 0.7674043 0.9913626
0.7539364 0.7674057 0.9913627
0.7540645 0.7674117 0.9913631
0.7546457 0.7674393 0.9913649
0.7572422 0.7675647 0.9913732
0.7681334 0.7681334 0.9914110
0.8049900 0.7706757 0.9915829
0.8850878 0.7813566 0.9923613
0.9958173 0.8176739 0.9958173
0.7569207 0.8045245 0.9915346
0.7569478 0.8045254 0.9915347
0.7570713 0.8045292 0.9915351
0.7576317 0.8045468 0.9915369
0.7601373 0.8046268 0.9915452
0.7706757 0.8049900 0.9915829
0.8066248 0.8066248 0.9917544
0.8857104 0.8136868 0.9925313
0.9959802 0.8398778 0.9959802
0.7694008 0.8849119 0.9923135
0.7694241 0.8849122 0.9923136
0.7695303 0.8849137 0.9923140
0.7700123 0.8849203 0.9923158
0.7721731 0.8849505 0.9923240
0.7813566 0.8850878 0.9923613
0.8136868 0.8857104 0.9925313
0.8884882 0.8884882 0.9933009
0.9967185 0.9000767 0.9967185
0.8101795 0.9957714 0.9957714
0.8101938 0.9957715 0.9957715
0.8102585 0.9957719 0.9957719
0.8105530 0.9957736 0.9957736
0.8118811 0.9957815 0.9957815
0.8176739 0.9958173 0.9958173
0.8398778 0.9959802 0.9959802
0.9000767 0.9967185 0.9967185
1.0000000 1.0000000 1.0000000
