LUTs/moment_spherical_compression.cube
TITLE "Moment Compression v1m= 0.97 sim=0.94 ITU-R BT.2020 I-ESpherical Chroma Compression v1s=0.9 sis=0.85"
# Compress chroma in two ways. In the moment plane and spherically. Resolution 45
# Reduces the purity in the moment plane relative to the color space ITU-R BT.2020 and illuminant E
# At a purity of 1.0, the compression is 3.0%.
# Very high purities are compressed by 6.0%.
# At a radius of 1.0, the compression is 10.0%.
# Very high radii are compressed by 15.0%.
LUT_3D_SIZE 5
0.0000000 0.0000000 0.0000000
0.2498857 0.0093606 0.0093606
0.4955528 0.3500010 0.3500010
0.7449391 0.6058833 0.6058833
0.9949333 0.8559354 0.8559354
0.0093606 0.2498857 0.0093606
0.2499429 0.2499429 0.0171926
0.4955669 0.3551518 0.3502511
0.7449392 0.6059095 0.6058847
0.9949333 0.8559356 0.8559354
0.3500010 0.4955528 0.3500010
0.3551518 0.4955669 0.3502511
0.4978278 0.4978278 0.3833178
0.7449538 0.6104471 0.6061480
0.9949333 0.8559618 0.8559369
0.6058833 0.7449391 0.6058833
0.6059095 0.7449392 0.6058847
0.6104471 0.7449538 0.6061480
0.7475361 0.7475361 0.6392165
0.9949480 0.8604943 0.8562004
0.8559354 0.9949333 0.8559354
0.8559356 0.9949333 0.8559354
0.8559618 0.9949333 0.8559369
0.8604943 0.9949480 0.8562004
0.9975333 0.9975333 0.8892688
0.0093606 0.0093606 0.2498857
0.2499429 0.0171926 0.2499429
0.4955669 0.3502511 0.3551518
0.7449392 0.6058847 0.6059095
0.9949333 0.8559354 0.8559356
0.0171926 0.2499429 0.2499429
0.2500000 0.2500000 0.2500000
0.4955810 0.3553765 0.3553765
0.7449392 0.6059110 0.6059110
0.9949333 0.8559356 0.8559356
0.3502511 0.4955669 0.3551518
0.3553765 0.4955810 0.3553765
0.4978412 0.4978412 0.3859441
0.7449539 0.6104484 0.6061742
0.9949333 0.8559618 0.8559370
0.6058847 0.7449392 0.6059095
0.6059110 0.7449392 0.6059110
0.6104484 0.7449539 0.6061742
0.7475362 0.7475362 0.6392297
0.9949480 0.8604943 0.8562005
0.8559354 0.9949333 0.8559356
0.8559356 0.9949333 0.8559356
0.8559618 0.9949333 0.8559370
0.8604943 0.9949480 0.8562005
0.9975333 0.9975333 0.8892688
0.3500010 0.3500010 0.4955528
0.3551518 0.3502511 0.4955669
0.4978278 0.3833178 0.4978278
0.7449538 0.6061480 0.6104471
0.9949333 0.8559369 0.8559618
0.3502511 0.3551518 0.4955669
0.3553765 0.3553765 0.4955810
0.4978412 0.3859441 0.4978412
0.7449539 0.6061742 0.6104484
0.9949333 0.8559370 0.8559618
0.3833178 0.4978278 0.4978278
0.3859441 0.4978412 0.4978412
0.5000000 0.5000000 0.5000000
0.7449686 0.6106880 0.6106880
0.9949334 0.8559633 0.8559633
0.6061480 0.7449538 0.6104471
0.6061742 0.7449539 0.6104484
0.6106880 0.7449686 0.6106880
0.7475501 0.7475501 0.6415523
0.9949481 0.8604956 0.8562266
0.8559369 0.9949333 0.8559618
0.8559370 0.9949333 0.8559618
0.8559633 0.9949334 0.8559633
0.8604956 0.9949481 0.8562266
0.9975334 0.9975334 0.8892820
0.6058833 0.6058833 0.7449391
0.6059095 0.6058847 0.7449392
0.6104471 0.6061480 0.7449538
0.7475361 0.6392165 0.7475361
0.9949480 0.8562004 0.8604943
0.6058847 0.6059095 0.7449392
0.6059110 0.6059110 0.7449392
0.6104484 0.6061742 0.7449539
0.7475362 0.6392297 0.7475362
0.9949480 0.8562005 0.8604943
0.6061480 0.6104471 0.7449538
0.6061742 0.6104484 0.7449539
0.6106880 0.6106880 0.7449686
0.7475501 0.6415523 0.7475501
0.9949481 0.8562266 0.8604956
0.6392165 0.7475361 0.7475361
0.6392297 0.7475362 0.7475362
0.6415523 0.7475501 0.7475501
0.7500000 0.7500000 0.7500000
0.9949628 0.8607353 0.8607353
0.8562004 0.9949480 0.8604943
0.8562005 0.9949480 0.8604943
0.8562266 0.9949481 0.8604956
0.8607353 0.9949628 0.8607353
0.9975473 0.9975473 0.8916022
0.8559354 0.8559354 0.9949333
0.8559356 0.8559354 0.9949333
0.8559618 0.8559369 0.9949333
0.8604943 0.8562004 0.9949480
0.9975333 0.8892688 0.9975333
0.8559354 0.8559356 0.9949333
0.8559356 0.8559356 0.9949333
0.8559618 0.8559370 0.9949333
0.8604943 0.8562005 0.9949480
0.9975333 0.8892688 0.9975333
0.8559369 0.8559618 0.9949333
0.8559370 0.8559618 0.9949333
0.8559633 0.8559633 0.9949334
0.8604956 0.8562266 0.9949481
0.9975334 0.8892820 0.9975334
0.8562004 0.8604943 0.9949480
0.8562005 0.8604943 0.9949480
0.8562266 0.8604956 0.9949481
0.8607353 0.8607353 0.9949628
0.9975473 0.8916022 0.9975473
0.8892688 0.9975333 0.9975333
0.8892688 0.9975333 0.9975333
0.8892820 0.9975334 0.9975334
0.8916022 0.9975473 0.9975473
1.0000000 1.0000000 1.0000000
