LUTs/moment_spherical_compression.cube
TITLE "Moment Compression v1m= 0.97 sim=0.94 ITU-R BT.2020 I-ESpherical Chroma Compression v1s=0.9 sis=0.85"
# Compress chroma in two ways. In the moment plane and spherically. Resolution 45
# Reduces the purity in the moment plane relative to the color space ITU-R BT.2020 and illuminant E
# At a purity of 1.0, the compression is 3.0%.
# Very high purities are compressed by 6.0%.
# At a radius of 1.0, the compression is 10.0%.
# Very high radii are compressed by 15.0%.
LUT_3D_SIZE 45
0.0000000 0.0000000 0.0000000
0.0227273 0.0000000 0.0000000
0.0454545 0.0000000 0.0000000
0.0681818 0.0000000 0.0000000
0.0909091 0.0000000 0.0000000
0.1136364 0.0000000 0.0000000
0.1363636 0.0000003 0.0000003
0.1590905 0.0000053 0.0000053
0.1818156 0.0000567 0.0000567
0.2045335 0.0004198 0.0004198
0.2272311 0.0022898 0.0022898
0.2498857 0.0093606 0.0093606
0.2724673 0.0278066 0.0278066
0.2949487 0.0593750 0.0593750
0.3173173 0.0978892 0.0978892
0.3395833 0.1370845 0.1370845
0.3617783 0.1742175 0.1742175
0.3839467 0.2086434 0.2086434
0.4061333 0.2405036 0.2405036
0.4283733 0.2701740 0.2701740
0.4506874 0.2980680 0.2980680
0.4730819 0.3245677 0.3245677
0.4955528 0.3500010 0.3500010
0.5180897 0.3746375 0.3746375
0.5406798 0.3986908 0.3986908
0.5633108 0.4223261 0.4223261
0.5859719 0.4456669 0.4456669
0.6086545 0.4688039 0.4688039
0.6313520 0.4918020 0.4918020
0.6540597 0.5147065 0.5147065
0.6767742 0.5375490 0.5375490
0.6994932 0.5603506 0.5603506
0.7222152 0.5831255 0.5831255
0.7449391 0.6058833 0.6058833
0.7676642 0.6286299 0.6286299
0.7903901 0.6513694 0.6513694
0.8131165 0.6741044 0.6741044
0.8358432 0.6968366 0.6968366
0.8585702 0.7195669 0.7195669
0.8812972 0.7422961 0.7422961
0.9040244 0.7650246 0.7650246
0.9267516 0.7877526 0.7877526
0.9494788 0.8104804 0.8104804
0.9722060 0.8332080 0.8332080
0.9949333 0.8559354 0.8559354
0.0000000 0.0227273 0.0000000
0.0227273 0.0227273 0.0000000
0.0454545 0.0227273 0.0000000
0.0681818 0.0227273 0.0000000
0.0909091 0.0227273 0.0000000
0.1136364 0.0227273 0.0000000
0.1363636 0.0227274 0.0000003
0.1590905 0.0227303 0.0000051
0.1818157 0.0227608 0.0000561
0.2045337 0.0229817 0.0004182
0.2272315 0.0241433 0.0022877
0.2498862 0.0287165 0.0093619
0.2724680 0.0417491 0.0278165
0.2949494 0.0670629 0.0593916
0.3173180 0.1014632 0.0979061
0.3395839 0.1386826 0.1370983
0.3617788 0.1749539 0.1742277
0.3839470 0.2090006 0.2086505
0.4061335 0.2406861 0.2405084
0.4283735 0.2702716 0.2701771
0.4506875 0.2981223 0.2980701
0.4730820 0.3245988 0.3245690
0.4955529 0.3500193 0.3500019
0.5180897 0.3746483 0.3746380
0.5406798 0.3986974 0.3986912
0.5633108 0.4223301 0.4223263
0.5859719 0.4456694 0.4456670
0.6086545 0.4688055 0.4688040
0.6313520 0.4918029 0.4918020
0.6540597 0.5147071 0.5147066
0.6767742 0.5375494 0.5375490
0.6994932 0.5603508 0.5603506
0.7222152 0.5831257 0.5831256
0.7449391 0.6058833 0.6058833
0.7676642 0.6286299 0.6286299
0.7903901 0.6513694 0.6513694
0.8131165 0.6741045 0.6741044
0.8358432 0.6968366 0.6968366
0.8585702 0.7195669 0.7195669
0.8812972 0.7422961 0.7422961
0.9040244 0.7650246 0.7650246
0.9267516 0.7877526 0.7877526
0.9494788 0.8104804 0.8104804
0.9722060 0.8332080 0.8332080
0.9949333 0.8559354 0.8559354
0.0000000 0.0454545 0.0000000
0.0227273 0.0454545 0.0000000
0.0454545 0.0454545 0.0000000
0.0681818 0.0454545 0.0000000
0.0909091 0.0454545 0.0000000
0.1136364 0.0454545 0.0000000
0.1363636 0.0454546 0.0000003
0.1590906 0.0454561 0.0000049
0.1818158 0.0454737 0.0000552
0.2045340 0.0456058 0.0004157
0.2272321 0.0463181 0.0022845
0.2498871 0.0492163 0.0093639
0.2724691 0.0580587 0.0278323
0.2949506 0.0772913 0.0594182
0.3173192 0.1066936 0.0979332
0.3395849 0.1411401 0.1371205
0.3617795 0.1761121 0.1742440
0.3839476 0.2095680 0.2086619
0.4061340 0.2409773 0.2405160
0.4283738 0.2704278 0.2701822
0.4506877 0.2982092 0.2980733
0.4730821 0.3246486 0.3245711
0.4955530 0.3500485 0.3500032
0.5180898 0.3746658 0.3746388
0.5406799 0.3987080 0.3986917
0.5633109 0.4223366 0.4223266
0.5859719 0.4456734 0.4456673
0.6086545 0.4688079 0.4688041
0.6313520 0.4918044 0.4918021
0.6540597 0.5147081 0.5147066
0.6767742 0.5375500 0.5375491
0.6994932 0.5603512 0.5603506
0.7222152 0.5831259 0.5831256
0.7449391 0.6058835 0.6058833
0.7676642 0.6286300 0.6286299
0.7903901 0.6513695 0.6513694
0.8131165 0.6741045 0.6741044
0.8358432 0.6968366 0.6968366
0.8585702 0.7195670 0.7195669
0.8812972 0.7422961 0.7422961
0.9040244 0.7650246 0.7650246
0.9267516 0.7877527 0.7877526
0.9494788 0.8104804 0.8104804
0.9722060 0.8332080 0.8332080
0.9949333 0.8559354 0.8559354
0.0000000 0.0681818 0.0000000
0.0227273 0.0681818 0.0000000
0.0454545 0.0681818 0.0000000
0.0681818 0.0681818 0.0000000
0.0909091 0.0681818 0.0000000
0.1136364 0.0681818 0.0000000
0.1363636 0.0681818 0.0000002
0.1590906 0.0681826 0.0000046
0.1818160 0.0681922 0.0000538
0.2045345 0.0682690 0.0004119
0.2272330 0.0686983 0.0022792
0.2498885 0.0705018 0.0093671
0.2724708 0.0763043 0.0278575
0.2949525 0.0901801 0.0594606
0.3173210 0.1140515 0.0979766
0.3395864 0.1448376 0.1371559
0.3617808 0.1779137 0.1742701
0.3839485 0.2104646 0.2086801
0.4061346 0.2414410 0.2405283
0.4283742 0.2706773 0.2701903
0.4506880 0.2983483 0.2980786
0.4730823 0.3247285 0.3245745
0.4955531 0.3500954 0.3500054
0.5180898 0.3746938 0.3746402
0.5406799 0.3987250 0.3986926
0.5633109 0.4223469 0.4223272
0.5859720 0.4456797 0.4456676
0.6086545 0.4688118 0.4688044
0.6313520 0.4918069 0.4918022
0.6540597 0.5147096 0.5147067
0.6767742 0.5375509 0.5375491
0.6994932 0.5603518 0.5603507
0.7222152 0.5831263 0.5831256
0.7449391 0.6058837 0.6058833
0.7676642 0.6286302 0.6286299
0.7903901 0.6513696 0.6513694
0.8131165 0.6741045 0.6741044
0.8358432 0.6968367 0.6968366
0.8585702 0.7195670 0.7195669
0.8812972 0.7422962 0.7422961
0.9040244 0.7650246 0.7650246
0.9267516 0.7877527 0.7877526
0.9494788 0.8104804 0.8104804
0.9722060 0.8332080 0.8332080
0.9949333 0.8559354 0.8559354
0.0000000 0.0909091 0.0000000
0.0227273 0.0909091 0.0000000
0.0454545 0.0909091 0.0000000
0.0681818 0.0909091 0.0000000
0.0909091 0.0909091 0.0000000
0.1136364 0.0909091 0.0000000
0.1363636 0.0909091 0.0000002
0.1590907 0.0909094 0.0000043
0.1818162 0.0909142 0.0000517
0.2045352 0.0909568 0.0004060
0.2272345 0.0912089 0.0022710
0.2498907 0.0923092 0.0093721
0.2724736 0.0960118 0.0278975
0.2949555 0.1055704 0.0595283
0.3173239 0.1239128 0.0980459
0.3395889 0.1502327 0.1372127
0.3617828 0.1806700 0.1743120
0.3839500 0.2118688 0.2087094
0.4061357 0.2421755 0.2405481
0.4283749 0.2710749 0.2702033
0.4506884 0.2985706 0.2980871
0.4730826 0.3248563 0.3245800
0.4955533 0.3501705 0.3500089
0.5180900 0.3747387 0.3746424
0.5406800 0.3987521 0.3986940
0.5633109 0.4223635 0.4223281
0.5859720 0.4456899 0.4456681
0.6086545 0.4688181 0.4688047
0.6313520 0.4918108 0.4918025
0.6540597 0.5147120 0.5147068
0.6767742 0.5375524 0.5375492
0.6994932 0.5603527 0.5603507
0.7222152 0.5831269 0.5831256
0.7449391 0.6058841 0.6058833
0.7676642 0.6286304 0.6286299
0.7903901 0.6513697 0.6513694
0.8131165 0.6741046 0.6741044
0.8358432 0.6968367 0.6968366
0.8585702 0.7195670 0.7195669
0.8812972 0.7422962 0.7422961
0.9040244 0.7650246 0.7650246
0.9267516 0.7877527 0.7877526
0.9494788 0.8104804 0.8104804
0.9722060 0.8332080 0.8332080
0.9949333 0.8559354 0.8559354
0.0000000 0.1136364 0.0000000
0.0227273 0.1136364 0.0000000
0.0454545 0.1136364 0.0000000
0.0681818 0.1136364 0.0000000
0.0909091 0.1136364 0.0000000
0.1136364 0.1136364 0.0000000
0.1363636 0.1136364 0.0000002
0.1590907 0.1136364 0.0000040
0.1818165 0.1136385 0.0000493
0.2045362 0.1136602 0.0003976
0.2272366 0.1138020 0.0022586
0.2498942 0.1144559 0.0093799
0.2724780 0.1167581 0.0279609
0.2949604 0.1230858 0.0596360
0.3173285 0.1364353 0.0981566
0.3395929 0.1577933 0.1373036
0.3617859 0.1847860 0.1743791
0.3839524 0.2140391 0.2087562
0.4061373 0.2433309 0.2405797
0.4283761 0.2717059 0.2702242
0.4506892 0.2989251 0.2981007
0.4730831 0.3250606 0.3245887
0.4955536 0.3502908 0.3500144
0.5180902 0.3748107 0.3746459
0.5406801 0.3987957 0.3986962
0.5633110 0.4223902 0.4223295
0.5859720 0.4457063 0.4456690
0.6086546 0.4688283 0.4688052
0.6313521 0.4918171 0.4918028
0.6540597 0.5147159 0.5147071
0.6767742 0.5375548 0.5375493
0.6994932 0.5603542 0.5603508
0.7222152 0.5831278 0.5831257
0.7449391 0.6058847 0.6058833
0.7676642 0.6286308 0.6286299
0.7903901 0.6513700 0.6513694
0.8131165 0.6741048 0.6741044
0.8358432 0.6968368 0.6968366
0.8585702 0.7195671 0.7195669
0.8812972 0.7422962 0.7422961
0.9040244 0.7650247 0.7650246
0.9267516 0.7877527 0.7877526
0.9494788 0.8104804 0.8104804
0.9722060 0.8332080 0.8332080
0.9949333 0.8559354 0.8559354
0.0000003 0.1363636 0.0000003
0.0227274 0.1363636 0.0000003
0.0454546 0.1363636 0.0000003
0.0681818 0.1363636 0.0000002
0.0909091 0.1363636 0.0000002
0.1136364 0.1363636 0.0000002
0.1363636 0.1363636 0.0000006
0.1590908 0.1363636 0.0000047
0.1818169 0.1363642 0.0000482
0.2045375 0.1363736 0.0003886
0.2272397 0.1364476 0.0022426
0.2498993 0.1368208 0.0093936
0.2724849 0.1382114 0.0280611
0.2949680 0.1422559 0.0598070
0.3173359 0.1514981 0.0983329
0.3395993 0.1678816 0.1374486
0.3617910 0.1907315 0.1744864
0.3839562 0.2173283 0.2088312
0.4061400 0.2451283 0.2406304
0.4283779 0.2727011 0.2702577
0.4506904 0.2994884 0.2981225
0.4730839 0.3253865 0.3246027
0.4955541 0.3504830 0.3500234
0.5180905 0.3749259 0.3746516
0.5406803 0.3988655 0.3986998
0.5633111 0.4224329 0.4223317
0.5859721 0.4457326 0.4456704
0.6086546 0.4688445 0.4688061
0.6313521 0.4918271 0.4918033
0.6540597 0.5147222 0.5147074
0.6767742 0.5375587 0.5375495
0.6994932 0.5603566 0.5603509
0.7222152 0.5831293 0.5831258
0.7449391 0.6058856 0.6058834
0.7676642 0.6286313 0.6286300
0.7903901 0.6513703 0.6513695
0.8131165 0.6741050 0.6741045
0.8358432 0.6968369 0.6968366
0.8585702 0.7195672 0.7195669
0.8812972 0.7422963 0.7422961
0.9040244 0.7650247 0.7650246
0.9267516 0.7877527 0.7877526
0.9494788 0.8104804 0.8104804
0.9722060 0.8332080 0.8332080
0.9949333 0.8559354 0.8559354
0.0000053 0.1590905 0.0000053
0.0227303 0.1590905 0.0000051
0.0454561 0.1590906 0.0000049
0.0681826 0.1590906 0.0000046
0.0909094 0.1590907 0.0000043
0.1136364 0.1590907 0.0000040
0.1363636 0.1590908 0.0000047
0.1590907 0.1590907 0.0000106
0.1818171 0.1590906 0.0000563
0.2045389 0.1590934 0.0003903
0.2272438 0.1591267 0.0022335
0.2499069 0.1593254 0.0094241
0.2724954 0.1601325 0.0282212
0.2949799 0.1626300 0.0600771
0.3173475 0.1687487 0.0986125
0.3396095 0.1806327 0.1376795
0.3617992 0.1989585 0.1746576
0.3839622 0.2221761 0.2089512
0.4061443 0.2478783 0.2407116
0.4283808 0.2742559 0.2703114
0.4506923 0.3003784 0.2981574
0.4730852 0.3259048 0.3246252
0.4955549 0.3507899 0.3500377
0.5180910 0.3751101 0.3746607
0.5406806 0.3989773 0.3987055
0.5633113 0.4225013 0.4223353
0.5859722 0.4457747 0.4456727
0.6086547 0.4688705 0.4688075
0.6313521 0.4918432 0.4918042
0.6540598 0.5147322 0.5147080
0.6767742 0.5375649 0.5375499
0.6994932 0.5603605 0.5603511
0.7222152 0.5831317 0.5831259
0.7449391 0.6058871 0.6058835
0.7676642 0.6286323 0.6286300
0.7903901 0.6513709 0.6513695
0.8131165 0.6741054 0.6741045
0.8358432 0.6968372 0.6968366
0.8585702 0.7195673 0.7195670
0.8812972 0.7422964 0.7422961
0.9040244 0.7650248 0.7650246
0.9267516 0.7877527 0.7877527
0.9494788 0.8104804 0.8104804
0.9722060 0.8332080 0.8332080
0.9949333 0.8559354 0.8559354
0.0000567 0.1818156 0.0000567
0.0227608 0.1818157 0.0000561
0.0454737 0.1818158 0.0000552
0.0681922 0.1818160 0.0000538
0.0909142 0.1818162 0.0000517
0.1136385 0.1818165 0.0000493
0.1363642 0.1818169 0.0000482
0.1590906 0.1818171 0.0000563
0.1818169 0.1818169 0.0001133
0.2045399 0.1818167 0.0004569
0.2272484 0.1818272 0.0022899
0.2499172 0.1819197 0.0095189
0.2725109 0.1823586 0.0284881
0.2949982 0.1838380 0.0605039
0.3173658 0.1877233 0.0990538
0.3396256 0.1959031 0.1380458
0.3618121 0.2097778 0.1749304
0.3839719 0.2290577 0.2091427
0.4061512 0.2519858 0.2408414
0.4283855 0.2766496 0.2703974
0.4506955 0.3017726 0.2982134
0.4730872 0.3267247 0.3246612
0.4955562 0.3512780 0.3500607
0.5180918 0.3754041 0.3746753
0.5406812 0.3991561 0.3987147
0.5633117 0.4226108 0.4223411
0.5859725 0.4458421 0.4456763
0.6086548 0.4689122 0.4688098
0.6313522 0.4918691 0.4918056
0.6540598 0.5147482 0.5147088
0.6767743 0.5375749 0.5375504
0.6994933 0.5603667 0.5603515
0.7222152 0.5831356 0.5831261
0.7449391 0.6058895 0.6058836
0.7676642 0.6286338 0.6286301
0.7903901 0.6513718 0.6513695
0.8131165 0.6741059 0.6741045
0.8358432 0.6968375 0.6968366
0.8585702 0.7195675 0.7195670
0.8812972 0.7422965 0.7422962
0.9040244 0.7650248 0.7650246
0.9267516 0.7877528 0.7877527
0.9494788 0.8104805 0.8104804
0.9722060 0.8332080 0.8332080
0.9949333 0.8559355 0.8559354
0.0004198 0.2045335 0.0004198
0.0229817 0.2045337 0.0004182
0.0456058 0.2045340 0.0004157
0.0682690 0.2045345 0.0004119
0.0909568 0.2045352 0.0004060
0.1136602 0.2045362 0.0003976
0.1363736 0.2045375 0.0003886
0.1590934 0.2045389 0.0003903
0.1818167 0.2045399 0.0004569
0.2045395 0.2045395 0.0008359
0.2272520 0.2045397 0.0026745
0.2499293 0.2045713 0.0098875
0.2725323 0.2047825 0.0289941
0.2950254 0.2056061 0.0611888
0.3173940 0.2079645 0.0997479
0.3396510 0.2133266 0.1386237
0.3618327 0.2232490 0.1753631
0.3839875 0.2383807 0.2094478
0.4061622 0.2579205 0.2410487
0.4283931 0.2802570 0.2705349
0.4507004 0.3039281 0.2983030
0.4730904 0.3280115 0.3247189
0.4955583 0.3520509 0.3500975
0.5180931 0.3758720 0.3746986
0.5406820 0.3994415 0.3987294
0.5633122 0.4227860 0.4223503
0.5859728 0.4459502 0.4456821
0.6086550 0.4689791 0.4688134
0.6313523 0.4919106 0.4918079
0.6540599 0.5147740 0.5147103
0.6767743 0.5375910 0.5375513
0.6994933 0.5603767 0.5603520
0.7222152 0.5831418 0.5831264
0.7449391 0.6058934 0.6058838
0.7676642 0.6286362 0.6286302
0.7903901 0.6513733 0.6513696
0.8131165 0.6741069 0.6741046
0.8358432 0.6968381 0.6968367
0.8585702 0.7195679 0.7195670
0.8812972 0.7422967 0.7422962
0.9040244 0.7650250 0.7650246
0.9267516 0.7877529 0.7877527
0.9494788 0.8104805 0.8104804
0.9722060 0.8332081 0.8332080
0.9949333 0.8559355 0.8559354
0.0022898 0.2272311 0.0022898
0.0241433 0.2272315 0.0022877
0.0463181 0.2272321 0.0022845
0.0686983 0.2272330 0.0022792
0.0912089 0.2272345 0.0022710
0.1138020 0.2272366 0.0022586
0.1364476 0.2272397 0.0022426
0.1591267 0.2272438 0.0022335
0.1818272 0.2272484 0.0022899
0.2045397 0.2272520 0.0026745
0.2272519 0.2272519 0.0044754
0.2499395 0.2272557 0.0114076
0.2725585 0.2273337 0.0302144
0.2950639 0.2277439 0.0623576
0.3174366 0.2290913 0.1008428
0.3396905 0.2324373 0.1395298
0.3618653 0.2391587 0.1760454
0.3840121 0.2503571 0.2099317
0.4061799 0.2661350 0.2413790
0.4284051 0.2855325 0.2707545
0.4507084 0.3071961 0.2984464
0.4730956 0.3300065 0.3248114
0.4955616 0.3532654 0.3501566
0.5180952 0.3766133 0.3747360
0.5406833 0.3998959 0.3987530
0.5633130 0.4230656 0.4223652
0.5859733 0.4461229 0.4456914
0.6086554 0.4690861 0.4688193
0.6313525 0.4919770 0.4918116
0.6540600 0.5148153 0.5147125
0.6767744 0.5376166 0.5375527
0.6994933 0.5603927 0.5603529
0.7222153 0.5831518 0.5831270
0.7449391 0.6058996 0.6058842
0.7676642 0.6286401 0.6286304
0.7903901 0.6513758 0.6513698
0.8131165 0.6741084 0.6741046
0.8358432 0.6968391 0.6968367
0.8585702 0.7195685 0.7195670
0.8812972 0.7422971 0.7422962
0.9040244 0.7650252 0.7650246
0.9267516 0.7877530 0.7877527
0.9494788 0.8104806 0.8104804
0.9722060 0.8332081 0.8332080
0.9949333 0.8559355 0.8559354
0.0093606 0.2498857 0.0093606
0.0287165 0.2498862 0.0093619
0.0492163 0.2498871 0.0093639
0.0705018 0.2498885 0.0093671
0.0923092 0.2498907 0.0093721
0.1144559 0.2498942 0.0093799
0.1368208 0.2498993 0.0093936
0.1593254 0.2499069 0.0094241
0.1819197 0.2499172 0.0095189
0.2045713 0.2499293 0.0098875
0.2272557 0.2499395 0.0114076
0.2499429 0.2499429 0.0171926
0.2725828 0.2499590 0.0339357
0.2951127 0.2501224 0.0646875
0.3174977 0.2508181 0.1026242
0.3397506 0.2527840 0.1409463
0.3619162 0.2571012 0.1771136
0.3840512 0.2649255 0.2106948
0.4062080 0.2769417 0.2419028
0.4284244 0.2929468 0.2711042
0.4507213 0.3120151 0.2986755
0.4731039 0.3330434 0.3249593
0.4955669 0.3551518 0.3502511
0.5180986 0.3777790 0.3747960
0.5406854 0.4006159 0.3987909
0.5633144 0.4235109 0.4223890
0.5859741 0.4463988 0.4457064
0.6086559 0.4692573 0.4688286
0.6313529 0.4920834 0.4918174
0.6540602 0.5148815 0.5147162
0.6767745 0.5376578 0.5375550
0.6994934 0.5604183 0.5603543
0.7222153 0.5831677 0.5831279
0.7449392 0.6059095 0.6058847
0.7676642 0.6286463 0.6286308
0.7903901 0.6513796 0.6513700
0.8131165 0.6741108 0.6741048
0.8358433 0.6968406 0.6968368
0.8585702 0.7195694 0.7195671
0.8812972 0.7422977 0.7422962
0.9040244 0.7650256 0.7650247
0.9267516 0.7877532 0.7877527
0.9494788 0.8104808 0.8104804
0.9722060 0.8332082 0.8332080
0.9949333 0.8559356 0.8559354
0.0278066 0.2724673 0.0278066
0.0417491 0.2724680 0.0278165
0.0580587 0.2724691 0.0278323
0.0763043 0.2724708 0.0278575
0.0960118 0.2724736 0.0278975
0.1167581 0.2724780 0.0279609
0.1382114 0.2724849 0.0280611
0.1601325 0.2724954 0.0282212
0.1823586 0.2725109 0.0284881
0.2047825 0.2725323 0.0289941
0.2273337 0.2725585 0.0302144
0.2499590 0.2725828 0.0339357
0.2725974 0.2725974 0.0453123
0.2951621 0.2726440 0.0704442
0.3175777 0.2729419 0.1058235
0.3398382 0.2739952 0.1431902
0.3619942 0.2766064 0.1787742
0.3841126 0.2817754 0.2118881
0.4062526 0.2904025 0.2427287
0.4284552 0.3028732 0.2716591
0.4507418 0.3188605 0.2990403
0.4731173 0.3375472 0.3251955
0.4955754 0.3580315 0.3504023
0.5181040 0.3795920 0.3748921
0.5406889 0.4017489 0.3988516
0.5633165 0.4242167 0.4224272
0.5859755 0.4468381 0.4457303
0.6086567 0.4695306 0.4688436
0.6313534 0.4922535 0.4918268
0.6540606 0.5149874 0.5147220
0.6767747 0.5377238 0.5375587
0.6994936 0.5604595 0.5603566
0.7222154 0.5831934 0.5831293
0.7449392 0.6059255 0.6058856
0.7676643 0.6286562 0.6286313
0.7903902 0.6513858 0.6513703
0.8131165 0.6741147 0.6741050
0.8358433 0.6968430 0.6968369
0.8585702 0.7195709 0.7195672
0.8812972 0.7422986 0.7422963
0.9040244 0.7650262 0.7650247
0.9267516 0.7877536 0.7877527
0.9494788 0.8104810 0.8104804
0.9722060 0.8332083 0.8332080
0.9949333 0.8559357 0.8559354
0.0593750 0.2949487 0.0593750
0.0670629 0.2949494 0.0593916
0.0772913 0.2949506 0.0594182
0.0901801 0.2949525 0.0594606
0.1055704 0.2949555 0.0595283
0.1230858 0.2949604 0.0596360
0.1422559 0.2949680 0.0598070
0.1626300 0.2949799 0.0600771
0.1838380 0.2949982 0.0605039
0.2056061 0.2950254 0.0611888
0.2277439 0.2950639 0.0623576
0.2501224 0.2951127 0.0646875
0.2726440 0.2951621 0.0704442
0.2952023 0.2952023 0.0851487
0.3176654 0.2953073 0.1126475
0.3399565 0.2957904 0.1469704
0.3621099 0.2972423 0.1813623
0.3842075 0.3004590 0.2137369
0.4063230 0.3063065 0.2440195
0.4285042 0.3154647 0.2725339
0.4507745 0.3281420 0.2996191
0.4731386 0.3439929 0.3255717
0.4955891 0.3623186 0.3506439
0.5181127 0.3823648 0.3750458
0.5406943 0.4035124 0.3989487
0.5633199 0.4253278 0.4224883
0.5859776 0.4475344 0.4457687
0.6086581 0.4699659 0.4688676
0.6313542 0.4925252 0.4918418
0.6540611 0.5151569 0.5147314
0.6767751 0.5378295 0.5375645
0.6994938 0.5605253 0.5603603
0.7222155 0.5832344 0.5831316
0.7449393 0.6059511 0.6058870
0.7676643 0.6286722 0.6286322
0.7903902 0.6513958 0.6513709
0.8131166 0.6741209 0.6741053
0.8358433 0.6968468 0.6968372
0.8585702 0.7195733 0.7195673
0.8812972 0.7423001 0.7422964
0.9040244 0.7650271 0.7650248
0.9267516 0.7877542 0.7877527
0.9494788 0.8104814 0.8104804
0.9722060 0.8332086 0.8332080
0.9949333 0.8559358 0.8559354
0.0978892 0.3173173 0.0978892
0.1014632 0.3173180 0.0979061
0.1066936 0.3173192 0.0979332
0.1140515 0.3173210 0.0979766
0.1239128 0.3173239 0.0980459
0.1364353 0.3173285 0.0981566
0.1514981 0.3173359 0.0983329
0.1687487 0.3173475 0.0986125
0.1877233 0.3173658 0.0990538
0.2079645 0.3173940 0.0997479
0.2290913 0.3174366 0.1008428
0.2508181 0.3174977 0.1026242
0.2729419 0.3175777 0.1058235
0.2953073 0.3176654 0.1126475
0.3177515 0.3177515 0.1279749
0.3400954 0.3179499 0.1542293
0.3622705 0.3186598 0.1855430
0.3843502 0.3205136 0.2165876
0.4064325 0.3242500 0.2460149
0.4285817 0.3305965 0.2739006
0.4508268 0.3400759 0.3005315
0.4731728 0.3528111 0.3261687
0.4956111 0.3684858 0.3510287
0.5181266 0.3865037 0.3752913
0.5407031 0.4062129 0.3991042
0.5633254 0.4270581 0.4225863
0.5859811 0.4486309 0.4458302
0.6086602 0.4706560 0.4689062
0.6313556 0.4929579 0.4918659
0.6540619 0.5154275 0.5147465
0.6767756 0.5379985 0.5375739
0.6994941 0.5606308 0.5603661
0.7222157 0.5833002 0.5831352
0.7449394 0.6059922 0.6058893
0.7676644 0.6286978 0.6286336
0.7903902 0.6514117 0.6513718
0.8131166 0.6741308 0.6741059
0.8358433 0.6968530 0.6968375
0.8585702 0.7195772 0.7195675
0.8812972 0.7423025 0.7422965
0.9040244 0.7650286 0.7650248
0.9267516 0.7877551 0.7877528
0.9494788 0.8104819 0.8104805
0.9722060 0.8332089 0.8332080
0.9949333 0.8559360 0.8559355
0.1370845 0.3395833 0.1370845
0.1386826 0.3395839 0.1370983
0.1411401 0.3395849 0.1371205
0.1448376 0.3395864 0.1371559
0.1502327 0.3395889 0.1372127
0.1577933 0.3395929 0.1373036
0.1678816 0.3395993 0.1374486
0.1806327 0.3396095 0.1376795
0.1959031 0.3396256 0.1380458
0.2133266 0.3396510 0.1386237
0.2324373 0.3396905 0.1395298
0.2527840 0.3397506 0.1409463
0.2739952 0.3398382 0.1431902
0.2957904 0.3399565 0.1469704
0.3179499 0.3400954 0.1542293
0.3402508 0.3402508 0.1690073
0.3624706 0.3405773 0.1929686
0.3845535 0.3415381 0.2210615
0.4065991 0.3437640 0.2490694
0.4287030 0.3479151 0.2760100
0.4509096 0.3546051 0.3019568
0.4732273 0.3642611 0.3271097
0.4956462 0.3769764 0.3516391
0.5181489 0.3924789 0.3756823
0.5407172 0.4102513 0.3993525
0.5633343 0.4297101 0.4227430
0.5859866 0.4503391 0.4459287
0.6086637 0.4717428 0.4689679
0.6313577 0.4936439 0.4919045
0.6540633 0.5158585 0.5147706
0.6767764 0.5382685 0.5375890
0.6994946 0.5607996 0.5603755
0.7222161 0.5834056 0.5831411
0.7449396 0.6060579 0.6058930
0.7676645 0.6287388 0.6286359
0.7903903 0.6514373 0.6513732
0.8131166 0.6741468 0.6741068
0.8358433 0.6968630 0.6968381
0.8585702 0.7195834 0.7195678
0.8812973 0.7423064 0.7422967
0.9040244 0.7650310 0.7650250
0.9267516 0.7877566 0.7877529
0.9494788 0.8104829 0.8104805
0.9722060 0.8332095 0.8332080
0.9949333 0.8559364 0.8559355
0.1742175 0.3617783 0.1742175
0.1749539 0.3617788 0.1742277
0.1761121 0.3617795 0.1742440
0.1779137 0.3617808 0.1742701
0.1806700 0.3617828 0.1743120
0.1847860 0.3617859 0.1743791
0.1907315 0.3617910 0.1744864
0.1989585 0.3617992 0.1746576
0.2097778 0.3618121 0.1749304
0.2232490 0.3618327 0.1753631
0.2391587 0.3618653 0.1760454
0.2571012 0.3619162 0.1771136
0.2766064 0.3619942 0.1787742
0.2972423 0.3621099 0.1813623
0.3186598 0.3622705 0.1855430
0.3405773 0.3624706 0.1929686
0.3627163 0.3627163 0.2069043
0.3848201 0.3631981 0.2285505
0.4068423 0.3644125 0.2537657
0.4288898 0.3669595 0.2792228
0.4510401 0.3714227 0.3041542
0.4733140 0.3783366 0.3285795
0.4957023 0.3880785 0.3526016
0.5181847 0.4007411 0.3763028
0.5407397 0.4160952 0.3997481
0.5633484 0.4336806 0.4229933
0.5859955 0.4529587 0.4460863
0.6086692 0.4734365 0.4690668
0.6313612 0.4947244 0.4919664
0.6540654 0.5165418 0.5148093
0.6767778 0.5386983 0.5376131
0.6994954 0.5610691 0.5603906
0.7222166 0.5835742 0.5831505
0.7449399 0.6061632 0.6058988
0.7676647 0.6288045 0.6286396
0.7903904 0.6514783 0.6513755
0.8131167 0.6741723 0.6741082
0.8358434 0.6968789 0.6968389
0.8585703 0.7195933 0.7195684
0.8812973 0.7423126 0.7422970
0.9040244 0.7650349 0.7650252
0.9267516 0.7877590 0.7877530
0.9494788 0.8104844 0.8104806
0.9722060 0.8332104 0.8332081
0.9949333 0.8559370 0.8559355
0.2086434 0.3839467 0.2086434
0.2090006 0.3839470 0.2086505
0.2095680 0.3839476 0.2086619
0.2104646 0.3839485 0.2086801
0.2118688 0.3839500 0.2087094
0.2140391 0.3839524 0.2087562
0.2173283 0.3839562 0.2088312
0.2221761 0.3839622 0.2089512
0.2290577 0.3839719 0.2091427
0.2383807 0.3839875 0.2094478
0.2503571 0.3840121 0.2099317
0.2649255 0.3840512 0.2106948
0.2817754 0.3841126 0.2118881
0.3004590 0.3842075 0.2137369
0.3205136 0.3843502 0.2165876
0.3415381 0.3845535 0.2210615
0.3631981 0.3848201 0.2285505
0.3851703 0.3851703 0.2416618
