LUTs/moment_spherical_compression.cube
TITLE "Moment Compression v1m= 0.97 sim=0.94 ITU-R BT.2020 I-ESpherical Chroma Compression v1s=0.9 sis=0.85"
# Compress chroma in two ways. In the moment plane and spherically. Resolution 45
# Reduces the purity in the moment plane relative to the color space ITU-R BT.2020 and illuminant E
# At a purity of 1.0, the compression is 3.0%.
# Very high purities are compressed by 6.0%.
# At a radius of 1.0, the compression is 10.0%.
# Very high radii are compressed by 15.0%.
LUT_3D_SIZE 8
DOMAIN_MIN 0.000000 0.000000 0.000000
DOMAIN_MAX 0.954545 0.954545 0.954545
0.0000000 0.0000000 0.0000000
0.1363636 0.0000003 0.0000003
0.2724673 0.0278066 0.0278066
0.4061333 0.2405036 0.2405036
0.5406798 0.3986908 0.3986908
0.6767742 0.5375490 0.5375490
0.8131165 0.6741044 0.6741044
0.9494788 0.8104804 0.8104804
0.0000003 0.1363636 0.0000003
0.1363636 0.1363636 0.0000006
0.2724849 0.1382114 0.0280611
0.4061400 0.2451283 0.2406304
0.5406803 0.3988655 0.3986998
0.6767742 0.5375587 0.5375495
0.8131165 0.6741050 0.6741045
0.9494788 0.8104804 0.8104804
0.0278066 0.2724673 0.0278066
0.1382114 0.2724849 0.0280611
0.2725974 0.2725974 0.0453123
0.4062526 0.2904025 0.2427287
0.5406889 0.4017489 0.3988516
0.6767747 0.5377238 0.5375587
0.8131165 0.6741147 0.6741050
0.9494788 0.8104810 0.8104804
0.2405036 0.4061333 0.2405036
0.2451283 0.4061400 0.2406304
0.2904025 0.4062526 0.2427287
0.4076348 0.4076348 0.2736748
0.5408336 0.4348861 0.4013652
0.6767834 0.5404536 0.5377140
0.8131170 0.6742791 0.6741141
0.9494788 0.8104907 0.8104810
0.3986908 0.5406798 0.3986908
0.3988655 0.5406803 0.3986998
0.4017489 0.5406889 0.3988516
0.4348861 0.5408336 0.4013652
0.5431264 0.5431264 0.4320181
0.6769306 0.5723317 0.5402857
0.8131257 0.6769974 0.6742697
0.9494793 0.8106550 0.8104901
0.5375490 0.6767742 0.5375490
0.5375587 0.6767742 0.5375495
0.5377238 0.6767747 0.5375587
0.5404536 0.6767834 0.5377140
0.5723317 0.6769306 0.5402857
0.6793623 0.6793623 0.5708820
0.8132730 0.7087800 0.6768464
0.9494880 0.8133726 0.8106457
0.6741044 0.8131165 0.6741044
0.6741050 0.8131165 0.6741045
0.6741147 0.8131165 0.6741050
0.6742791 0.8131170 0.6741141
0.6769974 0.8131257 0.6742697
0.7087800 0.8132730 0.6768464
0.8157158 0.8157158 0.7074377
0.9496353 0.8451491 0.8132227
0.8104804 0.9494788 0.8104804
0.8104804 0.9494788 0.8104804
0.8104810 0.9494788 0.8104804
0.8104907 0.9494788 0.8104810
0.8106550 0.9494793 0.8104901
0.8133726 0.9494880 0.8106457
0.8451491 0.9496353 0.8132227
0.9520788 0.9520788 0.8438137
0.0000003 0.0000003 0.1363636
0.1363636 0.0000006 0.1363636
0.2724849 0.0280611 0.1382114
0.4061400 0.2406304 0.2451283
0.5406803 0.3986998 0.3988655
0.6767742 0.5375495 0.5375587
0.8131165 0.6741045 0.6741050
0.9494788 0.8104804 0.8104804
0.0000006 0.1363636 0.1363636
0.1363636 0.1363636 0.1363636
0.2725028 0.1382349 0.1382349
0.4061467 0.2452434 0.2452434
0.5406808 0.3988744 0.3988744
0.6767743 0.5375592 0.5375592
0.8131165 0.6741050 0.6741050
0.9494788 0.8104804 0.8104804
0.0280611 0.2724849 0.1382114
0.1382349 0.2725028 0.1382349
0.2726152 0.2726152 0.1400360
0.4062594 0.2904470 0.2471517
0.5406894 0.4017573 0.3990257
0.6767748 0.5377244 0.5375684
0.8131165 0.6741147 0.6741056
0.9494788 0.8104810 0.8104805
0.2406304 0.4061400 0.2451283
0.2452434 0.4061467 0.2452434
0.2904470 0.4062594 0.2471517
0.4076413 0.4076413 0.2760106
0.5408341 0.4348903 0.4015305
0.6767834 0.5404541 0.5377236
0.8131171 0.6742791 0.6741147
0.9494788 0.8104907 0.8104810
0.3986998 0.5406803 0.3988655
0.3988744 0.5406808 0.3988744
0.4017573 0.5406894 0.3990257
0.4348903 0.5408341 0.4015305
0.5431269 0.5431269 0.4321053
0.6769306 0.5723320 0.5402949
0.8131257 0.6769975 0.6742703
0.9494793 0.8106550 0.8104901
0.5375495 0.6767742 0.5375587
0.5375592 0.6767743 0.5375592
0.5377244 0.6767748 0.5375684
0.5404541 0.6767834 0.5377236
0.5723320 0.6769306 0.5402949
0.6793623 0.6793623 0.5708869
0.8132730 0.7087801 0.6768470
0.9494880 0.8133726 0.8106457
0.6741045 0.8131165 0.6741050
0.6741050 0.8131165 0.6741050
0.6741147 0.8131165 0.6741056
0.6742791 0.8131171 0.6741147
0.6769975 0.8131257 0.6742703
0.7087801 0.8132730 0.6768470
0.8157158 0.8157158 0.7074380
0.9496353 0.8451491 0.8132228
0.8104804 0.9494788 0.8104804
0.8104804 0.9494788 0.8104804
0.8104810 0.9494788 0.8104805
0.8104907 0.9494788 0.8104810
0.8106550 0.9494793 0.8104901
0.8133726 0.9494880 0.8106457
0.8451491 0.9496353 0.8132228
0.9520788 0.9520788 0.8438137
0.0278066 0.0278066 0.2724673
0.1382114 0.0280611 0.2724849
0.2725974 0.0453123 0.2725974
0.4062526 0.2427287 0.2904025
0.5406889 0.3988516 0.4017489
0.6767747 0.5375587 0.5377238
0.8131165 0.6741050 0.6741147
0.9494788 0.8104804 0.8104810
0.0280611 0.1382114 0.2724849
0.1382349 0.1382349 0.2725028
0.2726152 0.1400360 0.2726152
0.4062594 0.2471517 0.2904470
0.5406894 0.3990257 0.4017573
0.6767748 0.5375684 0.5377244
0.8131165 0.6741056 0.6741147
0.9494788 0.8104805 0.8104810
0.0453123 0.2725974 0.2725974
0.1400360 0.2726152 0.2726152
0.2727273 0.2727273 0.2727273
0.4063738 0.2911908 0.2911908
0.5406979 0.4018997 0.4018997
0.6767753 0.5377334 0.5377334
0.8131166 0.6741152 0.6741152
0.9494788 0.8104810 0.8104810
0.2427287 0.4062526 0.2904025
0.2471517 0.4062594 0.2904470
0.2911908 0.4063738 0.2911908
0.4077515 0.4077515 0.3044994
0.5408426 0.4349618 0.4042624
0.6767839 0.5404627 0.5378882
0.8131171 0.6742796 0.6741244
0.9494788 0.8104907 0.8104816
0.3988516 0.5406889 0.4017489
0.3990257 0.5406894 0.4017573
0.4018997 0.5406979 0.4018997
0.4349618 0.5408426 0.4042624
0.5431350 0.5431350 0.4335659
0.6769311 0.5723364 0.5404508
0.8131257 0.6769980 0.6742799
0.9494793 0.8106550 0.8104907
0.5375587 0.6767747 0.5377238
0.5375684 0.6767748 0.5377244
0.5377334 0.6767753 0.5377334
0.5404627 0.6767839 0.5378882
0.5723364 0.6769311 0.5404508
0.6793628 0.6793628 0.5709695
0.8132731 0.7087803 0.6768561
0.9494880 0.8133727 0.8106463
0.6741050 0.8131165 0.6741147
0.6741056 0.8131165 0.6741147
0.6741152 0.8131166 0.6741152
0.6742796 0.8131171 0.6741244
0.6769980 0.8131257 0.6742799
0.7087803 0.8132731 0.6768561
0.8157159 0.8157159 0.7074429
0.9496353 0.8451491 0.8132233
0.8104804 0.9494788 0.8104810
0.8104805 0.9494788 0.8104810
0.8104810 0.9494788 0.8104810
0.8104907 0.9494788 0.8104816
0.8106550 0.9494793 0.8104907
0.8133727 0.9494880 0.8106463
0.8451491 0.9496353 0.8132233
0.9520788 0.9520788 0.8438140
0.2405036 0.2405036 0.4061333
0.2451283 0.2406304 0.4061400
0.2904025 0.2427287 0.4062526
0.4076348 0.2736748 0.4076348
0.5408336 0.4013652 0.4348861
0.6767834 0.5377140 0.5404536
0.8131170 0.6741141 0.6742791
0.9494788 0.8104810 0.8104907
0.2406304 0.2451283 0.4061400
0.2452434 0.2452434 0.4061467
0.2904470 0.2471517 0.4062594
0.4076413 0.2760106 0.4076413
0.5408341 0.4015305 0.4348903
0.6767834 0.5377236 0.5404541
0.8131171 0.6741147 0.6742791
0.9494788 0.8104810 0.8104907
0.2427287 0.2904025 0.4062526
0.2471517 0.2904470 0.4062594
0.2911908 0.2911908 0.4063738
0.4077515 0.3044994 0.4077515
0.5408426 0.4042624 0.4349618
0.6767839 0.5378882 0.5404627
0.8131171 0.6741244 0.6742796
0.9494788 0.8104816 0.8104907
0.2736748 0.4076348 0.4076348
0.2760106 0.4076413 0.4076413
0.3044994 0.4077515 0.4077515
0.4090909 0.4090909 0.4090909
0.5409875 0.4361620 0.4361620
0.6767926 0.5406089 0.5406089
0.8131176 0.6742887 0.6742887
0.9494788 0.8104912 0.8104912
0.4013652 0.5408336 0.4348861
0.4015305 0.5408341 0.4348903
0.4042624 0.5408426 0.4349618
0.4361620 0.5409875 0.4361620
0.5432729 0.5432729 0.4533779
0.6769398 0.5724118 0.5430341
0.8131262 0.6770066 0.6744438
0.9494793 0.8106556 0.8105004
0.5377140 0.6767834 0.5404536
0.5377236 0.6767834 0.5404541
0.5378882 0.6767839 0.5404627
0.5406089 0.6767926 0.5406089
0.5724118 0.6769398 0.5430341
0.6793710 0.6793710 0.5723558
0.8132736 0.7087848 0.6770114
0.9494880 0.8133732 0.8106559
0.6741141 0.8131170 0.6742791
0.6741147 0.8131171 0.6742791
0.6741244 0.8131171 0.6742796
0.6742887 0.8131176 0.6742887
0.6770066 0.8131262 0.6744438
0.7087848 0.8132736 0.6770114
0.8157163 0.8157163 0.7075251
0.9496353 0.8451494 0.8132324
0.8104810 0.9494788 0.8104907
0.8104810 0.9494788 0.8104907
0.8104816 0.9494788 0.8104907
0.8104912 0.9494788 0.8104912
0.8106556 0.9494793 0.8105004
0.8133732 0.9494880 0.8106559
0.8451494 0.9496353 0.8132324
0.9520788 0.9520788 0.8438189
0.3986908 0.3986908 0.5406798
0.3988655 0.3986998 0.5406803
0.4017489 0.3988516 0.5406889
0.4348861 0.4013652 0.5408336
0.5431264 0.4320181 0.5431264
0.6769306 0.5402857 0.5723317
0.8131257 0.6742697 0.6769974
0.9494793 0.8104901 0.8106550
0.3986998 0.3988655 0.5406803
0.3988744 0.3988744 0.5406808
0.4017573 0.3990257 0.5406894
0.4348903 0.4015305 0.5408341
0.5431269 0.4321053 0.5431269
0.6769306 0.5402949 0.5723320
0.8131257 0.6742703 0.6769975
0.9494793 0.8104901 0.8106550
0.3988516 0.4017489 0.5406889
0.3990257 0.4017573 0.5406894
0.4018997 0.4018997 0.5406979
0.4349618 0.4042624 0.5408426
0.5431350 0.4335659 0.5431350
0.6769311 0.5404508 0.5723364
0.8131257 0.6742799 0.6769980
0.9494793 0.8104907 0.8106550
0.4013652 0.4348861 0.5408336
0.4015305 0.4348903 0.5408341
0.4042624 0.4349618 0.5408426
0.4361620 0.4361620 0.5409875
0.5432729 0.4533779 0.5432729
0.6769398 0.5430341 0.5724118
0.8131262 0.6744438 0.6770066
0.9494793 0.8105004 0.8106556
0.4320181 0.5431264 0.5431264
0.4321053 0.5431269 0.5431269
0.4335659 0.5431350 0.5431350
0.4533779 0.5432729 0.5432729
0.5454545 0.5454545 0.5454545
0.6770865 0.5736786 0.5736786
0.8131349 0.6771531 0.6771531
0.9494799 0.8106647 0.8106647
0.5402857 0.6769306 0.5723317
0.5402949 0.6769306 0.5723320
0.5404508 0.6769311 0.5723364
0.5430341 0.6769398 0.5724118
0.5736786 0.6770865 0.5736786
0.6795105 0.6795105 0.5913461
0.8132822 0.7088605 0.6795835
0.9494885 0.8133818 0.8108197
0.6742697 0.8131257 0.6769974
0.6742703 0.8131257 0.6769975
0.6742799 0.8131257 0.6769980
0.6744438 0.8131262 0.6770066
0.6771531 0.8131349 0.6771531
0.7088605 0.8132822 0.6795835
0.8157245 0.8157245 0.7089060
0.9496358 0.8451539 0.8133877
0.8104901 0.9494793 0.8106550
0.8104901 0.9494793 0.8106550
0.8104907 0.9494793 0.8106550
0.8105004 0.9494793 0.8106556
0.8106647 0.9494799 0.8106647
0.8133818 0.9494885 0.8108197
0.8451539 0.9496358 0.8133877
0.9520793 0.9520793 0.8439011
0.5375490 0.5375490 0.6767742
0.5375587 0.5375495 0.6767742
0.5377238 0.5375587 0.6767747
0.5404536 0.5377140 0.6767834
0.5723317 0.5402857 0.6769306
0.6793623 0.5708820 0.6793623
0.8132730 0.6768464 0.7087800
0.9494880 0.8106457 0.8133726
0.5375495 0.5375587 0.6767742
0.5375592 0.5375592 0.6767743
0.5377244 0.5375684 0.6767748
0.5404541 0.5377236 0.6767834
0.5723320 0.5402949 0.6769306
0.6793623 0.5708869 0.6793623
0.8132730 0.6768470 0.7087801
0.9494880 0.8106457 0.8133726
0.5375587 0.5377238 0.6767747
0.5375684 0.5377244 0.6767748
0.5377334 0.5377334 0.6767753
0.5404627 0.5378882 0.6767839
0.5723364 0.5404508 0.6769311
0.6793628 0.5709695 0.6793628
0.8132731 0.6768561 0.7087803
0.9494880 0.8106463 0.8133727
0.5377140 0.5404536 0.6767834
0.5377236 0.5404541 0.6767834
0.5378882 0.5404627 0.6767839
0.5406089 0.5406089 0.6767926
0.5724118 0.5430341 0.6769398
0.6793710 0.5723558 0.6793710
0.8132736 0.6770114 0.7087848
0.9494880 0.8106559 0.8133732
0.5402857 0.5723317 0.6769306
0.5402949 0.5723320 0.6769306
0.5404508 0.5723364 0.6769311
0.5430341 0.5724118 0.6769398
0.5736786 0.5736786 0.6770865
0.6795105 0.5913461 0.6795105
0.8132822 0.6795835 0.7088605
0.9494885 0.8108197 0.8133818
0.5708820 0.6793623 0.6793623
0.5708869 0.6793623 0.6793623
0.5709695 0.6793628 0.6793628
0.5723558 0.6793710 0.6793710
0.5913461 0.6795105 0.6795105
0.6818182 0.6818182 0.6818182
0.8134290 0.7101328 0.7101328
0.9494972 0.8135283 0.8135283
0.6768464 0.8132730 0.7087800
0.6768470 0.8132730 0.7087801
0.6768561 0.8132731 0.7087803
0.6770114 0.8132736 0.7087848
0.6795835 0.8132822 0.7088605
0.7101328 0.8134290 0.7101328
0.8158641 0.8158641 0.7278351
0.9496445 0.8452296 0.8159591
0.8106457 0.9494880 0.8133726
0.8106457 0.9494880 0.8133726
0.8106463 0.9494880 0.8133727
0.8106559 0.9494880 0.8133732
0.8108197 0.9494885 0.8133818
0.8135283 0.9494972 0.8135283
0.8452296 0.9496445 0.8159591
0.9520875 0.9520875 0.8452816
0.6741044 0.6741044 0.8131165
0.6741050 0.6741045 0.8131165
0.6741147 0.6741050 0.8131165
0.6742791 0.6741141 0.8131170
0.6769974 0.6742697 0.8131257
0.7087800 0.6768464 0.8132730
0.8157158 0.7074377 0.8157158
0.9496353 0.8132227 0.8451491
0.6741045 0.6741050 0.8131165
0.6741050 0.6741050 0.8131165
0.6741147 0.6741056 0.8131165
0.6742791 0.6741147 0.8131171
0.6769975 0.6742703 0.8131257
0.7087801 0.6768470 0.8132730
0.8157158 0.7074380 0.8157158
0.9496353 0.8132228 0.8451491
0.6741050 0.6741147 0.8131165
0.6741056 0.6741147 0.8131165
0.6741152 0.6741152 0.8131166
0.6742796 0.6741244 0.8131171
0.6769980 0.6742799 0.8131257
0.7087803 0.6768561 0.8132731
0.8157159 0.7074429 0.8157159
0.9496353 0.8132233 0.8451491
0.6741141 0.6742791 0.8131170
0.6741147 0.6742791 0.8131171
0.6741244 0.6742796 0.8131171
0.6742887 0.6742887 0.8131176
0.6770066 0.6744438 0.8131262
0.7087848 0.6770114 0.8132736
0.8157163 0.7075251 0.8157163
0.9496353 0.8132324 0.8451494
0.6742697 0.6769974 0.8131257
0.6742703 0.6769975 0.8131257
0.6742799 0.6769980 0.8131257
0.6744438 0.6770066 0.8131262
0.6771531 0.6771531 0.8131349
0.7088605 0.6795835 0.8132822
0.8157245 0.7089060 0.8157245
0.9496358 0.8133877 0.8451539
0.6768464 0.7087800 0.8132730
0.6768470 0.7087801 0.8132730
0.6768561 0.7087803 0.8132731
0.6770114 0.7087848 0.8132736
0.6795835 0.7088605 0.8132822
0.7101328 0.7101328 0.8134290
0.8158641 0.7278351 0.8158641
0.9496445 0.8159591 0.8452296
0.7074377 0.8157158 0.8157158
0.7074380 0.8157158 0.8157158
0.7074429 0.8157159 0.8157159
0.7075251 0.8157163 0.8157163
0.7089060 0.8157245 0.8157245
0.7278351 0.8158641 0.8158641
0.8181818 0.8181818 0.8181818
0.9497913 0.8465023 0.8465023
0.8132227 0.9496353 0.8451491
0.8132228 0.9496353 0.8451491
0.8132233 0.9496353 0.8451491
0.8132324 0.9496353 0.8451494
0.8133877 0.9496358 0.8451539
0.8159591 0.9496445 0.8452296
0.8465023 0.9497913 0.8465023
0.9522271 0.9522271 0.8642068
0.8104804 0.8104804 0.9494788
0.8104804 0.8104804 0.9494788
0.8104810 0.8104804 0.9494788
0.8104907 0.8104810 0.9494788
0.8106550 0.8104901 0.9494793
0.8133726 0.8106457 0.9494880
0.8451491 0.8132227 0.9496353
0.9520788 0.8438137 0.9520788
0.8104804 0.8104804 0.9494788
0.8104804 0.8104804 0.9494788
0.8104810 0.8104805 0.9494788
0.8104907 0.8104810 0.9494788
0.8106550 0.8104901 0.9494793
0.8133726 0.8106457 0.9494880
0.8451491 0.8132228 0.9496353
0.9520788 0.8438137 0.9520788
0.8104804 0.8104810 0.9494788
0.8104805 0.8104810 0.9494788
0.8104810 0.8104810 0.9494788
0.8104907 0.8104816 0.9494788
0.8106550 0.8104907 0.9494793
0.8133727 0.8106463 0.9494880
0.8451491 0.8132233 0.9496353
0.9520788 0.8438140 0.9520788
0.8104810 0.8104907 0.9494788
0.8104810 0.8104907 0.9494788
0.8104816 0.8104907 0.9494788
0.8104912 0.8104912 0.9494788
0.8106556 0.8105004 0.9494793
0.8133732 0.8106559 0.9494880
0.8451494 0.8132324 0.9496353
0.9520788 0.8438189 0.9520788
0.8104901 0.8106550 0.9494793
0.8104901 0.8106550 0.9494793
0.8104907 0.8106550 0.9494793
0.8105004 0.8106556 0.9494793
0.8106647 0.8106647 0.9494799
0.8133818 0.8108197 0.9494885
0.8451539 0.8133877 0.9496358
0.9520793 0.8439011 0.9520793
0.8106457 0.8133726 0.9494880
0.8106457 0.8133726 0.9494880
0.8106463 0.8133727 0.9494880
0.8106559 0.8133732 0.9494880
0.8108197 0.8133818 0.9494885
0.8135283 0.8135283 0.9494972
0.8452296 0.8159591 0.9496445
0.9520875 0.8452816 0.9520875
0.8132227 0.8451491 0.9496353
0.8132228 0.8451491 0.9496353
0.8132233 0.8451491 0.9496353
0.8132324 0.8451494 0.9496353
0.8133877 0.8451539 0.9496358
0.8159591 0.8452296 0.9496445
0.8465023 0.8465023 0.9497913
0.9522271 0.8642068 0.9522271
0.8438137 0.9520788 0.9520788
0.8438137 0.9520788 0.9520788
0.8438140 0.9520788 0.9520788
0.8438189 0.9520788 0.9520788
0.8439011 0.9520793 0.9520793
0.8452816 0.9520875 0.9520875
0.8642068 0.9522271 0.9522271
0.9545455 0.9545455 0.9545455
