LUTs/moment_compression.cube
TITLE "Moment Compression v1m= 0.93 sim=0.2 DCI-P3 I-ESpherical Chroma Compression v1s=1 sis=1"
# Compress chroma in two ways. In the moment plane and spherically. Resolution 33
# Reduces the purity in the moment plane relative to the color space DCI-P3 and illuminant E
# At a purity of 1.0, the compression is 7.0%.
# Very high purities are compressed by 80.0%.
# At a radius of 1.0, the compression is 0.0%.
# Very high radii are compressed by 0.0%.
LUT_3D_SIZE 33
0.0000000 0.0000000 0.0000000
0.0286071 0.0018783 0.0018783
0.0579980 0.0045477 0.0045477
0.0879507 0.0082984 0.0082984
0.1183009 0.0134882 0.0134882
0.1489292 0.0205271 0.0205271
0.1797510 0.0298374 0.0298374
0.2107065 0.0417894 0.0417894
0.2417544 0.0566248 0.0566248
0.2728657 0.0743985 0.0743985
0.3040207 0.0949638 0.0949638
0.3352056 0.1180100 0.1180100
0.3664110 0.1431334 0.1431334
0.3976304 0.1699109 0.1699109
0.4288595 0.1979532 0.1979532
0.4600952 0.2269334 0.2269334
0.4913354 0.2565928 0.2565928
0.5225787 0.2867361 0.2867361
0.5538241 0.3172199 0.3172199
0.5850709 0.3479413 0.3479413
0.6163188 0.3788275 0.3788275
0.6475673 0.4098276 0.4098276
0.6788163 0.4409061 0.4409061
0.7100656 0.4720384 0.4720384
0.7413151 0.5032078 0.5032078
0.7725648 0.5344026 0.5344026
0.8038146 0.5656148 0.5656148
0.8350644 0.5968389 0.5968389
0.8663143 0.6280712 0.6280712
0.8975643 0.6593090 0.6593090
0.9288142 0.6905507 0.6905507
0.9600642 0.7217950 0.7217950
0.9913142 0.7530411 0.7530411
0.0018783 0.0286071 0.0018783
0.0299392 0.0299392 0.0037148
0.0589328 0.0318472 0.0063263
0.0886019 0.0345578 0.0099987
0.1187520 0.0383640 0.0150857
0.1492406 0.0436265 0.0219950
0.1799654 0.0507569 0.0311499
0.2108539 0.0601769 0.0429259
0.2418555 0.0722523 0.0575753
0.2729351 0.0872179 0.0751655
0.3040682 0.1051194 0.0955620
0.3352381 0.1258018 0.1184627
0.3664333 0.1489486 0.1434675
0.3976457 0.1741540 0.1701524
0.4288700 0.2009951 0.1981252
0.4601023 0.2290853 0.2270544
0.4913403 0.2581004 0.2566773
0.5225820 0.2877849 0.2867947
0.5538264 0.3179460 0.3172604
0.5850725 0.3484422 0.3479692
0.6163199 0.3791722 0.3788467
0.6475680 0.4100644 0.4098407
0.6788168 0.4410686 0.4409151
0.7100660 0.4721499 0.4720446
0.7413154 0.5032842 0.5032121
0.7725650 0.5344549 0.5344055
0.8038147 0.5656506 0.5656168
0.8350645 0.5968634 0.5968403
0.8663144 0.6280880 0.6280721
0.8975643 0.6593205 0.6593097
0.9288142 0.6905586 0.6905512
0.9600642 0.7218004 0.7217953
0.9913142 0.7530448 0.7530413
0.0045477 0.0579980 0.0045477
0.0318472 0.0589328 0.0063263
0.0602797 0.0602797 0.0088576
0.0895440 0.0622087 0.0124213
0.1194067 0.0649481 0.0173654
0.1496935 0.0687933 0.0240937
0.1802776 0.0741068 0.0330305
0.2110687 0.0813013 0.0445586
0.2420030 0.0907977 0.0589444
0.2730363 0.1029591 0.0762733
0.3041376 0.1180151 0.0964283
0.3352857 0.1360052 0.1191197
0.3664658 0.1567685 0.1439531
0.3976680 0.1799848 0.1705040
0.4288852 0.2052466 0.1983758
0.4601128 0.2321315 0.2272309
0.4913474 0.2602545 0.2568006
0.5225869 0.2892936 0.2868803
0.5538297 0.3189953 0.3173196
0.5850748 0.3491685 0.3480100
0.6163214 0.3796732 0.3788747
0.6475691 0.4104091 0.4098600
0.6788175 0.4413054 0.4409283
0.7100665 0.4723124 0.4720537
0.7413157 0.5033956 0.5032183
0.7725652 0.5345313 0.5344098
0.8038149 0.5657029 0.5656197
0.8350646 0.5968993 0.5968422
0.8663145 0.6281125 0.6280735
0.8975644 0.6593373 0.6593106
0.9288143 0.6905701 0.6905518
0.9600642 0.7218083 0.7217958
0.9913142 0.7530502 0.7530416
0.0082984 0.0879507 0.0082984
0.0345578 0.0886019 0.0099987
0.0622087 0.0895440 0.0124213
0.0909014 0.0909014 0.0158373
0.1203539 0.0928450 0.0205863
0.1503506 0.0956045 0.0270668
0.1807316 0.0994768 0.0357030
0.2113814 0.1048258 0.0468873
0.2422181 0.1120648 0.0609045
0.2731840 0.1216143 0.0778654
0.3042389 0.1338353 0.0976777
0.3353551 0.1489538 0.1200702
0.3665134 0.1670050 0.1446574
0.3977006 0.1878241 0.1710150
0.4289076 0.2110882 0.1987405
0.4601281 0.2363886 0.2274881
0.4913579 0.2633036 0.2569803
0.5225941 0.2914491 0.2870051
0.5538346 0.3205047 0.3174059
0.5850782 0.3502181 0.3480695
0.6163237 0.3803996 0.3789157
0.6475707 0.4109102 0.4098881
0.6788186 0.4416502 0.4409476
0.7100672 0.4725492 0.4720669
0.7413162 0.5035582 0.5032273
0.7725656 0.5346427 0.5344160
0.8038151 0.5657793 0.5656239
0.8350648 0.5969516 0.5968452
0.8663146 0.6281483 0.6280755
0.8975644 0.6593619 0.6593120
0.9288143 0.6905869 0.6905527
0.9600643 0.7218198 0.7217964
0.9913142 0.7530581 0.7530421
0.0134882 0.1183009 0.0134882
0.0383640 0.1187520 0.0150857
0.0649481 0.1194067 0.0173654
0.0928450 0.1203539 0.0205863
0.1217185 0.1217185 0.0250767
0.1513013 0.1236722 0.0312260
0.1813904 0.1264457 0.0394579
0.2118363 0.1303368 0.0501751
0.2425313 0.1357104 0.0636868
0.2733992 0.1429801 0.0801374
0.3043866 0.1525663 0.0994696
0.3354564 0.1648284 0.1214394
0.3665829 0.1799900 0.1456757
0.3977482 0.1980833 0.1717559
0.4289401 0.2189408 0.1992705
0.4601504 0.2422376 0.2278624
0.4913732 0.2675647 0.2572422
0.5226045 0.2945002 0.2871872
0.5538418 0.3226612 0.3175318
0.5850831 0.3517280 0.3481563
0.6163271 0.3814496 0.3789754
0.6475730 0.4116368 0.4099291
0.6788202 0.4421513 0.4409757
0.7100683 0.4728940 0.4720862
0.7413170 0.5037950 0.5032406
0.7725661 0.5348053 0.5344250
0.8038154 0.5658907 0.5656301
0.8350650 0.5970279 0.5968494
0.8663147 0.6282006 0.6280784
0.8975645 0.6593977 0.6593140
0.9288144 0.6906114 0.6905541
0.9600643 0.7218366 0.7217973
0.9913142 0.7530696 0.7530427
0.0205271 0.1489292 0.0205271
0.0436265 0.1492406 0.0219950
0.0687933 0.1496935 0.0240937
0.0956045 0.1503506 0.0270668
0.1236722 0.1513013 0.0312260
0.1526708 0.1526708 0.0369484
0.1823436 0.1546315 0.0446532
0.2124963 0.1574146 0.0547544
0.2429866 0.1613188 0.0675899
0.2737126 0.1667093 0.0833480
0.3046020 0.1740003 0.1020193
0.3356042 0.1836117 0.1233997
0.3666842 0.1959021 0.1471410
0.3978176 0.2110934 0.1728264
0.4289877 0.2292156 0.2000386
0.4601830 0.2500994 0.2284062
0.4913955 0.2734187 0.2576233
0.5226198 0.2987640 0.2874524
0.5538523 0.3257137 0.3177155
0.5850902 0.3538853 0.3482830
0.6163320 0.3829598 0.3790626
0.6475763 0.4126868 0.4099891
0.6788225 0.4428779 0.4410168
0.7100698 0.4733952 0.4721144
0.7413180 0.5041398 0.5032599
0.7725668 0.5350421 0.5344383
0.8038159 0.5660533 0.5656392
0.8350654 0.5971394 0.5968556
0.8663150 0.6282770 0.6280826
0.8975647 0.6594500 0.6593169
0.9288145 0.6906473 0.6905561
0.9600644 0.7218611 0.7217987
0.9913143 0.7530864 0.7530436
0.0298374 0.1797510 0.0298374
0.0507569 0.1799654 0.0311499
0.0741068 0.1802776 0.0330305
0.0994768 0.1807316 0.0357030
0.1264457 0.1813904 0.0394579
0.1546315 0.1823436 0.0446532
0.1837165 0.1837165 0.0516990
0.2134510 0.1856820 0.0610177
0.2436474 0.1884717 0.0729791
0.2741684 0.1923848 0.0878245
0.3049156 0.1977869 0.1056079
0.3358197 0.2050925 0.1261822
0.3668320 0.2147213 0.1492361
0.3979190 0.2270312 0.1743658
0.4290572 0.2422428 0.2011481
0.4602306 0.2603849 0.2291942
0.4914281 0.2812867 0.2581770
0.5226421 0.3046215 0.2878384
0.5538675 0.3299793 0.3179830
0.5851007 0.3569387 0.3484678
0.6163391 0.3851175 0.3791898
0.6475812 0.4141973 0.4100765
0.6788258 0.4439281 0.4410769
0.7100721 0.4741219 0.4721556
0.7413196 0.5046410 0.5032881
0.7725679 0.5353870 0.5344576
0.8038167 0.5662902 0.5656525
0.8350659 0.5973019 0.5968647
0.8663153 0.6283885 0.6280888
0.8975649 0.6595264 0.6593211
0.9288147 0.6906996 0.6905590
0.9600645 0.7218970 0.7218007
0.9913144 0.7531109 0.7530450
0.0417894 0.2107065 0.0417894
0.0601769 0.2108539 0.0429259
0.0813013 0.2110687 0.0445586
0.1048258 0.2113814 0.0468873
0.1303368 0.2118363 0.0501751
0.1574146 0.2124963 0.0547544
0.1856820 0.2134510 0.0610177
0.2148263 0.2148263 0.0693893
0.2446033 0.2167951 0.0802684
0.2748297 0.2195894 0.0939560
0.3053716 0.2235086 0.1105849
0.3361334 0.2289188 0.1300855
0.3670475 0.2362344 0.1522041
0.3980668 0.2458751 0.1765642
0.4291586 0.2581984 0.2027426
0.4603000 0.2734240 0.2303320
0.4914757 0.2915796 0.2589792
0.5226747 0.3124938 0.2883990
0.5538898 0.3358392 0.3183723
0.5851160 0.3612055 0.3487370
0.6163496 0.3881716 0.3793754
0.6475884 0.4163553 0.4102041
0.6788307 0.4454387 0.4411645
0.7100755 0.4751722 0.4722157
0.7413219 0.5053678 0.5033293
0.7725694 0.5358882 0.5344858
0.8038178 0.5666350 0.5656718
0.8350666 0.5975388 0.5968779
0.8663158 0.6285510 0.6280979
0.8975653 0.6596378 0.6593273
0.9288149 0.6907759 0.6905632
0.9600647 0.7219493 0.7218036
0.9913145 0.7531467 0.7530470
0.0566248 0.2417544 0.0566248
0.0722523 0.2418555 0.0575753
0.0907977 0.2420030 0.0589444
0.1120648 0.2422181 0.0609045
0.1357104 0.2425313 0.0636868
0.1613188 0.2429866 0.0675899
0.1884717 0.2436474 0.0729791
0.2167951 0.2446033 0.0802684
0.2459802 0.2459802 0.0898778
0.2757864 0.2479513 0.1021660
0.3060333 0.2507487 0.1173550
0.3365896 0.2546721 0.1354749
0.3673613 0.2600878 0.1563566
0.3982824 0.2674103 0.1796742
0.4293064 0.2770592 0.2050180
0.4604014 0.2893916 0.2319666
0.4915452 0.3046268 0.2601373
0.5227223 0.3227918 0.2892112
0.5539224 0.3437145 0.3189378
0.5851383 0.3670671 0.3491286
0.6163649 0.3924393 0.3796457
0.6475989 0.4194098 0.4103902
0.6788379 0.4475970 0.4412924
0.7100804 0.4766829 0.4723034
0.7413253 0.5064181 0.5033895
0.7725717 0.5366149 0.5345271
0.8038193 0.5671362 0.5657001
0.8350677 0.5978837 0.5968973
0.8663166 0.6287879 0.6281111
0.8975658 0.6598004 0.6593364
0.9288153 0.6908874 0.6905695
0.9600649 0.7220256 0.7218079
0.9913146 0.7531991 0.7530499
0.0743985 0.2728657 0.0743985
0.0872179 0.2729351 0.0751655
0.1029591 0.2730363 0.0762733
0.1216143 0.2731840 0.0778654
0.1429801 0.2733992 0.0801374
0.1667093 0.2737126 0.0833480
0.1923848 0.2741684 0.0878245
0.2195894 0.2748297 0.0939560
0.2479513 0.2757864 0.1021660
0.2771644 0.2771644 0.1128580
0.3069905 0.2791370 0.1263421
0.3372515 0.2819366 0.1427646
0.3678177 0.2858629 0.1620702
0.3985962 0.2912823 0.1840165
0.4295220 0.2986096 0.2082331
0.4605493 0.3082641 0.2342978
0.4916465 0.3206027 0.2618005
0.5227918 0.3358445 0.2903836
0.5539700 0.3540159 0.3197571
0.5851709 0.3749444 0.3496975
0.6163872 0.3983019 0.3800390
0.6476141 0.4236781 0.4106612
0.6788484 0.4506518 0.4414788
0.7100876 0.4788413 0.4724315
0.7413302 0.5079289 0.5034773
0.7725751 0.5376653 0.5345873
0.8038216 0.5678630 0.5657413
0.8350693 0.5983849 0.5969255
0.8663176 0.6291327 0.6281305
0.8975665 0.6600373 0.6593497
0.9288158 0.6910499 0.6905785
0.9600652 0.7221371 0.7218141
0.9913149 0.7532754 0.7530542
0.0949638 0.3040207 0.0949638
0.1051194 0.3040682 0.0955620
0.1180151 0.3041376 0.0964283
0.1338353 0.3042389 0.0976777
0.1525663 0.3043866 0.0994696
0.1740003 0.3046020 0.1020193
0.1977869 0.3049156 0.1056079
0.2235086 0.3053716 0.1105849
0.2507487 0.3060333 0.1173550
0.2791370 0.3069905 0.1263421
0.3083693 0.3083693 0.1379276
0.3382091 0.3103430 0.1523744
0.3684798 0.3131441 0.1697641
0.3990526 0.3170723 0.1899754
0.4298359 0.3224943 0.2127157
0.4607649 0.3298248 0.2375891
0.4917944 0.3394831 0.2641715
0.5228932 0.3518261 0.2920669
0.5540395 0.3670723 0.3209394
0.5852185 0.3852481 0.3505216
0.6164198 0.4061806 0.3806102
0.6476365 0.4295416 0.4110556
0.6788636 0.4549205 0.4417504
0.7100980 0.4818963 0.4726181
0.7413373 0.5100874 0.5036055
0.7725800 0.5391761 0.5346752
0.8038250 0.5689134 0.5658016
0.8350716 0.5991117 0.5969668
0.8663192 0.6296340 0.6281588
0.8975676 0.6603821 0.6593690
0.9288165 0.6912868 0.6905918
0.9600657 0.7222996 0.7218231
0.9913152 0.7533869 0.7530604
0.1180100 0.3352056 0.1180100
0.1258018 0.3352381 0.1184627
0.1360052 0.3352857 0.1191197
0.1489538 0.3353551 0.1200702
0.1648284 0.3354564 0.1214394
0.1836117 0.3356042 0.1233997
0.2050925 0.3358197 0.1261822
0.2289188 0.3361334 0.1300855
0.2546721 0.3365896 0.1354749
0.2819366 0.3372515 0.1427646
0.3103430 0.3382091 0.1523744
0.3395884 0.3395884 0.1646631
0.3694376 0.3415629 0.1798525
0.3997149 0.3443649 0.1979729
0.4302924 0.3482945 0.2188551
0.4610788 0.3537183 0.2421730
0.4920100 0.3610510 0.2675171
0.5230411 0.3707120 0.2944660
0.5541409 0.3830579 0.3226369
0.5852879 0.3983072 0.3517109
0.6164674 0.4164860 0.3814376
0.6476691 0.4374212 0.4116285
0.6788860 0.4607845 0.4421456
0.7101133 0.4861653 0.4728901
0.7413478 0.5131425 0.5037923
0.7725872 0.5413347 0.5348034
0.8038299 0.5704242 0.5658895
0.8350749 0.6001621 0.5970271
0.8663215 0.6303608 0.6282000
0.8975692 0.6608833 0.6593973
0.9288176 0.6916317 0.6906111
0.9600665 0.7225365 0.7218364
0.9913157 0.7535494 0.7530695
0.1431334 0.3664110 0.1431334
0.1489486 0.3664333 0.1434675
0.1567685 0.3664658 0.1439531
0.1670050 0.3665134 0.1446574
0.1799900 0.3665829 0.1456757
0.1959021 0.3666842 0.1471410
0.2147213 0.3668320 0.1492361
0.2362344 0.3670475 0.1522041
0.2600878 0.3673613 0.1563566
0.2858629 0.3678177 0.1620702
0.3131441 0.3684798 0.1697641
0.3415629 0.3694376 0.1798525
0.3708173 0.3708173 0.1926739
0.4006729 0.3727922 0.2084174
0.4309547 0.3755950 0.2270746
0.4615353 0.3795255 0.2484424
0.4923240 0.3849505 0.2721731
0.5232567 0.3922847 0.2978499
0.5542888 0.4019475 0.3250555
0.5853893 0.4142954 0.3534181
0.6165369 0.4295468 0.3826317
0.6477167 0.4477276 0.4124582
0.6789186 0.4686647 0.4427195
0.7101356 0.4920296 0.4732858
0.7413631 0.5174117 0.5040645
0.7725976 0.5443900 0.5349904
0.8038371 0.5725829 0.5660178
0.8350798 0.6016729 0.5971150
0.8663249 0.6314112 0.6282603
0.8975715 0.6616101 0.6594386
0.9288191 0.6921329 0.6906394
0.9600676 0.7228814 0.7218558
0.9913165 0.7537863 0.7530827
0.1699109 0.3976304 0.1699109
0.1741540 0.3976457 0.1701524
0.1799848 0.3976680 0.1705040
0.1878241 0.3977006 0.1710150
0.1980833 0.3977482 0.1717559
0.2110934 0.3978176 0.1728264
0.2270312 0.3979190 0.1743658
0.2458751 0.3980668 0.1765642
0.2674103 0.3982824 0.1796742
0.2912823 0.3985962 0.1840165
0.3170723 0.3990526 0.1899754
0.3443649 0.3997149 0.1979729
0.3727922 0.4006729 0.2084174
0.4020528 0.4020528 0.2216310
0.4319128 0.4040281 0.2377777
0.4621977 0.4068313 0.2568212
0.4927805 0.4107625 0.2785346
0.5235707 0.4161883 0.3025564
0.5545044 0.4235235 0.3284660
0.5855373 0.4331875 0.3558503
0.6166383 0.4455369 0.3843457
0.6477861 0.4607897 0.4136557
0.6789662 0.4789719 0.4435509
0.7101682 0.4999103 0.4738605
0.7413854 0.5232763 0.5044606
0.7726129 0.5486593 0.5352628
0.8038475 0.5756382 0.5662048
0.8350870 0.6038316 0.5972433
0.8663298 0.6329221 0.6283483
0.8975748 0.6626606 0.6594988
0.9288214 0.6928597 0.6906807
0.9600691 0.7233826 0.7218840
0.9913175 0.7541312 0.7531021
0.1979532 0.4288595 0.1979532
0.2009951 0.4288700 0.1981252
0.2052466 0.4288852 0.1983758
0.2110882 0.4289076 0.1987405
0.2189408 0.4289401 0.1992705
0.2292156 0.4289877 0.2000386
0.2422428 0.4290572 0.2011481
0.2581984 0.4291586 0.2027426
0.2770592 0.4293064 0.2050180
0.2986096 0.4295220 0.2082331
0.3224943 0.4298359 0.2127157
0.3482945 0.4302924 0.2188551
0.3755950 0.4309547 0.2270746
0.4040281 0.4319128 0.2377777
0.4332929 0.4332929 0.2512739
0.4631559 0.4352684 0.2677087
0.4934429 0.4380719 0.2870260
0.5240272 0.4420036 0.3089826
0.5548184 0.4474300 0.3332079
0.5857529 0.4547659 0.3592794
0.6167862 0.4644308 0.3867873
0.6478875 0.4767810 0.4153743
0.6790356 0.4920348 0.4447505
0.7102158 0.5102181 0.4746930
0.7414180 0.5311573 0.5050358
0.7726352 0.5545240 0.5356591
0.8038628 0.5799076 0.5664773
0.8350974 0.6068870 0.5974304
0.8663369 0.6350808 0.6284766
0.8975797 0.6641715 0.6595868
0.9288248 0.6939101 0.6907410
0.9600714 0.7241094 0.7219253
0.9913191 0.7546324 0.7531303
0.2269334 0.4600952 0.2269334
0.2290853 0.4601023 0.2270544
0.2321315 0.4601128 0.2272309
0.2363886 0.4601281 0.2274881
0.2422376 0.4601504 0.2278624
0.2500994 0.4601830 0.2284062
0.2603849 0.4602306 0.2291942
0.2734240 0.4603000 0.2303320
0.2893916 0.4604014 0.2319666
0.3082641 0.4605493 0.2342978
0.3298248 0.4607649 0.2375891
0.3537183 0.4610788 0.2421730
0.3795255 0.4615353 0.2484424
0.4068313 0.4621977 0.2568212
0.4352684 0.4631559 0.2677087
0.4645361 0.4645361 0.2814055
0.4944012 0.4665118 0.2980436
0.5246897 0.4693155 0.3175529
0.5552750 0.4732475 0.3396791
0.5860668 0.4786742 0.3640457
0.6170018 0.4860107 0.3902291
0.6480355 0.4956761 0.4178224
0.6791370 0.5080270 0.4464724
0.7102853 0.5232815 0.4758942
0.7414656 0.5414654 0.5058690
0.7726678 0.5624052 0.5362347
0.8038851 0.5857724 0.5668738
0.8351127 0.6111565 0.5977030
0.8663474 0.6381362 0.6286638
0.8975869 0.6663302 0.6597152
0.9288297 0.6954211 0.6908290
0.9600748 0.7251598 0.7219856
0.9913214 0.7553592 0.7531716
0.2565928 0.4913354 0.2565928
0.2581004 0.4913403 0.2566773
0.2602545 0.4913474 0.2568006
0.2633036 0.4913579 0.2569803
0.2675647 0.4913732 0.2572422
0.2734187 0.4913955 0.2576233
0.2812867 0.4914281 0.2581770
0.2915796 0.4914757 0.2589792
0.3046268 0.4915452 0.2601373
0.3206027 0.4916465 0.2618005
0.3394831 0.4917944 0.2641715
0.3610510 0.4920100 0.2675171
0.3849505 0.4923240 0.2721731
0.4107625 0.4927805 0.2785346
0.4380719 0.4934429 0.2870260
0.4665118 0.4944012 0.2980436
0.4957815 0.4957815 0.3118811
0.5256480 0.4977573 0.3286613
0.5559374 0.5005612 0.3483042
0.5865234 0.5044933 0.3705481
0.6173158 0.5099203 0.3950123
0.6482511 0.5172571 0.4212730
0.6792850 0.5269229 0.4489249
0.7103867 0.5392743 0.4776182
0.7415351 0.5545292 0.5070713
0.7727154 0.5727136 0.5370684
0.8039177 0.5936538 0.5674496
0.8351350 0.6170214 0.5980996
0.8663627 0.6424057 0.6289364
0.8975973 0.6693856 0.6599023
0.9288369 0.6975798 0.6909573
0.9600797 0.7266708 0.7220736
0.9913248 0.7564097 0.7532319
0.2867361 0.5225787 0.2867361
0.2877849 0.5225820 0.2867947
0.2892936 0.5225869 0.2868803
0.2914491 0.5225941 0.2870051
0.2945002 0.5226045 0.2871872
0.2987640 0.5226198 0.2874524
0.3046215 0.5226421 0.2878384
0.3124938 0.5226747 0.2883990
0.3227918 0.5227223 0.2892112
0.3358445 0.5227918 0.2903836
0.3518261 0.5228932 0.2920669
0.3707120 0.5230411 0.2944660
0.3922847 0.5232567 0.2978499
0.4161883 0.5235707 0.3025564
0.4420036 0.5240272 0.3089826
0.4693155 0.5246897 0.3175529
0.4977573 0.5256480 0.3286613
0.5270283 0.5270283 0.3425968
0.5568958 0.5290041 0.3594756
0.5871859 0.5318082 0.3792111
0.6177724 0.5357404 0.4015363
0.6485651 0.5411676 0.4260678
0.6795006 0.5485046 0.4523816
0.7105346 0.5581707 0.4800738
0.7416365 0.5705224 0.5087969
0.7727849 0.5857777 0.5382714
0.8039653 0.6039623 0.5682837
0.8351676 0.6249028 0.5986756
0.8663850 0.6482706 0.6293331
0.8976126 0.6736551 0.6601750
0.9288473 0.7006352 0.6911445
0.9600868 0.7288295 0.7222020
0.9913297 0.7579206 0.7533199
0.3172199 0.5538241 0.3172199
0.3179460 0.5538264 0.3172604
0.3189953 0.5538297 0.3173196
0.3205047 0.5538346 0.3174059
0.3226612 0.5538418 0.3175318
0.3257137 0.5538523 0.3177155
0.3299793 0.5538675 0.3179830
0.3358392 0.5538898 0.3183723
0.3437145 0.5539224 0.3189378
0.3540159 0.5539700 0.3197571
0.3670723 0.5540395 0.3209394
0.3830579 0.5541409 0.3226369
0.4019475 0.5542888 0.3250555
0.4235235 0.5545044 0.3284660
0.4474300 0.5548184 0.3332079
0.4732475 0.5552750 0.3396791
0.5005612 0.5559374 0.3483042
0.5290041 0.5568958 0.3594756
0.5582761 0.5582761 0.3734791
0.5881443 0.5602520 0.3904261
0.6184348 0.5630561 0.4102254
0.6490216 0.5669885 0.4326066
0.6798146 0.5724158 0.4571844
0.7107502 0.5797530 0.4835346
0.7417844 0.5894193 0.5112545
0.7728863 0.6017711 0.5399980
0.8040348 0.6170266 0.5694872
0.8352152 0.6352115 0.5995099
0.8664176 0.6561522 0.6299092
0.8976349 0.6795201 0.6605718
0.9288626 0.7049048 0.6914172
0.9600973 0.7318849 0.7223892
0.9913368 0.7600793 0.7534483
0.3479413 0.5850709 0.3479413
0.3484422 0.5850725 0.3479692
0.3491685 0.5850748 0.3480100
0.3502181 0.5850782 0.3480695
0.3517280 0.5850831 0.3481563
0.3538853 0.5850902 0.3482830
0.3569387 0.5851007 0.3484678
0.3612055 0.5851160 0.3487370
0.3670671 0.5851383 0.3491286
0.3749444 0.5851709 0.3496975
0.3852481 0.5852185 0.3505216
0.3983072 0.5852879 0.3517109
0.4142954 0.5853893 0.3534181
0.4331875 0.5855373 0.3558503
0.4547659 0.5857529 0.3592794
0.4786742 0.5860668 0.3640457
0.5044933 0.5865234 0.3705481
0.5318082 0.5871859 0.3792111
0.5602520 0.5881443 0.3904261
0.5895246 0.5895246 0.4044764
0.6193932 0.5915006 0.4214704
0.6496841 0.5943047 0.4413137
0.6802711 0.5982371 0.4637334
0.7110642 0.6036646 0.4883430
0.7420000 0.6110018 0.5147182
0.7730342 0.6206682 0.5424571
0.8041362 0.6330202 0.5712145
0.8352847 0.6482759 0.6007138
0.8664652 0.6664609 0.6307437
0.8976675 0.6874017 0.6611479
0.9288849 0.7107698 0.6918140
0.9601126 0.7361545 0.7226619
0.9913473 0.7631348 0.7536355
0.3788275 0.6163188 0.3788275
0.3791722 0.6163199 0.3788467
0.3796732 0.6163214 0.3788747
0.3803996 0.6163237 0.3789157
0.3814496 0.6163271 0.3789754
0.3829598 0.6163320 0.3790626
0.3851175 0.6163391 0.3791898
0.3881716 0.6163496 0.3793754
0.3924393 0.6163649 0.3796457
0.3983019 0.6163872 0.3800390
0.4061806 0.6164198 0.3806102
0.4164860 0.6164674 0.3814376
0.4295468 0.6165369 0.3826317
0.4455369 0.6166383 0.3843457
0.4644308 0.6167862 0.3867873
0.4860107 0.6170018 0.3902291
0.5099203 0.6173158 0.3950123
0.5357404 0.6177724 0.4015363
0.5630561 0.6184348 0.4102254
0.5915006 0.6193932 0.4214704
0.6207736 0.6207736 0.4355530
0.6506425 0.6227496 0.4525794
0.6809336 0.6255537 0.4724528
0.7115208 0.6294862 0.4948989
0.7423140 0.6349137 0.5195303
0.7732498 0.6422510 0.5459227
0.8042841 0.6519175 0.5736746
0.8353861 0.6642696 0.6024416
0.8665347 0.6795254 0.6319478
0.8977151 0.6977105 0.6619825
0.9289175 0.7186514 0.6923902
0.9601349 0.7420196 0.7230587
0.9913626 0.7674043 0.7539082
0.4098276 0.6475673 0.4098276
0.4100644 0.6475680 0.4098407
0.4104091 0.6475691 0.4098600
0.4109102 0.6475707 0.4098881
0.4116368 0.6475730 0.4099291
0.4126868 0.6475763 0.4099891
0.4141973 0.6475812 0.4100765
0.4163553 0.6475884 0.4102041
0.4194098 0.6475989 0.4103902
0.4236781 0.6476141 0.4106612
0.4295416 0.6476365 0.4110556
0.4374212 0.6476691 0.4116285
0.4477276 0.6477167 0.4124582
0.4607897 0.6477861 0.4136557
0.4767810 0.6478875 0.4153743
0.4956761 0.6480355 0.4178224
0.5172571 0.6482511 0.4212730
0.5411676 0.6485651 0.4260678
0.5669885 0.6490216 0.4326066
0.5943047 0.6496841 0.4413137
0.6227496 0.6506425 0.4525794
0.6520229 0.6520229 0.4666841
0.6818920 0.6539989 0.4837327
0.7121833 0.6568031 0.5036269
0.7427706 0.6607356 0.5260910
0.7735638 0.6661631 0.5507374
0.8044997 0.6735005 0.5771416
0.8355340 0.6831671 0.6049024
0.8666361 0.6955192 0.6336759
0.8977846 0.7107750 0.6631868
0.9289651 0.7289602 0.6932249
0.9601675 0.7499012 0.7236350
0.9913849 0.7732694 0.7543051
0.4409061 0.6788163 0.4409061
0.4410686 0.6788168 0.4409151
0.4413054 0.6788175 0.4409283
0.4416502 0.6788186 0.4409476
0.4421513 0.6788202 0.4409757
0.4428779 0.6788225 0.4410168
0.4439281 0.6788258 0.4410769
0.4454387 0.6788307 0.4411645
0.4475970 0.6788379 0.4412924
0.4506518 0.6788484 0.4414788
0.4549205 0.6788636 0.4417504
0.4607845 0.6788860 0.4421456
0.4686647 0.6789186 0.4427195
0.4789719 0.6789662 0.4435509
0.4920348 0.6790356 0.4447505
0.5080270 0.6791370 0.4464724
0.5269229 0.6792850 0.4489249
0.5485046 0.6795006 0.4523816
0.5724158 0.6798146 0.4571844
0.5982371 0.6802711 0.4637334
0.6255537 0.6809336 0.4724528
0.6539989 0.6818920 0.4837327
0.6832724 0.6832724 0.4978526
0.7131417 0.6852484 0.5149164
0.7434331 0.6880526 0.5348248
0.7740204 0.6919852 0.5573014
0.8048137 0.6974127 0.5819580
0.8357496 0.7047501 0.6083702
0.8667840 0.7144167 0.6361371
0.8978860 0.7267689 0.6649152
0.9290346 0.7420248 0.6944293
0.9602151 0.7602100 0.7244697
0.9914175 0.7811510 0.7548814
0.4720384 0.7100656 0.4720384
0.4721499 0.7100660 0.4720446
0.4723124 0.7100665 0.4720537
0.4725492 0.7100672 0.4720669
0.4728940 0.7100683 0.4720862
0.4733952 0.7100698 0.4721144
0.4741219 0.7100721 0.4721556
0.4751722 0.7100755 0.4722157
0.4766829 0.7100804 0.4723034
0.4788413 0.7100876 0.4724315
0.4818963 0.7100980 0.4726181
0.4861653 0.7101133 0.4728901
0.4920296 0.7101356 0.4732858
0.4999103 0.7101682 0.4738605
0.5102181 0.7102158 0.4746930
0.5232815 0.7102853 0.4758942
0.5392743 0.7103867 0.4776182
0.5581707 0.7105346 0.4800738
0.5797530 0.7107502 0.4835346
0.6036646 0.7110642 0.4883430
0.6294862 0.7115208 0.4948989
0.6568031 0.7121833 0.5036269
0.6852484 0.7131417 0.5149164
0.7145221 0.7145221 0.5290468
0.7443915 0.7164981 0.5461210
