LUTs/post_formation_compression_srgb.cube
TITLE "Post Formation Compression sRGB Compress lower intensity chroma by lowRMix=0.95, with mask power of maskPower=1.45 Compress Intensity with luminance coefficient by mixFactor=0.4"
# Compress post-formation intensity with luminance coefficient and compress lower intensity chroma. Resolution 33. This LUT expects BT.2020 with Illuminant D65 white point and power encoding of 2.4.
LUT_3D_SIZE 5
0.0000000 0.0000000 0.0000000
0.1199474 0.0414959 0.0414944
0.3004841 0.0426155 0.0426139
0.5288072 0.0178502 0.0178495
0.7474599 0.0000000 0.0000000
0.0345000 0.1074542 0.0344947
0.1682288 0.1682178 0.0936504
0.3302973 0.2010121 0.0717326
0.5456234 0.2007762 0.0283532
0.7635600 0.1908900 0.0000001
0.0343659 0.2684324 0.0343606
0.1903836 0.3146565 0.0660928
0.3618010 0.3617877 0.1130073
0.5609348 0.3895684 0.0468448
0.7796566 0.3898303 0.0000040
0.0139051 0.4712337 0.0139029
0.1855996 0.5077344 0.0245271
0.3762753 0.5423981 0.0440126
0.5786478 0.5786390 0.0743822
0.7956393 0.5967786 0.0001964
0.0000000 0.6644004 0.0000000
0.1753163 0.7012654 0.0000000
0.3690653 0.7381281 0.0000026
0.5812111 0.7748912 0.0001709
0.8107786 0.8107783 0.0025852
0.0587294 0.0587224 0.1305832
0.1992442 0.1075471 0.1992276
0.3793926 0.0566405 0.2180112
0.5959741 0.0118510 0.2065578
0.7944948 -0.0000000 0.1986237
0.0989828 0.1864339 0.1864303
0.2500000 0.2500000 0.2500000
0.4153321 0.2371818 0.2371797
0.6159322 0.2135960 0.2135956
0.8105949 0.2026487 0.2026488
0.0487546 0.3444287 0.1965870
0.2259747 0.3974267 0.2259663
0.4386627 0.4386506 0.2710832
0.6310584 0.4283129 0.2255692
0.8266950 0.4133475 0.2066738
0.0096393 0.5356347 0.1849700
0.1989995 0.5756491 0.1989979
0.4145505 0.6111818 0.2179135
0.6459914 0.6459859 0.2467694
0.8427951 0.6320964 0.2106988
-0.0000000 0.7114353 0.1778589
0.1870751 0.7483003 0.1870751
0.3925826 0.7851653 0.1962914
0.6165227 0.8220303 0.2055076
0.8588950 0.8588950 0.2147245
0.0706476 0.0706392 0.3096466
0.2329719 0.0925499 0.3733689
0.4301165 0.1148262 0.4300988
0.6454976 0.0160141 0.4356680
0.8415297 -0.0000000 0.4207649
0.0871804 0.2221707 0.3571681
0.2542244 0.2542140 0.4196585
0.4728669 0.2777088 0.4728542
0.6693992 0.2256726 0.4475356
0.8576298 0.2144075 0.4288150
0.1037217 0.3970419 0.3970381
0.2669417 0.4545378 0.4545350
0.4999999 0.4999999 0.5000000
0.6866232 0.4581479 0.4581479
0.8737299 0.4368650 0.4368650
0.0141572 0.5846070 0.3944560
0.2116743 0.6280850 0.4198794
0.4442879 0.6659042 0.4442879
0.7022762 0.7022753 0.4709097
0.8898300 0.6673725 0.4449151
-0.0000000 0.7584702 0.3792352
0.1988338 0.7953352 0.3976677
0.4161001 0.8322002 0.4161002
0.6517988 0.8690652 0.4345327
0.9059301 0.9059301 0.4529652
0.0467042 0.0466987 0.5332332
0.2286366 0.0479444 0.5900023
0.4427367 0.0465121 0.6408391
0.6857035 0.0480942 0.6856962
0.8885646 -0.0000000 0.6664236
0.0459555 0.2209180 0.5708521
0.2333112 0.2333068 0.6250459
0.4570548 0.2415127 0.6725899
0.7139279 0.2514375 0.7139249
0.9046647 0.2261662 0.6784987
0.0432934 0.4156248 0.6017915
0.2343860 0.4433692 0.6523546
0.4662985 0.4662977 0.6957139
0.7337840 0.4896494 0.7337839
0.9207648 0.4603824 0.6905737
0.0435959 0.6267175 0.6267160
0.2373535 0.6731555 0.6731548
0.4758401 0.7130380 0.7130381
0.7499999 0.7499999 0.7500000
0.9368649 0.7026487 0.7026488
-0.0000000 0.8055051 0.6041289
0.2105925 0.8423701 0.6317777
0.4396175 0.8792351 0.6594264
0.6870750 0.9161001 0.6870752
0.9529650 0.9529651 0.7147239
0.0016350 0.0016348 0.7860672
0.2063373 0.0001641 0.8248572
0.4309354 0.0000037 0.8618672
0.6740509 -0.0000000 0.8987346
0.9355995 -0.0000000 0.9355996
0.0001736 0.2011509 0.8040830
0.2102765 0.2102765 0.8411043
0.4389848 0.2194924 0.8779698
0.6861259 0.2287086 0.9148347
0.9516996 0.2379249 0.9516997
0.0000049 0.4101708 0.8203367
0.2143011 0.4286024 0.8572049
0.4470348 0.4470348 0.8940699
0.6982010 0.4654673 0.9309349
0.9677997 0.4838998 0.9677998
0.0000000 0.6273299 0.8364400
0.2183262 0.6549786 0.8733050
0.4550849 0.6826274 0.9101700
0.7102761 0.7102761 0.9470350
0.9838998 0.7379248 0.9838999
-0.0000000 0.8525400 0.8525401
0.2223512 0.8894049 0.8894051
0.4631349 0.9262699 0.9262701
0.7223511 0.9631349 0.9631351
0.9999999 0.9999999 1.0000001
