LUTs/post_formation_compression_p3.cube
TITLE "Post Formation Compression P3  Compress lower intensity chroma by lowRMix=0.6 Compress Intensity with luminance coefficient by mixFactor=0.35"
# Compress post-formation lower intensity chroma and intensity with luminance coefficient. Resolution 33. This LUT expects BT.2020 with Illuminant D65 white point and power encoding of 2.4.
LUT_3D_SIZE 33
0.0000000 0.0000000 0.0000000
0.0170856 0.0036594 0.0036593
0.0356820 0.0063366 0.0063363
0.0552498 0.0084108 0.0084105
0.0755935 0.0100158 0.0100154
0.0965975 0.0112290 0.0112286
0.1181816 0.0121031 0.0121027
0.1402849 0.0126775 0.0126771
0.1628577 0.0129838 0.0129833
0.1858574 0.0130483 0.0130478
0.2092464 0.0128945 0.0128940
0.2329893 0.0125434 0.0125429
0.2570525 0.0120151 0.0120147
0.2814026 0.0113294 0.0113290
0.3060051 0.0105059 0.0105056
0.3308239 0.0095655 0.0095652
0.3558197 0.0085303 0.0085300
0.3809488 0.0074248 0.0074245
0.4061620 0.0062764 0.0062762
0.4314028 0.0051166 0.0051164
0.4566059 0.0039814 0.0039812
0.4816963 0.0029121 0.0029120
0.5065901 0.0019550 0.0019549
0.5311991 0.0011587 0.0011587
0.5554442 0.0005666 0.0005666
0.5792842 0.0002012 0.0002012
0.6027593 0.0000397 0.0000397
0.6260120 0.0000023 0.0000023
0.6492019 0.0000000 0.0000000
0.6723876 0.0000000 0.0000000
0.6955734 0.0000000 0.0000000
0.7187592 0.0000000 0.0000000
0.7419450 0.0000000 0.0000000
0.0037587 0.0190975 0.0037581
0.0249958 0.0249948 0.0089750
0.0434637 0.0270914 0.0107199
0.0629581 0.0291315 0.0122184
0.0832438 0.0308546 0.0133915
0.1041978 0.0322401 0.0142506
0.1257375 0.0333063 0.0148199
0.1478007 0.0340783 0.0151243
0.1703372 0.0345808 0.0151867
0.1933042 0.0348369 0.0150282
0.2166637 0.0348682 0.0146684
0.2403804 0.0346948 0.0141259
0.2644205 0.0343360 0.0134189
0.2887506 0.0338110 0.0125657
0.3133364 0.0331391 0.0115852
0.3381418 0.0323406 0.0104974
0.3631278 0.0314371 0.0093241
0.3882510 0.0304523 0.0080897
0.4134624 0.0294129 0.0068215
0.4387056 0.0283491 0.0055513
0.4639157 0.0272958 0.0043157
0.4890177 0.0262932 0.0031569
0.5139275 0.0253862 0.0021223
0.5385560 0.0246225 0.0012619
0.5628222 0.0240459 0.0006209
0.5866814 0.0236813 0.0002229
0.6101695 0.0235112 0.0000449
0.6334272 0.0234628 0.0000027
0.6566175 0.0234506 0.0000000
0.6798033 0.0234415 0.0000000
0.7029890 0.0234330 0.0000000
0.7261748 0.0234250 0.0000000
0.7493606 0.0234175 0.0000000
0.0065519 0.0403473 0.0065509
0.0283536 0.0457342 0.0109700
0.0511492 0.0511473 0.0160816
0.0705091 0.0525950 0.0167702
0.0907197 0.0540346 0.0173509
0.1116231 0.0552952 0.0177440
0.1331239 0.0563261 0.0179275
0.1551551 0.0571162 0.0179009
0.1776643 0.0576700 0.0176719
0.2006076 0.0579979 0.0172522
0.2239466 0.0581134 0.0166550
0.2476458 0.0580313 0.0158946
0.2716713 0.0577673 0.0149863
0.2959898 0.0573375 0.0139460
0.3205672 0.0567592 0.0127910
0.3453676 0.0560508 0.0115403
0.3703521 0.0552321 0.0102148
0.3954777 0.0543254 0.0088383
0.4206956 0.0533558 0.0074381
0.4459500 0.0523519 0.0060461
0.4711760 0.0513470 0.0046992
0.4962987 0.0503794 0.0034405
0.5212338 0.0494926 0.0023184
0.5458909 0.0487333 0.0013849
0.5701867 0.0481452 0.0006869
0.5940721 0.0477560 0.0002502
0.6175778 0.0475537 0.0000517
0.6408420 0.0474728 0.0000033
0.6640331 0.0474309 0.0000000
0.6872189 0.0473944 0.0000000
0.7104047 0.0473603 0.0000000
0.7335905 0.0473284 0.0000000
0.7567762 0.0472985 0.0000000
0.0087355 0.0629804 0.0087342
0.0310918 0.0680314 0.0126194
0.0543379 0.0729733 0.0170605
0.0780552 0.0780527 0.0219774
0.0981359 0.0790687 0.0218740
0.1189576 0.0800601 0.0217170
0.1404037 0.0809231 0.0214443
0.1623958 0.0816141 0.0210289
0.1848756 0.0821162 0.0204612
0.2077963 0.0824259 0.0197411
0.2311177 0.0825466 0.0188735
0.2548035 0.0824862 0.0178673
0.2788194 0.0822548 0.0167333
0.3031318 0.0818648 0.0154846
0.3277067 0.0813300 0.0141363
0.3525083 0.0806662 0.0127056
0.3774979 0.0798910 0.0112124
0.4026329 0.0790243 0.0096796
0.4278647 0.0780893 0.0081341
0.4531379 0.0771125 0.0066077
0.4783878 0.0761252 0.0051376
0.5035397 0.0751637 0.0037676
0.5285086 0.0742694 0.0025474
0.5532031 0.0734879 0.0015306
0.5775367 0.0728630 0.0007668
0.6014555 0.0724247 0.0002841
0.6249837 0.0721671 0.0000606
0.6482567 0.0720321 0.0000041
0.6714487 0.0719410 0.0000000
0.6946345 0.0718587 0.0000000
0.7178203 0.0717820 0.0000000
0.7410061 0.0717103 0.0000000
0.7641919 0.0716430 0.0000000
0.0104372 0.0867174 0.0104356
0.0333051 0.0914991 0.0139044
0.0569722 0.0961147 0.0178248
0.0811223 0.1007670 0.0221771
0.1055690 0.1055658 0.0268978
0.1262704 0.1062427 0.0261430
0.1476345 0.1068759 0.0253639
0.1695695 0.1074011 0.0245128
0.1920090 0.1077858 0.0235646
0.2149008 0.1080148 0.0225073
0.2382017 0.1080826 0.0213375
0.2618734 0.1079901 0.0200573
0.2858808 0.1077420 0.0186730
0.3101895 0.1073463 0.0171940
0.3347652 0.1068132 0.0156326
0.3595721 0.1061555 0.0140041
0.3845716 0.1053879 0.0123267
0.4097212 0.1045280 0.0106224
0.4349728 0.1035964 0.0089175
0.4602712 0.1026176 0.0072432
0.4855521 0.1016202 0.0056371
0.5107407 0.1006383 0.0041436
0.5357515 0.0997114 0.0028135
0.5604916 0.0988832 0.0017025
0.5848713 0.0981976 0.0008628
0.6088308 0.0976868 0.0003260
0.6323868 0.0973512 0.0000720
0.6556709 0.0971408 0.0000052
0.6788643 0.0969806 0.0000000
0.7020501 0.0968345 0.0000000
0.7252359 0.0966981 0.0000000
0.7484217 0.0965705 0.0000000
0.7716075 0.0964509 0.0000000
0.0117316 0.1113935 0.0117298
0.0350703 0.1159435 0.0148492
0.0591313 0.1203057 0.0183440
0.0836737 0.1246378 0.0222202
0.1085331 0.1290505 0.0264470
0.1336060 0.1336023 0.0309796
0.1548599 0.1339912 0.0296641
0.1767158 0.1343217 0.0283437
0.1990985 0.1345530 0.0269813
0.2219500 0.1346622 0.0255553
0.2452227 0.1346374 0.0240541
0.2688757 0.1344738 0.0224736
0.2928721 0.1341716 0.0208150
0.3171763 0.1337344 0.0190840
0.3417535 0.1331693 0.0172897
0.3665675 0.1324857 0.0154451
0.3915797 0.1316956 0.0135667
0.4167477 0.1308141 0.0116752
0.4420236 0.1298591 0.0097959
0.4673524 0.1288524 0.0079596
0.4926701 0.1278205 0.0062040
0.5179020 0.1267948 0.0045738
0.5429620 0.1258124 0.0031213
0.5677555 0.1249153 0.0019041
0.5921892 0.1241468 0.0009777
0.6161969 0.1235415 0.0003776
0.6397865 0.1231059 0.0000868
0.6630846 0.1227990 0.0000068
0.6862799 0.1225500 0.0000000
0.7094658 0.1223217 0.0000000
0.7326515 0.1221086 0.0000000
0.7558373 0.1219093 0.0000000
0.7790231 0.1217224 0.0000000
0.0126705 0.1368940 0.0126685
0.0364442 0.1412383 0.0154827
0.0608759 0.1453890 0.0186154
0.0857787 0.1494684 0.0220831
0.1110117 0.1535753 0.0258743
0.1364772 0.1577757 0.0299625
0.1621090 0.1621050 0.0343156
0.1838644 0.1622384 0.0325045
0.2061724 0.1623027 0.0307034
0.2289692 0.1622720 0.0288831
0.2522030 0.1621305 0.0270256
0.2758295 0.1618699 0.0251210
0.2998094 0.1614867 0.0231659
0.3241059 0.1609815 0.0211620
0.3486829 0.1603581 0.0191155
0.3735037 0.1596231 0.0170368
0.3985295 0.1587860 0.0149404
0.4237177 0.1578591 0.0128457
0.4490208 0.1568579 0.0107767
0.4743839 0.1558017 0.0087639
0.4997432 0.1547141 0.0068446
0.5250239 0.1536240 0.0050641
0.5501396 0.1525659 0.0034759
0.5749937 0.1515798 0.0021397
0.5994892 0.1507082 0.0011146
0.6235527 0.1499876 0.0004408
0.6471821 0.1494310 0.0001057
0.6704977 0.1490065 0.0000090
0.6936955 0.1486491 0.0000001
0.7168814 0.1483203 0.0000000
0.7400672 0.1480134 0.0000000
0.7632530 0.1477264 0.0000000
0.7864387 0.1474573 0.0000000
0.0132928 0.1631314 0.0132907
0.0374708 0.1672900 0.0158315
0.0622524 0.1712566 0.0186470
0.0874905 0.1751274 0.0217575
0.1130655 0.1789868 0.0251626
0.1388879 0.1828986 0.0288483
0.1648936 0.1869056 0.0327935
0.1910357 0.1910314 0.0369746
0.2132521 0.1909319 0.0347181
0.2359794 0.1907556 0.0324842
0.2591619 0.1904861 0.0302499
0.2827521 0.1901135 0.0280007
0.3067081 0.1896321 0.0257291
0.3309912 0.1890402 0.0234331
0.3555642 0.1883393 0.0211160
0.3803896 0.1875336 0.0187857
0.4054281 0.1866301 0.0164548
0.4306369 0.1856389 0.0141409
0.4559686 0.1845729 0.0118670
0.4813684 0.1834489 0.0096628
0.5067727 0.1822878 0.0075653
0.5321069 0.1811157 0.0056203
0.5572837 0.1799645 0.0038823
0.5822051 0.1788718 0.0024135
0.6067698 0.1778789 0.0012768
0.6308968 0.1770240 0.0005179
0.6545729 0.1763260 0.0001298
0.6779098 0.1757633 0.0000120
0.7011111 0.1752779 0.0000001
0.7242970 0.1748303 0.0000000
0.7474828 0.1744127 0.0000000
0.7706686 0.1740219 0.0000000
0.7938544 0.1736556 0.0000000
0.0136301 0.1900347 0.0136280
0.0381853 0.1940237 0.0159200
0.0632982 0.1978264 0.0184518
0.0888506 0.2015193 0.0212446
0.1147418 0.2051729 0.0243040
0.1408916 0.2088459 0.0276247
0.1672387 0.2125817 0.0311939
0.1937376 0.2164102 0.0349950
0.2203528 0.2203482 0.0390102
0.2429967 0.2200322 0.0363491
0.2661153 0.2196338 0.0337221
0.2896584 0.2191432 0.0311113
0.3135816 0.2185544 0.0285057
0.3378444 0.2178644 0.0259004
0.3624081 0.2170730 0.0232958
0.3872342 0.2161827 0.0206974
0.4122828 0.2151986 0.0181159
0.4375111 0.2141284 0.0155672
0.4628712 0.2129830 0.0130732
0.4883089 0.2117766 0.0106627
0.5137605 0.2105275 0.0083724
0.5391515 0.2092589 0.0062483
0.5643941 0.2079999 0.0043461
0.5893885 0.2067853 0.0027304
0.6140294 0.2056552 0.0014682
0.6382276 0.2046487 0.0006116
0.6619577 0.2037905 0.0001607
0.6853208 0.2030695 0.0000163
0.7085267 0.2024363 0.0000002
0.7317126 0.2018518 0.0000000
0.7548984 0.2013063 0.0000000
0.7780842 0.2007959 0.0000000
0.8012700 0.2003175 0.0000000
0.0137095 0.2175427 0.0137074
0.0386177 0.2213761 0.0157702
0.0640441 0.2250309 0.0180445
0.0898928 0.2285685 0.0205506
0.1160787 0.2320478 0.0232976
0.1425307 0.2355204 0.0262857
0.1691920 0.2390282 0.0295083
0.1960181 0.2426023 0.0329547
0.2229745 0.2462648 0.0366121
0.2500330 0.2500283 0.0404664
0.2730760 0.2495080 0.0374351
0.2965611 0.2489013 0.0344491
0.3204420 0.2482027 0.0314949
0.3446764 0.2474093 0.0285650
0.3692241 0.2465202 0.0256575
0.3940458 0.2455365 0.0227758
0.4191008 0.2444619 0.0199285
0.4443458 0.2433024 0.0171301
0.4697332 0.2420666 0.0144012
0.4952085 0.2407666 0.0117698
0.5207085 0.2394181 0.0092721
0.5461585 0.2380415 0.0069542
0.5714705 0.2366627 0.0048730
0.5965429 0.2353140 0.0030955
0.6212664 0.2340331 0.0016931
0.6455436 0.2328597 0.0007250
0.6693353 0.2318237 0.0001999
0.6927300 0.2309249 0.0000223
0.7159422 0.2301245 0.0000003
0.7391283 0.2293846 0.0000000
0.7623140 0.2286942 0.0000000
0.7854998 0.2280483 0.0000000
0.8086856 0.2274428 0.0000000
0.0135547 0.2456010 0.0135526
0.0387940 0.2492912 0.0154028
0.0645174 0.2528115 0.0174407
0.0906460 0.2562117 0.0196852
0.1171078 0.2595408 0.0221473
0.1438405 0.2628437 0.0248305
0.1707921 0.2661587 0.0277330
0.1979201 0.2695165 0.0308485
0.2251905 0.2729406 0.0341685
0.2525761 0.2764480 0.0376828
0.2800535 0.2800486 0.0413804
0.3034703 0.2793335 0.0380088
0.3272994 0.2785287 0.0346941
0.3514969 0.2776319 0.0314267
0.3760214 0.2766426 0.0282027
0.4008325 0.2755612 0.0250237
0.4258889 0.2743905 0.0218967
0.4511470 0.2731350 0.0188345
0.4765590 0.2718016 0.0158565
0.5020706 0.2704002 0.0129898
0.5276187 0.2689440 0.0102702
0.5531289 0.2674507 0.0077438
0.5785128 0.2659431 0.0054687
0.6036674 0.2644502 0.0035141
0.6284794 0.2630075 0.0019562
0.6528429 0.2616541 0.0008617
0.6767045 0.2604245 0.0002495
0.7001371 0.2593294 0.0000307
0.7233576 0.2583423 0.0000005
0.7465439 0.2574289 0.0000000
0.7697297 0.2565766 0.0000000
0.7929155 0.2557792 0.0000000
0.8161012 0.2550316 0.0000000
0.0131879 0.2741588 0.0131859
0.0387380 0.2777171 0.0148376
0.0647424 0.2811150 0.0166566
0.0911355 0.2843928 0.0186604
0.1178565 0.2875914 0.0208605
0.1448508 0.2907493 0.0232628
0.1720714 0.2939007 0.0258685
0.1994786 0.2970747 0.0286751
0.2270394 0.3002946 0.0316774
0.2547268 0.3035789 0.0348685
0.2825184 0.3069411 0.0382404
0.3103942 0.3103893 0.0417844
0.3341623 0.3094864 0.0380996
0.3583142 0.3084910 0.0344839
0.3828078 0.3074032 0.0309318
0.4076015 0.3062238 0.0274431
0.4326536 0.3049550 0.0240235
0.4579202 0.3036003 0.0206842
0.4833532 0.3021652 0.0174438
0.5088985 0.3006576 0.0143281
0.5344935 0.2990885 0.0113725
0.5600639 0.2974727 0.0086232
0.5855212 0.2958299 0.0061391
0.6107612 0.2941857 0.0039919
0.6356668 0.2925726 0.0022624
0.6601238 0.2910287 0.0010255
0.6840637 0.2895916 0.0003120
0.7075414 0.2882826 0.0000423
0.7307729 0.2870898 0.0000008
0.7539595 0.2859847 0.0000000
0.7771453 0.2849533 0.0000000
0.8003311 0.2839885 0.0000000
0.8235169 0.2830839 0.0000000
0.0126302 0.3031674 0.0126283
0.0384721 0.3066046 0.0140941
0.0647418 0.3098909 0.0157092
0.0913848 0.3130595 0.0174899
0.1183493 0.3161443 0.0194476
0.1455877 0.3191779 0.0215896
0.1730581 0.3221906 0.0239192
0.2007238 0.3252086 0.0264366
0.2285534 0.3282547 0.0291396
0.2565205 0.3313472 0.0320240
0.2846025 0.3345010 0.0350843
0.3127807 0.3377272 0.0383143
0.3410374 0.3410325 0.0417069
0.3651356 0.3399469 0.0377342
0.3895903 0.3387662 0.0338439
0.4143596 0.3374920 0.0300348
0.4394011 0.3361265 0.0263110
0.4646706 0.3346725 0.0226827
0.4901202 0.3331345 0.0191671
0.5156959 0.3315189 0.0157894
0.5413354 0.3298343 0.0125843
0.5669650 0.3280929 0.0095980
0.5924961 0.3263112 0.0068901
0.6178236 0.3245112 0.0045346
0.6428271 0.3227219 0.0026170
0.6673843 0.3209793 0.0012209
0.6914111 0.3193230 0.0003904
0.7149419 0.3177843 0.0000582
0.7381879 0.3163670 0.0000014
0.7613751 0.3150518 0.0000000
0.7845609 0.3138244 0.0000000
0.8077467 0.3126762 0.0000000
0.8309325 0.3115997 0.0000000
0.0119027 0.3325782 0.0119008
0.0380179 0.3359045 0.0131919
0.0645377 0.3390898 0.0146166
0.0914160 0.3421613 0.0161893
0.1186089 0.3451470 0.0179215
0.1460752 0.3480745 0.0198211
0.1737775 0.3509698 0.0218929
0.2016825 0.3538565 0.0241391
0.2297607 0.3567556 0.0265598
0.2579866 0.3596850 0.0291530
0.2863381 0.3626595 0.0319156
0.3147961 0.3656915 0.0348434
0.3433443 0.3687904 0.0379314
0.3719669 0.3719621 0.0411742
0.3963751 0.3706971 0.0369376
0.4211126 0.3693343 0.0327987
0.4461368 0.3678762 0.0287606
0.4714034 0.3663258 0.0248323
0.4968644 0.3646866 0.0210301
0.5224662 0.3629636 0.0173782
0.5481471 0.3611635 0.0139107
0.5738338 0.3592960 0.0106737
0.5994381 0.3573742 0.0077274
0.6248542 0.3554165 0.0051480
0.6499590 0.3534478 0.0030257
0.6746225 0.3515010 0.0014528
0.6987448 0.3496164 0.0004880
0.7223376 0.3478336 0.0000800
0.7456026 0.3461739 0.0000023
0.7687908 0.3446304 0.0000000
0.7919765 0.3431898 0.0000000
0.8151623 0.3418423 0.0000000
0.8383481 0.3405789 0.0000000
0.0110266 0.3623414 0.0110249
0.0373975 0.3655669 0.0121517
0.0641517 0.3686615 0.0133978
0.0912508 0.3716474 0.0147762
0.1186572 0.3745477 0.0162978
0.1463356 0.3773853 0.0179707
0.1742529 0.3801824 0.0198010
0.2023789 0.3829597 0.0217922
0.2306865 0.3857363 0.0239460
0.2591514 0.3885287 0.0262627
0.2877521 0.3913515 0.0287408
0.3164699 0.3942172 0.0313782
0.3452880 0.3971359 0.0341715
0.3741920 0.4001161 0.0371172
0.4031674 0.4031627 0.0402107
0.4278660 0.4017200 0.0357342
0.4528661 0.4001764 0.0313729
0.4781233 0.3985347 0.0271350
0.5035901 0.3967983 0.0230356
0.5292131 0.3949709 0.0190982
0.5549313 0.3930577 0.0153562
0.5806721 0.3910658 0.0118555
0.6063480 0.3890052 0.0086568
0.6318530 0.3868903 0.0058381
0.6570615 0.3847416 0.0034942
0.6818366 0.3825880 0.0017263
0.7060628 0.3804686 0.0006087
0.7297273 0.3784298 0.0001095
0.7530167 0.3765103 0.0000039
0.7762064 0.3747203 0.0000000
0.7993922 0.3730497 0.0000000
0.8225780 0.3714868 0.0000000
0.8457637 0.3700216 0.0000000
0.0100247 0.3924042 0.0100231
0.0366334 0.3955391 0.0109955
0.0636063 0.3985534 0.0120739
0.0909111 0.4014650 0.0132702
0.1185162 0.4042928 0.0145946
0.1463910 0.4070558 0.0160551
0.1745065 0.4097725 0.0176585
0.2028359 0.4124607 0.0194092
0.2313543 0.4151371 0.0213106
0.2600389 0.4178170 0.0233641
0.2888694 0.4205139 0.0255703
0.3178271 0.4232400 0.0279284
0.3468957 0.4260056 0.0304370
0.3760602 0.4288196 0.0330937
0.4053075 0.4316895 0.0358958
0.4346242 0.4346197 0.0388400
0.4595934 0.4329994 0.0341480
0.4848348 0.4312739 0.0295919
0.5103013 0.4294464 0.0251860
0.5359401 0.4275199 0.0209527
0.5616909 0.4254981 0.0169250
0.5874821 0.4233858 0.0131483
0.6132271 0.4211899 0.0096837
0.6388200 0.4189207 0.0066108
0.6641336 0.4165940 0.0040285
0.6890248 0.4142336 0.0020471
0.7133631 0.4118759 0.0007570
0.7371093 0.4095714 0.0001491
0.7604299 0.4073762 0.0000065
0.7836220 0.4053217 0.0000000
0.8068078 0.4034039 0.0000000
0.8299936 0.4016098 0.0000000
0.8531794 0.3999278 0.0000000
0.0089211 0.4227094 0.0089198
0.0357498 0.4257641 0.0097472
0.0629251 0.4287086 0.0106685
0.0904201 0.4315575 0.0116940
0.1182083 0.4343257 0.0128333
0.1462634 0.4370287 0.0140945
0.1745605 0.4396819 0.0154842
0.2030756 0.4423001 0.0170080
0.2317863 0.4448977 0.0186699
0.2606717 0.4474881 0.0204729
0.2897124 0.4500838 0.0224188
0.3188906 0.4526961 0.0245084
0.3481901 0.4553351 0.0267416
0.3775961 0.4580098 0.0291176
0.4070951 0.4607279 0.0316349
0.4366749 0.4634961 0.0342917
0.4663229 0.4663186 0.0370854
0.4915420 0.4645186 0.0322038
0.5170019 0.4626081 0.0274829
0.5426506 0.4605896 0.0229446
0.5684287 0.4584656 0.0186209
0.5942659 0.4562387 0.0145567
0.6200765 0.4539130 0.0108134
0.6457555 0.4514948 0.0074719
0.6711746 0.4489944 0.0046349
0.6961854 0.4464301 0.0024211
0.7206433 0.4438335 0.0009379
0.7444821 0.4412567 0.0002016
0.7678418 0.4387714 0.0000108
0.7910376 0.4364346 0.0000000
0.8142234 0.4342525 0.0000000
0.8374092 0.4322112 0.0000000
0.8605950 0.4302975 0.0000000
0.0077430 0.4531935 0.0077419
0.0347731 0.4561788 0.0084339
0.0621336 0.4590646 0.0092080
0.0898025 0.4618625 0.0100736
0.1177574 0.4645842 0.0110394
0.1459763 0.4672420 0.0121131
0.1744376 0.4698481 0.0133017
0.2031204 0.4724149 0.0146109
0.2320048 0.4749542 0.0160456
0.2610716 0.4774777 0.0176098
0.2903029 0.4799962 0.0193064
0.3196818 0.4825199 0.0211375
0.3491926 0.4850585 0.0231042
0.3788205 0.4876205 0.0252072
0.4085523 0.4902137 0.0274463
0.4383752 0.4928450 0.0298208
0.4682780 0.4955207 0.0323295
0.4982486 0.4982445 0.0349707
0.5236954 0.4962606 0.0299278
0.5493479 0.4941589 0.0250761
0.5751477 0.4919407 0.0204471
0.6010257 0.4896070 0.0160850
0.6268979 0.4871590 0.0120510
0.6526602 0.4845987 0.0084271
0.6781841 0.4819315 0.0053193
0.7033170 0.4791688 0.0028546
0.7279013 0.4763358 0.0011568
0.7518434 0.4734832 0.0002707
0.7752518 0.4706954 0.0000175
0.7984532 0.4680588 0.0000000
0.8216390 0.4655955 0.0000000
0.8448248 0.4632910 0.0000000
0.8680106 0.4611306 0.0000000
0.0065208 0.4837850 0.0065198
0.0337329 0.4867121 0.0070859
0.0612605 0.4895508 0.0077229
0.0890856 0.4923100 0.0084392
0.1171897 0.4949987 0.0092426
0.1455546 0.4976261 0.0101404
0.1741619 0.5002019 0.0111395
0.2029936 0.5027356 0.0122459
0.2320323 0.5052371 0.0134651
0.2612606 0.5077157 0.0148015
0.2906622 0.5101807 0.0162593
0.3202214 0.5126412 0.0178413
0.3499230 0.5151056 0.0195502
0.3797529 0.5175819 0.0213876
0.4096976 0.5200776 0.0233546
0.4397448 0.5225996 0.0254518
0.4698825 0.5251542 0.0276790
0.5000999 0.5277469 0.0300358
0.5303854 0.5303816 0.0325213
0.5560354 0.5282068 0.0273491
0.5818507 0.5259040 0.0224063
0.6077640 0.5234727 0.0177367
0.6336929 0.5209113 0.0134010
0.6595348 0.5182182 0.0094819
0.6851618 0.5153929 0.0060880
0.7104182 0.5124399 0.0033538
0.7351349 0.5093762 0.0014197
0.7591912 0.5062476 0.0003604
0.7826589 0.5031478 0.0000279
0.8058688 0.5001945 0.0000001
0.8290547 0.4974328 0.0000000
0.8522405 0.4948493 0.0000000
0.8754262 0.4924273 0.0000000
0.0052893 0.5144018 0.0052885
0.0326628 0.5172826 0.0057385
0.0603379 0.5200865 0.0062487
0.0883000 0.5228200 0.0068263
0.1165345 0.5254896 0.0074784
0.1450261 0.5281020 0.0082117
0.1737599 0.5306644 0.0090329
0.2027205 0.5331839 0.0099479
0.2318927 0.5356679 0.0109626
0.2612615 0.5381240 0.0120821
0.2908121 0.5405596 0.0133110
0.3205299 0.5429822 0.0146534
0.3504009 0.5453991 0.0161126
0.3804114 0.5478174 0.0176914
0.4105485 0.5502439 0.0193922
0.4407997 0.5526852 0.0212165
0.4711530 0.5551473 0.0231655
0.5015973 0.5576360 0.0252399
0.5321220 0.5601565 0.0274397
0.5627159 0.5627124 0.0297648
0.5885406 0.5603360 0.0245011
0.6144832 0.5578176 0.0195154
0.6404633 0.5551534 0.0148679
0.6663806 0.5523380 0.0106415
0.6921079 0.5493655 0.0069470
0.7174879 0.5462326 0.0039254
0.7423418 0.5429470 0.0017329
0.7665230 0.5395459 0.0004755
0.7900620 0.5361276 0.0000437
0.8132844 0.5328416 0.0000002
0.8364703 0.5297645 0.0000000
0.8596561 0.5268860 0.0000000
0.8828419 0.5241874 0.0000000
0.0040882 0.5449497 0.0040876
0.0316011 0.5477967 0.0044322
0.0594025 0.5505788 0.0048265
0.0874809 0.5533002 0.0052766
0.1158249 0.5559653 0.0057888
0.1444225 0.5585786 0.0063693
0.1732614 0.5611450 0.0070242
0.2023290 0.5636693 0.0077595
0.2316126 0.5661568 0.0085811
0.2610991 0.5686131 0.0094944
0.2907755 0.5710437 0.0105045
0.3206288 0.5734544 0.0116163
0.3506460 0.5758513 0.0128339
0.3808143 0.5782401 0.0141611
0.4111213 0.5806270 0.0156013
0.4415547 0.5830176 0.0171571
0.4721027 0.5854177 0.0188308
0.5027540 0.5878327 0.0206243
0.5334977 0.5902679 0.0225387
0.5643234 0.5927281 0.0245749
0.5952201 0.5952170 0.0267333
0.6211857 0.5926233 0.0214240
0.6472112 0.5898681 0.0164556
0.6731986 0.5869425 0.0119109
0.6990227 0.5838353 0.0079022
0.7245255 0.5805352 0.0045760
0.7495202 0.5770392 0.0021033
0.7738362 0.5733731 0.0006216
0.7974598 0.5696333 0.0000672
0.8206998 0.5660000 0.0000004
0.8438859 0.5625906 0.0000000
0.8670717 0.5594011 0.0000000
0.8902575 0.5564109 0.0000000
0.0029631 0.5753212 0.0029627
0.0305917 0.5781476 0.0032135
0.0584963 0.5809212 0.0035036
0.0866684 0.5836445 0.0038384
0.1150992 0.5863201 0.0042230
0.1437798 0.5889505 0.0046630
0.1727004 0.5915384 0.0051642
0.2018512 0.5940869 0.0057321
0.2312216 0.5965991 0.0063726
0.2608010 0.5990785 0.0070911
0.2905780 0.6015290 0.0078932
0.3205413 0.6039547 0.0087841
0.3506792 0.6063599 0.0097687
0.3809800 0.6087491 0.0108515
0.4114321 0.6111273 0.0120369
0.4420236 0.6134992 0.0133286
0.4727430 0.6158697 0.0147298
0.5035792 0.6182439 0.0162436
0.5345210 0.6206265 0.0178722
0.5655577 0.6230224 0.0196177
0.5966790 0.6254362 0.0214816
0.6278741 0.6278713 0.0234650
0.6539387 0.6250380 0.0181677
0.6799905 0.6220156 0.0132947
0.7059069 0.6187875 0.0089592
0.7315303 0.6153349 0.0053122
0.7566682 0.6116429 0.0025378
0.7811280 0.6077228 0.0008049
0.8048503 0.6036631 0.0001014
0.8281151 0.5996698 0.0000008
0.8513015 0.5959111 0.0000000
0.8744873 0.5923947 0.0000000
0.8976731 0.5890980 0.0000000
0.0019642 0.6053977 0.0019639
0.0296832 0.6082165 0.0021337
0.0576662 0.6109948 0.0023330
0.0859073 0.6137338 0.0025659
0.1144004 0.6164343 0.0028368
0.1431390 0.6190975 0.0031506
0.1721159 0.6217241 0.0035121
0.2013237 0.6243156 0.0039266
0.2307542 0.6268732 0.0043996
0.2603989 0.6293986 0.0049364
0.2902485 0.6318940 0.0055426
0.3202935 0.6343615 0.0062238
0.3505236 0.6368040 0.0069852
0.3809286 0.6392245 0.0078321
0.4114977 0.6416263 0.0087695
0.4422200 0.6440132 0.0098021
0.4730845 0.6463890 0.0109341
0.5040802 0.6487578 0.0121696
0.5351961 0.6511239 0.0135120
0.5664214 0.6534914 0.0149645
0.5977455 0.6558648 0.0165298
0.6291579 0.6582484 0.0182102
0.6606478 0.6606455 0.0200074
0.6867578 0.6575405 0.0147973
0.7127612 0.6542070 0.0101236
0.7385021 0.6506181 0.0061404
0.7637841 0.6467469 0.0030437
0.7883959 0.6425877 0.0010322
0.8122315 0.6382141 0.0001501
0.8355300 0.6338508 0.0000019
0.8587172 0.6297259 0.0000000
0.8819030 0.6258666 0.0000000
0.9050887 0.6222485 0.0000000
0.0011431 0.6350571 0.0011429
0.0289262 0.6378804 0.0012463
0.0569617 0.6406754 0.0013698
0.0852461 0.6434420 0.0015165
0.1137755 0.6461801 0.0016900
0.1425455 0.6488894 0.0018940
0.1715514 0.6515697 0.0021328
0.2007880 0.6542208 0.0024107
0.2302495 0.6568424 0.0027328
0.2599295 0.6594348 0.0031040
0.2898208 0.6619982 0.0035297
0.3199158 0.6645334 0.0040153
0.3502062 0.6670415 0.0045664
0.3806831 0.6695239 0.0051886
0.4113372 0.6719824 0.0058873
0.4421587 0.6744192 0.0066679
0.4731375 0.6768368 0.0075357
0.5042630 0.6792383 0.0084956
0.5355248 0.6816267 0.0095522
0.5669120 0.6840057 0.0107098
0.5984141 0.6863787 0.0119724
0.6300203 0.6887497 0.0133433
0.6617200 0.6911225 0.0148259
0.6935024 0.6935004 0.0164226
0.7195868 0.6900777 0.0114004
0.7454410 0.6863703 0.0070672
0.7708668 0.6823389 0.0036284
0.7956370 0.6779589 0.0013108
0.8196007 0.6732824 0.0002182
