LUTs/post_formation_compression_srgb.cube
TITLE "Post Formation Compression sRGB Compress lower intensity chroma by lowRMix=0.95, with mask power of maskPower=1.45 Compress Intensity with luminance coefficient by mixFactor=0.4"
# Compress post-formation intensity with luminance coefficient and compress lower intensity chroma. Resolution 33. This LUT expects BT.2020 with Illuminant D65 white point and power encoding of 2.4.
LUT_3D_SIZE 33
0.0000000 0.0000000 0.0000000
0.0112714 0.0084004 0.0084001
0.0236977 0.0156276 0.0156270
0.0372069 0.0218727 0.0218719
0.0517611 0.0272519 0.0272509
0.0673328 0.0318476 0.0318464
0.0839002 0.0357222 0.0357209
0.1014441 0.0389250 0.0389235
0.1199474 0.0414959 0.0414944
0.1393935 0.0434686 0.0434670
0.1597664 0.0448716 0.0448700
0.1810499 0.0457303 0.0457286
0.2032270 0.0460675 0.0460658
0.2262799 0.0459043 0.0459026
0.2501888 0.0452611 0.0452594
0.2749319 0.0441580 0.0441563
0.3004841 0.0426155 0.0426139
0.3268165 0.0406553 0.0406538
0.3538946 0.0383013 0.0382999
0.3816768 0.0355803 0.0355790
0.4101123 0.0325236 0.0325224
0.4391371 0.0291689 0.0291679
0.4686700 0.0255629 0.0255620
0.4986061 0.0217645 0.0217637
0.5288072 0.0178502 0.0178495
0.5590889 0.0139210 0.0139205
0.5892033 0.0101120 0.0101117
0.6188172 0.0066042 0.0066039
0.6474977 0.0036322 0.0036321
0.6747435 0.0014680 0.0014680
0.7001812 0.0003124 0.0003124
0.7240796 0.0000123 0.0000124
0.7474599 0.0000000 0.0000000
0.0073460 0.0101383 0.0073449
0.0195156 0.0195136 0.0167651
0.0315742 0.0275791 0.0235859
0.0447546 0.0345222 0.0294066
0.0589974 0.0405240 0.0343663
0.0742683 0.0456961 0.0385528
0.0905423 0.0501163 0.0420306
0.1077991 0.0538426 0.0448491
0.1260204 0.0569208 0.0470485
0.1451893 0.0593879 0.0486616
0.1652897 0.0612752 0.0497168
0.1863050 0.0626095 0.0502387
0.2082185 0.0634149 0.0502496
0.2310122 0.0637131 0.0497702
0.2546668 0.0635247 0.0488202
0.2791605 0.0628699 0.0474193
0.3044688 0.0617690 0.0455877
0.3305633 0.0602431 0.0433468
0.3574102 0.0583152 0.0407201
0.3849689 0.0560111 0.0377345
0.4131895 0.0533607 0.0344213
0.4420097 0.0503997 0.0308183
0.4713502 0.0471722 0.0269724
0.5011083 0.0437338 0.0229433
0.5311491 0.0401566 0.0188085
0.5612923 0.0365358 0.0146705
0.5912946 0.0329990 0.0106668
0.6208290 0.0297174 0.0069821
0.6494679 0.0269146 0.0038569
0.6767108 0.0248530 0.0015723
0.7021724 0.0237352 0.0003408
0.7260901 0.0234359 0.0000141
0.7494724 0.0234210 0.0000000
0.0135209 0.0212990 0.0135188
0.0264349 0.0303819 0.0224818
0.0394972 0.0394934 0.0318716
0.0522863 0.0472936 0.0373157
0.0661772 0.0540163 0.0418588
0.0811216 0.0598209 0.0456223
0.0970856 0.0648166 0.0486832
0.1140440 0.0690808 0.0510960
0.1319759 0.0726708 0.0529026
0.1508627 0.0756311 0.0541362
0.1706871 0.0779977 0.0548249
0.1914323 0.0798004 0.0549928
0.2130811 0.0810653 0.0546614
0.2356156 0.0818154 0.0538509
0.2590163 0.0820719 0.0525803
0.2832618 0.0818554 0.0508688
0.3083280 0.0811859 0.0487360
0.3341869 0.0800842 0.0462029
0.3608056 0.0785727 0.0432926
0.3881442 0.0766760 0.0400317
0.4161543 0.0744225 0.0364515
0.4447749 0.0718461 0.0325897
0.4739288 0.0689882 0.0284934
0.5035159 0.0659010 0.0242228
0.5334045 0.0626523 0.0198561
0.5634186 0.0593312 0.0154971
0.5933202 0.0560578 0.0112857
0.6227882 0.0529936 0.0074099
0.6514002 0.0503511 0.0041164
0.6786563 0.0483830 0.0016961
0.7041557 0.0472946 0.0003760
0.7280998 0.0469896 0.0000165
0.7514850 0.0469678 0.0000000
0.0187560 0.0334181 0.0187531
0.0322304 0.0422415 0.0272191
0.0460936 0.0510382 0.0361903
0.0599174 0.0599121 0.0454734
0.0734140 0.0674703 0.0496549
0.0879942 0.0739999 0.0530160
0.1036185 0.0796377 0.0556614
0.1202556 0.0844850 0.0576600
0.1378806 0.0886167 0.0590603
0.1564718 0.0920890 0.0598989
0.1760102 0.0949459 0.0602049
0.1964774 0.0972228 0.0600027
0.2178556 0.0989491 0.0593137
0.2401262 0.1001503 0.0581574
0.2632698 0.1008492 0.0565524
0.2872651 0.1010670 0.0545171
0.3120880 0.1008242 0.0520705
0.3377110 0.1001415 0.0492332
0.3641019 0.0990406 0.0460278
0.3912218 0.0975454 0.0424805
0.4190233 0.0956829 0.0386222
0.4474473 0.0934850 0.0344907
0.4764185 0.0909906 0.0301330
0.5058395 0.0882486 0.0256095
0.5355822 0.0853222 0.0209990
0.5654748 0.0822950 0.0164065
0.5952849 0.0792790 0.0119736
0.6246976 0.0764260 0.0078919
0.6532960 0.0739374 0.0044142
0.6805796 0.0720562 0.0018419
0.7061305 0.0709903 0.0004191
0.7301086 0.0706735 0.0000197
0.7534975 0.0706404 0.0000000
0.0231894 0.0464618 0.0231859
0.0371310 0.0550406 0.0311551
0.0516029 0.0635560 0.0396391
0.0662196 0.0721118 0.0485184
0.0807625 0.0807557 0.0576661
0.0949512 0.0880898 0.0606708
0.1102071 0.0944419 0.0629241
0.1264972 0.0999306 0.0645161
0.1437932 0.1046480 0.0655082
0.1620705 0.1086648 0.0659440
0.1813075 0.1120353 0.0658565
0.2014843 0.1148024 0.0652719
0.2225816 0.1170010 0.0642121
0.2445803 0.1186603 0.0626968
0.2674602 0.1198055 0.0607442
0.2911999 0.1204594 0.0583723
0.3157754 0.1206435 0.0555997
0.3411596 0.1203788 0.0524462
0.3673208 0.1196868 0.0489340
0.3942209 0.1185906 0.0450889
0.4218139 0.1171161 0.0409413
0.4500420 0.1152935 0.0365288
0.4788323 0.1131593 0.0318983
0.5080902 0.1107591 0.0271102
0.5376911 0.1081517 0.0222436
0.5674678 0.1054148 0.0174044
0.5971937 0.1026527 0.0127360
0.6265602 0.1000075 0.0084330
0.6551563 0.0976689 0.0047543
0.6824807 0.0958703 0.0020126
0.7080961 0.0948216 0.0004717
0.7321163 0.0944874 0.0000239
0.7555100 0.0944388 0.0000000
0.0269173 0.0604057 0.0269132
0.0412725 0.0687486 0.0343972
0.0562343 0.0770051 0.0423772
0.0714815 0.0852676 0.0507856
0.0867903 0.0935958 0.0595308
0.1020228 0.1020147 0.0685234
0.1168917 0.1091402 0.0704215
0.1328133 0.1153266 0.0716282
0.1497590 0.1206781 0.0722215
0.1677028 0.1252784 0.0722558
0.1866212 0.1291930 0.0717706
0.2064925 0.1324738 0.0707959
0.2272961 0.1351623 0.0693557
0.2490117 0.1372926 0.0674707
0.2716185 0.1388935 0.0651592
0.2950948 0.1399902 0.0624393
0.3194164 0.1406057 0.0593290
0.3445565 0.1407617 0.0558479
0.3704837 0.1404801 0.0520177
0.3971609 0.1397837 0.0478635
0.4245430 0.1386973 0.0434154
0.4525742 0.1372496 0.0387106
0.4811835 0.1354748 0.0337957
0.5102792 0.1334155 0.0287311
0.5397404 0.1311261 0.0235959
0.5694048 0.1286785 0.0184968
0.5990516 0.1261694 0.0135783
0.6283792 0.1237309 0.0090381
0.6569823 0.1215411 0.0051408
0.6843591 0.1198230 0.0022113
0.7100515 0.1187881 0.0005354
0.7341226 0.1184315 0.0000294
0.7575225 0.1183629 0.0000000
0.0300105 0.0752302 0.0300059
0.0447463 0.0833434 0.0370202
0.0601254 0.0913554 0.0445010
0.0758871 0.0993463 0.0524137
0.0918251 0.1073769 0.0606978
0.1077927 0.1154841 0.0692842
0.1236911 0.1236819 0.0781061
0.1392304 0.1306124 0.0789573
0.1558093 0.1366432 0.0791701
0.1734023 0.1418670 0.0788121
0.1919852 0.1463594 0.0779317
0.2115353 0.1501814 0.0765647
0.2320309 0.1533818 0.0747387
0.2534508 0.1560004 0.0724762
0.2757734 0.1580705 0.0697970
0.2989764 0.1596205 0.0667193
0.3230357 0.1606753 0.0632612
0.3479243 0.1612582 0.0594420
0.3736113 0.1613917 0.0552831
0.4000605 0.1610984 0.0508091
0.4272278 0.1604027 0.0460497
0.4550589 0.1593319 0.0410415
0.4834852 0.1579182 0.0358309
0.5124176 0.1562012 0.0304778
0.5417393 0.1542310 0.0250616
0.5712929 0.1520740 0.0196890
0.6008639 0.1498192 0.0145058
0.6301576 0.1475889 0.0097121
0.6587751 0.1455490 0.0055783
0.6862144 0.1439119 0.0024417
0.7119959 0.1428891 0.0006123
0.7361271 0.1425058 0.0000367
0.7595350 0.1424128 0.0000000
0.0325236 0.0909182 0.0325186
0.0476184 0.0988068 0.0390802
0.0633701 0.1065842 0.0460752
0.0795674 0.1143200 0.0534900
0.0960297 0.1220720 0.0612875
0.1126147 0.1298810 0.0694180
0.1292176 0.1377713 0.0778283
0.1457614 0.1457512 0.0864665
0.1619628 0.1524993 0.0863230
0.1791915 0.1583836 0.0855881
0.1974246 0.1634874 0.0843207
0.2166390 0.1678794 0.0825642
0.2368127 0.1716160 0.0803511
0.2579237 0.1747432 0.0777071
0.2799500 0.1772989 0.0746539
0.3028688 0.1793154 0.0712108
0.3266559 0.1808203 0.0673964
0.3512843 0.1818389 0.0632300
0.3767235 0.1823944 0.0587327
0.4029379 0.1825101 0.0539290
0.4298846 0.1822099 0.0488479
0.4575109 0.1815202 0.0435258
0.4857502 0.1804713 0.0380085
0.5145167 0.1790999 0.0323554
0.5436973 0.1774523 0.0266458
0.5731397 0.1755892 0.0209864
0.6026358 0.1735923 0.0155237
0.6318986 0.1715738 0.0104601
0.6605360 0.1696876 0.0060714
0.6880463 0.1681341 0.0027075
0.7139281 0.1671236 0.0007049
0.7381293 0.1667103 0.0000464
0.7615475 0.1665885 0.0000000
0.0345000 0.1074542 0.0344947
0.0499394 0.1151223 0.0406206
0.0660351 0.1226729 0.0471468
0.0826153 0.1301662 0.0540726
0.0995251 0.1376556 0.0613779
0.1166342 0.1451827 0.0690293
0.1338383 0.1527760 0.0769862
0.1510574 0.1604527 0.0852071
0.1682288 0.1682178 0.0936504
0.1850847 0.1747947 0.0925583
0.2029567 0.1805409 0.0909170
0.2218232 0.1855314 0.0887781
0.2416622 0.1898293 0.0861805
0.2624518 0.1934864 0.0831543
0.2841698 0.1965459 0.0797238
0.3067931 0.1990442 0.0759100
0.3302973 0.2010121 0.0717326
0.3546558 0.2024769 0.0672114
0.3798383 0.2034636 0.0623674
0.4058100 0.2039960 0.0572250
0.4325290 0.2040980 0.0518129
0.4599442 0.2037953 0.0461669
0.4879913 0.2031166 0.0403323
0.5165875 0.2020961 0.0343682
0.5456234 0.2007762 0.0283532
0.5749523 0.1992124 0.0223940
0.6043728 0.1974788 0.0166373
0.6336056 0.1956779 0.0112875
0.6622663 0.1939512 0.0066252
0.6898542 0.1924864 0.0030130
0.7158468 0.1914907 0.0008157
0.7401287 0.1910448 0.0000591
0.7635600 0.1908900 0.0000001
0.0359751 0.1248232 0.0359695
0.0517492 0.1322750 0.0416764
0.0681706 0.1396049 0.0477518
0.0850983 0.1468656 0.0542031
0.1024009 0.1541058 0.0610218
0.1199623 0.1613659 0.0681873
0.1376844 0.1686765 0.0756708
0.1554868 0.1760583 0.0834395
0.1733061 0.1835243 0.0914602
0.1910888 0.1910771 0.0996988
0.2085924 0.1974932 0.0976997
0.2271014 0.2031089 0.0951892
0.2465951 0.2079924 0.0922132
0.2670521 0.2122012 0.0888070
0.2884504 0.2157837 0.0849985
0.3107670 0.2187802 0.0808112
0.3339778 0.2212251 0.0762662
0.3580561 0.2231485 0.0713842
0.3829725 0.2245768 0.0661866
0.4086925 0.2255351 0.0606977
0.4351757 0.2260476 0.0549461
0.4623724 0.2261394 0.0489671
0.4902207 0.2258378 0.0428055
0.5186405 0.2251748 0.0365198
0.5475269 0.2241894 0.0301880
0.5767384 0.2229318 0.0239162
0.6060804 0.2214689 0.0178515
0.6352822 0.2198934 0.0121993
0.6639675 0.2183341 0.0072448
0.6916380 0.2169655 0.0033629
0.7177508 0.2159889 0.0009482
0.7421247 0.2155094 0.0000759
0.7655725 0.2153173 0.0000001
0.0369786 0.1430109 0.0369729
0.0530802 0.1502500 0.0422765
0.0698152 0.1573646 0.0479191
0.0870668 0.1644008 0.0539126
0.1047236 0.1714030 0.0602566
0.1226838 0.1784094 0.0669399
0.1408577 0.1854510 0.0739434
0.1591688 0.1925507 0.0812430
0.1775530 0.1997244 0.0888120
0.1959580 0.2069822 0.0966233
0.2143376 0.2143253 0.1046488
0.2324826 0.2205900 0.1017800
0.2516226 0.2260822 0.0984346
0.2717374 0.2308641 0.0946535
0.2928058 0.2349886 0.0904689
0.3148054 0.2385004 0.0859073
0.3377123 0.2414374 0.0809921
0.3615004 0.2438323 0.0757450
0.3861407 0.2457140 0.0701883
0.4115998 0.2471085 0.0643465
0.4378383 0.2480408 0.0582480
0.4648082 0.2485356 0.0519279
0.4924498 0.2486195 0.0454303
0.5206862 0.2483220 0.0388132
0.5494167 0.2476791 0.0321538
0.5785052 0.2467360 0.0255575
0.6077644 0.2455527 0.0191710
0.6369322 0.2442120 0.0132006
0.6656413 0.2428302 0.0079354
0.6933973 0.2415673 0.0037621
0.7196387 0.2406167 0.0011057
0.7441162 0.2401039 0.0000980
0.7675849 0.2398704 0.0000001
0.0375360 0.1620025 0.0375303
0.0539599 0.1690326 0.0424456
0.0710003 0.1759366 0.0476726
0.0885598 0.1827556 0.0532258
0.1065435 0.1895293 0.0591100
0.1248630 0.1962936 0.0653211
0.1434379 0.2030790 0.0718474
0.1621970 0.2099093 0.0786722
0.1810787 0.2168024 0.0857754
0.2000306 0.2237710 0.0931351
0.2190084 0.2308229 0.1007292
0.2379714 0.2379586 0.1085339
0.2567518 0.2440806 0.1048301
0.2765169 0.2494558 0.1006813
0.2972468 0.2541411 0.0961247
0.3189200 0.2581852 0.0911905
0.3415134 0.2616295 0.0859042
0.3650014 0.2645098 0.0802896
0.3893559 0.2668570 0.0743698
0.4145445 0.2686989 0.0681698
0.4405290 0.2700612 0.0617182
0.4672632 0.2709687 0.0550498
0.4946896 0.2714470 0.0482084
0.5227346 0.2715242 0.0412509
0.5513016 0.2712329 0.0342539
0.5802602 0.2706138 0.0273217
0.6094304 0.2697202 0.0206005
0.6385594 0.2686255 0.0142966
0.6672899 0.2674330 0.0087024
0.6951324 0.2662874 0.0042157
0.7215093 0.2653720 0.0012926
0.7461025 0.2648279 0.0001269
0.7695974 0.2645492 0.0000002
0.0376700 0.1817825 0.0376642
0.0544120 0.1886073 0.0422055
0.0717522 0.1953055 0.0470332
0.0896084 0.2019135 0.0521633
0.1078999 0.2084672 0.0576040
0.1265498 0.2149999 0.0633560
0.1454866 0.2215408 0.0694136
0.1646458 0.2281140 0.0757661
0.1839694 0.2347385 0.0823991
0.2034068 0.2414287 0.0892959
0.2229139 0.2481947 0.0964384
0.2424528 0.2550432 0.1038083
0.2619868 0.2619737 0.1113855
0.2813968 0.2679610 0.1068783
0.3017813 0.2732250 0.1019558
0.3231201 0.2778181 0.0966520
0.3453911 0.2817851 0.0909958
0.3685700 0.2851646 0.0850126
0.3926294 0.2879901 0.0787272
0.4175380 0.2902910 0.0721652
0.4432590 0.2920940 0.0653556
0.4697482 0.2934243 0.0583330
0.4969503 0.2943071 0.0511405
0.5247950 0.2947686 0.0438347
0.5531900 0.2948389 0.0364908
0.5820105 0.2945544 0.0292123
0.6110843 0.2939619 0.0221440
0.6401682 0.2931254 0.0154921
0.6689153 0.2921355 0.0095512
0.6968434 0.2911212 0.0047293
0.7233611 0.2902523 0.0015132
0.7480822 0.2896810 0.0001645
0.7716097 0.2893539 0.0000004
0.0374010 0.2023346 0.0373953
0.0544576 0.2089579 0.0415758
0.0720934 0.2154549 0.0460196
0.0902386 0.2218578 0.0507432
0.1088241 0.2281992 0.0557569
0.1277830 0.2345097 0.0610649
0.1470524 0.2408171 0.0666657
0.1665740 0.2471449 0.0725534
0.1862946 0.2535127 0.0787186
0.2061663 0.2599359 0.0851491
0.2261467 0.2664264 0.0918309
0.2461979 0.2729924 0.0987493
0.2662870 0.2796397 0.1058887
0.2863807 0.2863674 0.1132323
0.3064145 0.2922271 0.1079514
0.3274124 0.2973852 0.1022831
0.3493536 0.3018899 0.0962594
0.3722150 0.3057826 0.0899084
0.3959704 0.3090991 0.0832562
0.4205899 0.3118709 0.0763297
0.4460382 0.3141258 0.0691583
0.4722729 0.3158897 0.0617764
0.4992413 0.3171871 0.0542271
0.5268763 0.3180433 0.0465658
0.5550899 0.3184859 0.0388669
0.5837634 0.3185472 0.0312324
0.6127321 0.3182679 0.0238057
0.6417627 0.3177032 0.0167920
0.6705202 0.3169308 0.0104873
0.6985308 0.3160632 0.0053085
0.7251931 0.3152547 0.0017725
0.7500541 0.3146627 0.0002133
0.7736219 0.3142843 0.0000007
0.0367483 0.2236408 0.0367426
0.0541162 0.2300666 0.0405750
0.0720443 0.2363669 0.0446494
0.0904727 0.2425706 0.0489823
0.1093420 0.2487070 0.0535852
0.1285942 0.2548043 0.0584646
0.1481737 0.2608883 0.0636223
0.1680284 0.2669819 0.0690561
0.1881100 0.2731047 0.0747605
0.2083741 0.2792726 0.0807273
0.2287804 0.2854985 0.0869462
0.2492925 0.2917922 0.0934058
0.2698778 0.2981608 0.1000937
0.2905069 0.3046092 0.1069970
0.3111498 0.3111364 0.1141013
0.3318017 0.3168749 0.1080748
0.3534067 0.3219318 0.1016877
0.3759434 0.3263514 0.0949707
0.3993869 0.3301718 0.0879520
0.4237087 0.3334264 0.0806597
0.4488752 0.3361446 0.0731238
0.4748461 0.3383527 0.0653789
0.5015712 0.3400755 0.0574678
0.5289868 0.3413372 0.0494451
0.5570093 0.3421631 0.0413839
0.5855257 0.3425820 0.0333847
0.6143795 0.3426289 0.0255890
0.6433477 0.3423502 0.0182007
0.6721075 0.3418113 0.0115161
0.7001956 0.3411077 0.0059594
0.7270040 0.3403757 0.0020761
0.7520166 0.3397719 0.0002763
0.7756339 0.3393405 0.0000013
0.0357304 0.2456811 0.0357249
0.0534064 0.2519136 0.0392210
0.0716237 0.2580221 0.0429396
0.0903307 0.2640324 0.0468967
0.1094762 0.2699709 0.0511044
0.1290095 0.2758634 0.0555707
0.1488819 0.2817339 0.0602998
0.1690468 0.2876042 0.0652923
0.1894607 0.2934934 0.0705459
0.2100829 0.2994178 0.0760555
0.2308759 0.3053907 0.0818144
0.2518050 0.3114229 0.0878140
0.2728389 0.3175228 0.0940448
0.2939488 0.3236965 0.1004965
0.3151088 0.3299486 0.1071584
0.3362910 0.3362776 0.1140182
0.3575549 0.3419007 0.1072728
0.3797606 0.3468603 0.1001931
0.4028850 0.3511972 0.0928094
0.4269012 0.3549466 0.0851511
0.4517775 0.3581394 0.0772493
0.4774756 0.3608028 0.0691387
0.5039479 0.3629618 0.0608618
0.5311342 0.3646398 0.0524726
0.5589552 0.3658605 0.0440429
0.5873042 0.3666491 0.0356714
0.6160325 0.3670354 0.0274974
0.6449277 0.3670578 0.0197226
0.6736801 0.3667693 0.0126427
0.7018389 0.3662484 0.0066877
0.7287932 0.3656113 0.0024297
0.7539681 0.3650074 0.0003568
0.7776455 0.3645226 0.0000023
0.0343659 0.2684324 0.0343606
0.0523466 0.2744762 0.0375319
0.0708499 0.2803981 0.0409075
0.0898316 0.2862210 0.0445029
0.1092470 0.2919689 0.0483303
0.1290519 0.2976650 0.0523987
0.1492035 0.3033317 0.0567138
0.1696605 0.3089893 0.0612785
0.1903836 0.3146565 0.0660928
0.2113360 0.3203491 0.0711546
0.2324830 0.3260809 0.0764596
0.2537923 0.3318633 0.0820022
0.2752340 0.3377054 0.0877754
0.2967806 0.3436145 0.0937713
0.3184065 0.3495962 0.0999815
0.3400885 0.3556544 0.1063970
0.3618010 0.3617877 0.1130073
0.3836707 0.3673003 0.1055691
0.4064698 0.3721659 0.0978228
0.4301733 0.3764218 0.0897997
0.4547515 0.3801004 0.0815314
0.4801680 0.3832301 0.0730534
0.5063784 0.3858361 0.0644080
0.5333255 0.3879415 0.0556483
0.5609348 0.3895684 0.0468448
0.5891054 0.3907390 0.0380943
0.6176968 0.3914785 0.0295337
0.6465075 0.3918173 0.0213617
0.6752416 0.3917969 0.0138724
0.7034622 0.3914786 0.0074997
0.7305598 0.3909570 0.0028397
0.7559067 0.3903676 0.0004591
0.7796566 0.3898303 0.0000040
0.0326742 0.2918681 0.0326691
0.0509555 0.2977284 0.0355265
0.0697416 0.3034692 0.0385713
0.0889938 0.3091113 0.0418183
0.1086735 0.3146759 0.0452796
0.1287421 0.3201842 0.0489646
0.1491618 0.3256568 0.0528803
0.1698960 0.3311126 0.0570309
0.1909096 0.3365692 0.0614185
0.2121692 0.3420422 0.0660431
0.2336431 0.3475452 0.0709029
0.2553014 0.3530899 0.0759944
0.2771162 0.3586861 0.0813131
0.2990614 0.3643418 0.0868533
0.3211123 0.3700634 0.0926086
0.3432463 0.3758559 0.0985720
0.3654422 0.3817231 0.1047362
0.3876764 0.3876634 0.1110921
0.4101451 0.3930695 0.1029868
0.4335297 0.3978433 0.0946007
0.4578024 0.4020189 0.0859666
0.4829294 0.4056257 0.0771206
0.5088688 0.4086895 0.0681047
0.5355671 0.4112333 0.0589715
0.5629543 0.4132778 0.0497900
0.5909354 0.4148429 0.0406550
0.6193782 0.4159492 0.0317004
0.6480921 0.4166202 0.0231216
0.6767956 0.4168861 0.0152100
0.7050674 0.4167913 0.0084014
0.7323037 0.4164074 0.0033126
0.7578308 0.4158502 0.0005881
0.7816667 0.4152638 0.0000071
0.0306760 0.3159564 0.0306713
0.0492533 0.3216389 0.0332253
0.0683180 0.3272050 0.0359511
0.0878366 0.3326732 0.0388623
0.1077752 0.3380626 0.0419709
0.1281001 0.3433922 0.0452865
0.1487782 0.3486807 0.0488166
0.1697771 0.3539457 0.0525669
0.1910653 0.3592036 0.0565407
0.2126129 0.3644695 0.0607398
0.2343909 0.3697565 0.0651642
0.2563720 0.3750766 0.0698126
0.2785302 0.3804396 0.0746824
0.3008410 0.3858542 0.0797700
0.3232812 0.3913275 0.0850709
0.3458288 0.3968651 0.0905799
0.3684634 0.4024717 0.0962913
0.3911656 0.4081507 0.1021991
0.4139136 0.4139009 0.1082957
0.4369738 0.4192037 0.0995495
0.4609346 0.4238870 0.0905512
0.4857646 0.4279815 0.0813373
0.5114247 0.4315138 0.0719501
0.5378649 0.4345067 0.0624413
0.5650197 0.4369802 0.0528786
0.5928001 0.4389521 0.0433545
0.6210821 0.4404390 0.0339997
0.6496864 0.4414579 0.0250059
0.6783459 0.4420286 0.0166603
0.7066568 0.4421790 0.0093987
0.7340248 0.4419568 0.0038552
0.7597383 0.4414525 0.0007492
0.7836754 0.4408227 0.0000121
0.0283946 0.3406593 0.0283902
0.0472623 0.3461704 0.0306514
0.0666006 0.3515689 0.0330694
0.0863803 0.3568710 0.0356570
0.1065720 0.3620939 0.0384257
0.1271462 0.3672545 0.0413851
0.1480738 0.3723697 0.0445433
0.1693261 0.3774556 0.0479065
0.1908751 0.3825274 0.0514793
0.2126940 0.3875993 0.0552648
0.2347565 0.3926841 0.0592646
0.2570377 0.3977932 0.0634790
0.2795138 0.4029368 0.0679072
0.3021617 0.4081238 0.0725473
0.3249597 0.4133617 0.0773967
0.3478872 0.4186568 0.0824518
0.3709243 0.4240144 0.0877087
0.3940525 0.4294387 0.0931627
0.4172541 0.4349330 0.0988090
0.4405085 0.4404962 0.1046413
0.4641517 0.4456977 0.0952811
0.4886779 0.4502903 0.0857005
0.5140509 0.4543014 0.0759419
0.5402240 0.4577541 0.0660564
0.5671364 0.4606678 0.0561102
0.5947051 0.4630586 0.0461935
0.6228141 0.4649396 0.0364336
0.6512952 0.4663221 0.0270175
0.6798967 0.4672161 0.0182277
0.7082330 0.4676339 0.0104976
0.7357236 0.4675987 0.0044747
0.7616274 0.4671711 0.0009488
0.7856820 0.4665070 0.0000203
0.0258567 0.3659296 0.0258527
0.0450080 0.3712769 0.0278315
0.0646136 0.3765158 0.0299528
0.0846482 0.3816609 0.0322286
0.1050863 0.3867270 0.0346698
0.1259021 0.3917294 0.0372858
0.1470701 0.3966830 0.0400850
0.1685651 0.4016025 0.0430740
0.1903621 0.4065017 0.0462583
0.2124372 0.4113938 0.0496421
0.2347668 0.4162910 0.0532281
0.2573281 0.4212042 0.0570182
0.2800994 0.4261435 0.0610130
0.3030593 0.4311178 0.0652122
0.3261877 0.4361349 0.0696146
0.3494651 0.4412015 0.0742185
0.3728728 0.4463233 0.0790212
0.3963928 0.4515053 0.0840198
0.4200081 0.4567514 0.0892106
0.4437024 0.4620648 0.0945897
0.4674565 0.4674447 0.1001522
0.4916728 0.4725454 0.0902069
0.5167513 0.4770454 0.0800777
0.5426491 0.4809683 0.0698152
0.5693094 0.4843331 0.0594843
0.5966555 0.4871546 0.0491723
0.6245792 0.4894431 0.0390033
0.6529236 0.4912046 0.0291591
0.6814522 0.4924404 0.0199162
0.7097991 0.4931480 0.0117037
0.7374008 0.4933263 0.0051782
0.7634965 0.4930019 0.0011938
0.7876856 0.4923160 0.0000334
0.0230942 0.3917086 0.0230906
0.0425205 0.3969008 0.0247976
0.0623855 0.4019897 0.0266333
0.0826673 0.4069879 0.0286089
0.1033437 0.4119086 0.0307346
0.1243924 0.4167650 0.0330197
0.1457911 0.4215702 0.0354723
0.1675176 0.4263373 0.0380996
0.1895500 0.4310789 0.0409076
0.2118669 0.4358069 0.0439013
0.2344471 0.4405326 0.0470844
0.2572702 0.4452664 0.0504600
0.2803161 0.4500181 0.0540299
0.3035655 0.4547964 0.0577953
0.3269995 0.4596090 0.0617563
0.3506000 0.4644631 0.0659127
0.3743493 0.4693645 0.0702633
0.3982305 0.4743188 0.0748063
0.4222272 0.4793304 0.0795397
0.4463236 0.4844031 0.0844608
0.4705045 0.4895402 0.0895666
0.4947520 0.4947409 0.0948531
0.5195296 0.4997396 0.0843549
0.5451441 0.5041427 0.0737160
0.5715433 0.5079692 0.0629998
0.5986561 0.5112328 0.0522911
0.6263824 0.5139418 0.0417101
0.6545763 0.5160974 0.0314332
0.6830167 0.5176933 0.0217298
0.7113582 0.5187129 0.0130226
0.7390578 0.5191319 0.0059730
0.7653439 0.5189399 0.0014919
0.7896848 0.5182491 0.0000537
0.0201462 0.4179216 0.0201431
0.0398371 0.4229690 0.0215893
0.0599514 0.4279191 0.0231508
0.0804704 0.4327827 0.0248379
0.1013751 0.4375710 0.0266601
0.1226462 0.4422954 0.0286263
0.1442643 0.4469673 0.0307446
0.1662101 0.4515981 0.0330222
0.1884645 0.4561989 0.0354656
0.2110084 0.4607804 0.0380804
0.2338230 0.4653530 0.0408712
0.2568900 0.4699262 0.0438418
0.2801910 0.4745091 0.0469955
0.3037086 0.4791103 0.0503343
0.3274252 0.4837372 0.0538599
0.3513241 0.4883970 0.0575731
0.3753888 0.4930960 0.0614742
0.3996032 0.4978397 0.0655627
0.4239517 0.5026331 0.0698378
0.4484193 0.5074805 0.0742982
0.4729912 0.5123856 0.0789421
0.4976532 0.5173516 0.0837673
0.5223885 0.5223781 0.0887707
0.5477126 0.5272711 0.0777568
0.5738420 0.5315695 0.0666556
0.6007114 0.5352865 0.0555496
0.6282285 0.5384283 0.0445547
0.6562581 0.5409928 0.0338416
0.6845947 0.5429664 0.0236717
0.7129139 0.5443203 0.0144595
0.7406962 0.5450077 0.0068662
0.7671685 0.5449795 0.0018513
0.7916782 0.5443052 0.0000846
0.0170620 0.4444722 0.0170594
0.0370042 0.4493873 0.0182566
0.0573550 0.4542120 0.0195559
0.0780986 0.4589553 0.0209666
0.0992188 0.4636267 0.0224974
0.1206992 0.4682357 0.0241569
0.1425233 0.4727919 0.0259528
0.1646743 0.4773050 0.0278926
0.1871355 0.4817846 0.0299828
0.2098904 0.4862401 0.0322296
0.2329222 0.4906804 0.0346382
0.2562146 0.4951145 0.0372132
0.2797512 0.4995505 0.0399588
0.3035159 0.5039964 0.0428781
0.3274929 0.5084595 0.0459740
0.3516666 0.5129466 0.0492483
0.3760217 0.5174640 0.0527026
0.4005430 0.5220175 0.0563378
0.4252159 0.5266123 0.0601542
0.4500259 0.5312529 0.0641517
0.4749589 0.5359437 0.0683298
0.5000012 0.5406882 0.0726874
0.5251394 0.5454896 0.0772233
0.5503575 0.5503478 0.0819352
0.5762091 0.5551280 0.0704503
0.6028255 0.5593090 0.0589472
0.6301218 0.5628958 0.0475376
