LUTs/post_formation_compression_srgb.cube
TITLE "Post Formation Compression sRGB Compress lower intensity chroma by lowRMix=0.95, with mask power of maskPower=1.45 Compress Intensity with luminance coefficient by mixFactor=0.4"
# Compress post-formation intensity with luminance coefficient and compress lower intensity chroma. Resolution 33. This LUT expects BT.2020 with Illuminant D65 white point and power encoding of 2.4.
LUT_3D_SIZE 9
0.0000000 0.0000000 0.0000000
0.0517611 0.0272519 0.0272509
0.1199474 0.0414959 0.0414944
0.2032270 0.0460675 0.0460658
0.3004841 0.0426155 0.0426139
0.4101123 0.0325236 0.0325224
0.5288072 0.0178502 0.0178495
0.6474977 0.0036322 0.0036321
0.7474599 0.0000000 0.0000000
0.0231894 0.0464618 0.0231859
0.0807625 0.0807557 0.0576661
0.1437932 0.1046480 0.0655082
0.2225816 0.1170010 0.0642121
0.3157754 0.1206435 0.0555997
0.4218139 0.1171161 0.0409413
0.5376911 0.1081517 0.0222436
0.6551563 0.0976689 0.0047543
0.7555100 0.0944388 0.0000000
0.0345000 0.1074542 0.0344947
0.0995251 0.1376556 0.0613779
0.1682288 0.1682178 0.0936504
0.2416622 0.1898293 0.0861805
0.3302973 0.2010121 0.0717326
0.4325290 0.2040980 0.0518129
0.5456234 0.2007762 0.0283532
0.6622663 0.1939512 0.0066252
0.7635600 0.1908900 0.0000001
0.0376700 0.1817825 0.0376642
0.1078999 0.2084672 0.0576040
0.1839694 0.2347385 0.0823991
0.2619868 0.2619737 0.1113855
0.3453911 0.2817851 0.0909958
0.4432590 0.2920940 0.0653556
0.5531900 0.2948389 0.0364908
0.6689153 0.2921355 0.0095512
0.7716097 0.2893539 0.0000004
0.0343659 0.2684324 0.0343606
0.1092470 0.2919689 0.0483303
0.1903836 0.3146565 0.0660928
0.2752340 0.3377054 0.0877754
0.3618010 0.3617877 0.1130073
0.4547515 0.3801004 0.0815314
0.5609348 0.3895684 0.0468448
0.6752416 0.3917969 0.0138724
0.7796566 0.3898303 0.0000040
0.0258567 0.3659296 0.0258527
0.1050863 0.3867270 0.0346698
0.1903621 0.4065017 0.0462583
0.2800994 0.4261435 0.0610130
0.3728728 0.4463233 0.0790212
0.4674565 0.4674447 0.1001522
0.5693094 0.4843331 0.0594843
0.6814522 0.4924404 0.0199162
0.7876856 0.4923160 0.0000334
0.0139051 0.4712337 0.0139029
0.0969242 0.4899605 0.0183137
0.1855996 0.5077344 0.0245271
0.2790253 0.5250556 0.0329861
0.3762753 0.5423981 0.0440126
0.4764397 0.5601606 0.0577921
0.5786478 0.5786390 0.0743822
0.6878093 0.5935414 0.0279528
0.7956393 0.5967786 0.0001964
0.0026768 0.5760745 0.0026764
0.0880385 0.5940832 0.0036971
0.1786148 0.6115690 0.0054320
0.2740954 0.6285772 0.0082321
0.3740480 0.6451992 0.0125092
0.4779082 0.6615937 0.0186862
0.5850039 0.6779771 0.0271414
0.6945958 0.6945913 0.0381671
0.8033893 0.7030687 0.0008250
0.0000000 0.6644004 0.0000000
0.0853541 0.6828329 0.0000000
0.1753163 0.7012654 0.0000000
0.2698867 0.7196977 0.0000002
0.3690653 0.7381281 0.0000026
0.4728496 0.7565440 0.0000257
0.5812111 0.7748912 0.0001709
0.6940014 0.7930330 0.0007800
0.8107786 0.8107783 0.0025852
0.0364545 0.0364502 0.0588797
0.0953290 0.0678625 0.0953185
0.1642406 0.0660990 0.1151635
0.2476807 0.0600358 0.1225796
0.3437779 0.0486735 0.1224464
0.4508652 0.0326778 0.1163133
0.5647992 0.0147582 0.1064309
0.6752367 0.0016786 0.0979011
0.7709774 0.0000000 0.0963722
0.0633292 0.0899403 0.0899380
0.1250002 0.1249998 0.1249997
0.1902333 0.1353048 0.1353018
0.2684968 0.1379034 0.1379008
0.3602349 0.1332564 0.1332543
0.4635619 0.1230925 0.1230912
0.5745142 0.1099032 0.1099026
0.6833866 0.0993060 0.0993059
0.7790274 0.0973784 0.0973785
0.0584473 0.1508011 0.1046187
0.1296894 0.1833575 0.1296777
0.2114755 0.2114624 0.1616509
0.2855790 0.2216537 0.1577360
0.3737365 0.2227816 0.1473058
0.4740059 0.2175937 0.1321231
0.5828001 0.2083167 0.1146957
0.6911612 0.1993906 0.1010365
0.7870775 0.1967694 0.0983847
0.0512730 0.2248161 0.1091148
0.1284010 0.2532320 0.1283909
0.2154068 0.2781046 0.1526846
0.3034006 0.3033862 0.1824667
0.3868173 0.3130005 0.1653852
0.4835940 0.3138511 0.1441130
0.5902485 0.3088929 0.1213237
0.6985739 0.3017357 0.1033167
0.7951275 0.2981728 0.0993910
0.0405595 0.3100319 0.1079225
0.1217707 0.3349781 0.1217629
0.2117908 0.3571163 0.1391139
0.3061268 0.3786723 0.1610016
0.4012679 0.4012543 0.1870072
0.4935861 0.4099868 0.1592126
0.5974788 0.4105554 0.1301754
0.7056341 0.4060567 0.1064798
0.8031776 0.4015888 0.1003972
0.0266471 0.4048909 0.1022924
0.1113695 0.4268737 0.1113646
0.2037654 0.4467253 0.1227707
0.3015381 0.4656495 0.1374118
0.4024805 0.4847613 0.1556012
0.5048032 0.5047920 0.1772074
0.6050704 0.5123460 0.1414696
0.7124138 0.5119218 0.1109399
0.8112276 0.5070173 0.1014035
0.0117092 0.5056397 0.0940294
0.0992646 0.5253053 0.0992625
0.1933587 0.5436365 0.1057859
0.2929817 0.5611168 0.1142192
0.3969964 0.5782669 0.1250793
0.5042170 0.5955866 0.1387091
0.6134962 0.6134887 0.1552574
0.7190842 0.6187558 0.1171233
0.8192770 0.6144581 0.1024108
0.0012369 0.6030589 0.0872114
0.0900785 0.6215537 0.0900783
0.1843144 0.6397169 0.0932336
0.2837881 0.6575375 0.0969127
0.3882374 0.6749922 0.1014810
0.4972125 0.6921095 0.1074147
0.6100488 0.7090103 0.1152297
0.7259044 0.7259015 0.1253913
0.8273187 0.7239066 0.1034344
-0.0000000 0.6879178 0.0859898
0.0882938 0.7063503 0.0882938
0.1811957 0.7247828 0.0905979
0.2787057 0.7432153 0.0929020
0.3808239 0.7616478 0.0952060
0.4875502 0.7800803 0.0975101
0.5988845 0.7985123 0.0998150
0.7148225 0.8169371 0.1021350
0.8353131 0.8353131 0.1045860
0.0587294 0.0587224 0.1305832
0.1243605 0.0828263 0.1658722
0.1992442 0.1075471 0.1992276
0.2821079 0.0820517 0.2154131
0.3793926 0.0566405 0.2180112
0.4856453 0.0327569 0.2139096
0.5959741 0.0118510 0.2065578
0.7003559 0.0006598 0.2005729
0.7944948 -0.0000000 0.1986237
0.0787400 0.1191537 0.1595737
0.1454931 0.1454818 0.1947964
0.2273621 0.1688154 0.2273451
0.3086121 0.1540824 0.2313399
0.4001939 0.1409883 0.2273861
0.5009219 0.1257008 0.2195040
0.6068289 0.1105063 0.2097702
0.7086321 0.1016991 0.2028546
0.8025449 0.1003181 0.2006363
0.0989828 0.1864339 0.1864303
0.1633528 0.2203122 0.2203083
0.2500000 0.2500000 0.2500000
0.3284109 0.2442592 0.2442564
0.4153321 0.2371818 0.2371797
0.5125316 0.2260436 0.2260423
0.6159322 0.2135960 0.2135956
0.7167132 0.2052159 0.2052159
0.8105949 0.2026487 0.2026488
0.0727840 0.2588132 0.1967980
0.1447241 0.2920924 0.2184015
0.2374886 0.3199597 0.2374774
0.3424836 0.3424708 0.2646582
0.4267059 0.3390990 0.2514983
0.5217267 0.3307318 0.2352353
0.6238229 0.3199466 0.2186546
0.7246423 0.3111065 0.2077225
0.8186450 0.3069919 0.2046613
0.0487546 0.3444287 0.1965870
0.1298613 0.3733751 0.2110270
0.2259747 0.3974267 0.2259663
0.3318289 0.4179223 0.2457156
0.4386627 0.4386506 0.2710832
0.5303857 0.4362496 0.2479892
0.6310584 0.4283129 0.2255692
0.7323886 0.4192782 0.2105380
0.8266950 0.4133475 0.2066738
0.0274684 0.4382201 0.1917662
0.1146018 0.4626770 0.2016172
0.2123609 0.4838870 0.2123561
0.3181666 0.5028230 0.2258296
0.4284383 0.5210897 0.2431131
0.5400405 0.5400310 0.2642941
0.6382474 0.5373949 0.2348478
0.7399036 0.5295329 0.2139772
0.8347451 0.5217157 0.2086863
0.0096393 0.5356347 0.1849700
0.1005398 0.5564173 0.1917142
0.1989995 0.5756491 0.1989979
0.3040616 0.5937572 0.2074937
0.4145505 0.6111818 0.2179135
0.5290396 0.6284213 0.2308783
0.6459914 0.6459859 0.2467694
0.7471968 0.6414584 0.2185077
0.8427951 0.6320964 0.2106988
0.0004945 0.6278375 0.1797353
0.0927009 0.6464529 0.1849929
0.1903137 0.6649063 0.1903137
0.2932562 0.6832292 0.1957629
0.4014561 0.7013810 0.2015058
0.5147268 0.7192935 0.2078758
0.6326304 0.7369394 0.2153901
0.7543986 0.7543972 0.2246674
0.8508452 0.7444896 0.2127114
-0.0000000 0.7114353 0.1778589
0.0912335 0.7298678 0.1824670
0.1870751 0.7483003 0.1870751
0.2875248 0.7667328 0.1916832
0.3925826 0.7851653 0.1962914
0.5022486 0.8035978 0.2008995
0.6165227 0.8220303 0.2055076
0.7354049 0.8404627 0.2101158
0.8588950 0.8588950 0.2147245
0.0696415 0.0696334 0.2143224
0.1409361 0.0872405 0.2482934
0.2218275 0.1040133 0.2807125
0.3110399 0.1223423 0.3110210
0.4057892 0.0784233 0.3239379
0.5127917 0.0394756 0.3234611
0.6225401 0.0115014 0.3170197
0.7243055 0.0003251 0.3106025
0.8180123 -0.0000000 0.3067546
0.0838018 0.1362488 0.2411594
0.1562922 0.1562808 0.2750309
0.2404016 0.1735606 0.3072137
0.3365249 0.1910940 0.3365066
0.4293762 0.1570080 0.3385792
0.5310419 0.1305756 0.3308059
0.6345157 0.1122561 0.3211594
0.7325410 0.1047578 0.3140189
0.8260623 0.1032578 0.3097734
0.0969812 0.2097442 0.2661278
0.1688366 0.2341691 0.2995099
0.2540427 0.2540310 0.3312854
0.3592178 0.2703611 0.3592035
0.4496026 0.2480911 0.3488425
0.5454391 0.2320557 0.3365151
0.6444561 0.2187272 0.3251591
0.7406398 0.2116613 0.3174570
0.8341124 0.2085281 0.3127922
0.1113764 0.2889495 0.2889454
0.1815151 0.3208267 0.3208227
0.2639103 0.3505685 0.3505652
0.3749999 0.3750000 0.3750000
0.4633130 0.3568137 0.3568124
0.5559283 0.3426509 0.3426501
0.6530504 0.3295474 0.3295472
0.7486951 0.3209118 0.3209118
0.8421624 0.3158109 0.3158110
0.0695534 0.3712050 0.2957876
0.1461533 0.4021256 0.3167969
0.2371780 0.4305437 0.3338567
0.3491111 0.4536315 0.3491057
0.4726214 0.4726138 0.3706848
0.5640998 0.4578714 0.3516458
0.6608238 0.4435221 0.3348715
0.7567215 0.4324786 0.3243977
0.8502125 0.4251062 0.3188297
0.0342705 0.4649054 0.2926486
0.1200771 0.4918455 0.3059588
0.2187812 0.5156273 0.3177275
0.3299900 0.5360315 0.3299868
0.4497528 0.5542683 0.3452289
0.5723758 0.5723695 0.3647267
0.6681837 0.5594094 0.3418638
0.7646918 0.5463403 0.3279888
0.8582625 0.5364141 0.3218485
0.0097619 0.5616095 0.2856848
0.1028119 0.5833902 0.2950426
0.2045070 0.6034249 0.3042359
0.3137957 0.6222861 0.3137949
0.4296568 0.6403946 0.3242862
0.5508674 0.6580477 0.3365010
0.6756671 0.6756640 0.3512409
0.7725519 0.6623905 0.3319067
0.8663126 0.6497345 0.3248673
0.0002613 0.6516807 0.2794411
0.0958369 0.6702674 0.2873138
0.1968197 0.6887386 0.2952036
0.3031071 0.7071749 0.3031071
0.4146751 0.7255874 0.3110377
0.5315082 0.7439484 0.3190679
0.6535036 0.7621955 0.3274273
0.7802761 0.7802756 0.3366014
0.8743626 0.7650673 0.3278861
-0.0000000 0.7349527 0.2756073
0.0941731 0.7533852 0.2825195
0.1929544 0.7718177 0.2894317
0.2963438 0.7902502 0.2963439
0.4043413 0.8086827 0.3032561
0.5169470 0.8271152 0.3101683
0.6341608 0.8455477 0.3170805
0.7559827 0.8639802 0.3239926
0.8824127 0.8824127 0.3309048
0.0706476 0.0706392 0.3096466
0.1472258 0.0822201 0.3422011
0.2329719 0.0925499 0.3733689
0.3277507 0.1027032 0.4027467
0.4301165 0.1148262 0.4300988
0.5346024 0.0581128 0.4392970
0.6454976 0.0160141 0.4356680
0.7478583 0.0003570 0.4275006
0.8415297 -0.0000000 0.4207649
0.0795304 0.1432070 0.3342623
0.1572987 0.1572884 0.3666327
0.2452488 0.1690822 0.3975459
0.3441351 0.1795762 0.4263938
0.4527028 0.1916400 0.4526867
0.5540829 0.1459739 0.4520502
0.6586821 0.1171384 0.4420637
0.7561126 0.1080699 0.4320913
0.8495798 0.1061975 0.4247900
0.0871804 0.2221707 0.3571681
0.1651409 0.2398029 0.3891449
0.2542244 0.2542140 0.4196585
0.3568142 0.2657171 0.4478886
0.4728669 0.2777088 0.4728542
0.5706805 0.2441157 0.4618226
0.6693992 0.2256726 0.4475356
0.7641938 0.2183467 0.4366856
0.8576298 0.2144075 0.4288150
0.0946270 0.3072229 0.3780885
0.1717859 0.3300784 0.4092267
0.2603490 0.3496032 0.4388642
0.3647946 0.3647875 0.4661178
0.4893400 0.3777204 0.4893334
0.5835626 0.3543603 0.4689605
0.6783989 0.3399574 0.4527712
0.7722469 0.3309637 0.4412846
0.8656799 0.3246300 0.4328400
0.1037217 0.3970419 0.3970381
0.1798526 0.4267177 0.4267142
0.2669417 0.4545378 0.4545350
0.3702818 0.4795207 0.4795192
0.4999999 0.4999999 0.5000000
0.5928612 0.4753819 0.4753818
0.6866232 0.4581479 0.4581479
0.7802971 0.4458845 0.4458846
0.8737299 0.4368650 0.4368650
0.0516648 0.4875092 0.4003373
0.1353060 0.5151662 0.4201986
0.2311909 0.5406042 0.4374646
0.3418698 0.5630843 0.4524762
0.4670765 0.5825690 0.4670758
0.6007233 0.6007214 0.4838513
0.6945313 0.5792358 0.4639405
0.7883463 0.5631060 0.4504859
0.8817800 0.5511125 0.4408901
0.0141572 0.5846070 0.3944560
0.1078925 0.6073741 0.4075809
0.2116743 0.6280850 0.4198794
0.3243372 0.6473290 0.4320011
0.4442879 0.6659042 0.4442879
0.5705944 0.6841937 0.4569944
0.7022762 0.7022753 0.4709097
0.7963894 0.6826265 0.4551007
0.8898300 0.6673725 0.4449151
0.0003191 0.6752109 0.3859716
0.0991648 0.6938234 0.3964942
0.2035138 0.7122824 0.4070213
0.3131651 0.7307173 0.4175532
0.4280860 0.7491499 0.4280861
0.5482738 0.7675817 0.4386200
0.6737275 0.7860080 0.4491666
0.8044056 0.8044056 0.4598163
0.8978801 0.7856451 0.4489401
-0.0000000 0.7584702 0.3792352
0.0971128 0.7769027 0.3884514
0.1988338 0.7953352 0.3976677
0.3051629 0.8137677 0.4068839
0.4161001 0.8322002 0.4161002
0.5316454 0.8506327 0.4253164
0.6517988 0.8690652 0.4345327
0.7765604 0.8874977 0.4437489
0.9059301 0.9059301 0.4529652
0.0627142 0.0627068 0.4161448
0.1444405 0.0687582 0.4471268
0.2348060 0.0734793 0.4767719
0.3338911 0.0774611 0.5048265
0.4412580 0.0818197 0.5311027
0.5556032 0.0881637 0.5555897
0.6660433 0.0277357 0.5596551
0.7711299 0.0009108 0.5510673
0.8650472 -0.0000000 0.5406546
0.0668627 0.1411667 0.4384120
0.1497756 0.1497673 0.4690773
0.2419531 0.1564798 0.4983371
0.3438595 0.1618335 0.5258663
0.4553178 0.1670556 0.5513915
0.5748786 0.1741322 0.5748673
0.6804543 0.1273538 0.5698321
0.7796007 0.1114970 0.5568995
0.8730972 0.1091371 0.5456859
0.0698222 0.2255066 0.4590428
0.1533683 0.2373310 0.4892411
0.2468000 0.2467922 0.5179775
0.3511172 0.2542352 0.5448577
0.4666332 0.2608689 0.5695037
0.5918305 0.2690547 0.5918223
0.6923508 0.2356287 0.5781694
0.7877120 0.2250662 0.5626538
0.8811473 0.2202868 0.5507171
0.0721813 0.3155864 0.4778595
0.1557908 0.3315698 0.5073542
0.2497745 0.3449544 0.5353260
0.3557889 0.3557833 0.5613305
0.4749543 0.3650056 0.5848935
0.6059047 0.3751491 0.6059004
0.7020126 0.3518186 0.5852812
0.7957648 0.3410421 0.5684036
0.8891973 0.3334490 0.5557484
0.0749260 0.4108325 0.4948087
0.1581900 0.4320131 0.5232878
0.2520805 0.4507859 0.5501398
0.3588871 0.4668925 0.5749008
0.4807655 0.4807637 0.5970601
0.6166656 0.4945203 0.6166648
0.7103697 0.4736108 0.5919903
0.8038149 0.4593228 0.5741536
0.8972474 0.4486237 0.5607797
0.0793812 0.5100705 0.5100677
0.1622861 0.5372330 0.5372305
0.2558818 0.5626090 0.5626072
0.3628777 0.5857626 0.5857617
0.4862877 0.6063384 0.6063383
0.6249999 0.6249999 0.6250000
0.7184317 0.5986946 0.5986947
0.8118649 0.5799035 0.5799036
0.9052974 0.5658109 0.5658110
0.0249872 0.6058259 0.5090181
0.1178964 0.6294687 0.5271534
0.2216968 0.6511035 0.5437514
0.3362573 0.6709073 0.5593573
0.4597677 0.6896068 0.5746873
0.5900425 0.7080494 0.5900426
0.7264731 0.7264731 0.6054357
0.8199150 0.7027843 0.5856537
0.9133475 0.6850106 0.5708423
0.0008692 0.6984978 0.4991754
0.1025975 0.7173108 0.5124064
0.2102342 0.7358000 0.5255738
0.3232436 0.7542351 0.5387394
0.4415243 0.7726676 0.5519055
0.5650715 0.7911001 0.5650716
0.6938850 0.8095326 0.5782376
0.8279650 0.8279650 0.5914040
0.9213975 0.8062229 0.5758736
-0.0000000 0.7819876 0.4887424
0.1000525 0.8004201 0.5002627
0.2047131 0.8188526 0.5117830
0.3139819 0.8372851 0.5233033
0.4278588 0.8557176 0.5348236
0.5463438 0.8741501 0.5463439
0.6694369 0.8925826 0.5578642
0.7971382 0.9110151 0.5693845
0.9294476 0.9294476 0.5809049
0.0467042 0.0466987 0.5332332
0.1336330 0.0478913 0.5623057
0.2286366 0.0479444 0.5900023
0.3317441 0.0472751 0.6162002
0.4427367 0.0465121 0.6408391
0.5610477 0.0464727 0.6639545
0.6857035 0.0480942 0.6856962
0.7938194 0.0031051 0.6808599
0.8885646 -0.0000000 0.6664236
0.0467931 0.1311326 0.5528562
0.1349898 0.1349844 0.5813889
0.2316731 0.1374686 0.6084642
0.3369892 0.1390090 0.6339464
0.4507780 0.1402633 0.6577793
0.5724468 0.1420847 0.6800311
0.7009172 0.1454269 0.7009121
0.8029084 0.1153827 0.6883208
0.8966147 0.1120768 0.6724611
0.0459555 0.2209180 0.5708521
0.1351730 0.2278789 0.5987209
0.2333112 0.2333068 0.6250459
0.3406434 0.2376253 0.6496820
0.4570548 0.2415127 0.6725899
0.5818849 0.2458250 0.6939007
0.7139279 0.2514375 0.7139249
0.8112094 0.2318334 0.6953343
0.9046647 0.2261662 0.6784987
0.0446019 0.3158775 0.5871568
0.1346158 0.3264569 0.6142241
0.2339980 0.3354108 0.6396589
0.3431573 0.3431546 0.6633121
0.4619863 0.3503868 0.6851796
0.5896490 0.3579395 0.7055017
0.7247479 0.3664740 0.7247468
0.8192820 0.3511216 0.7022420
0.9127148 0.3422680 0.6845362
0.0432934 0.4156248 0.6017915
0.1339285 0.4303273 0.6279281
0.2343860 0.4433692 0.6523546
0.3452256 0.4551263 0.6749309
0.4662985 0.4662977 0.6957139
0.5963967 0.4776847 0.7151080
0.7337840 0.4896494 0.7337839
0.8273323 0.4727613 0.7091421
0.9207648 0.4603824 0.6905737
0.0427112 0.5195284 0.6148913
0.1338530 0.5387771 0.6400079
0.2352508 0.5563458 0.6633776
0.3476351 0.5724797 0.6849023
0.4707933 0.5877676 0.7047421
0.6029560 0.6029560 0.7234993
0.7419495 0.6182927 0.7419496
0.8353824 0.5967017 0.7160422
0.9288149 0.5805093 0.6966113
0.0435959 0.6267175 0.6267160
0.1351782 0.6507918 0.6507907
0.2373535 0.6731555 0.6731548
0.3509947 0.6938041 0.6938039
0.4758401 0.7130380 0.7130381
0.6096409 0.7315671 0.7315672
0.7499999 0.7499999 0.7500000
0.8434324 0.7229421 0.7229422
0.9368649 0.7026487 0.7026488
0.0029891 0.7212948 0.6186796
0.1064982 0.7406369 0.6349472
0.2170069 0.7592980 0.6508398
0.3333233 0.7777522 0.6666451
0.4549628 0.7961850 0.6824444
0.5818696 0.8146175 0.6982437
0.7140428 0.8330500 0.7140430
0.8514825 0.8514825 0.7298423
0.9449150 0.8268006 0.7086864
-0.0000000 0.8055051 0.6041289
0.1029922 0.8239376 0.6179533
0.2105925 0.8423701 0.6317777
0.3228009 0.8608026 0.6456020
0.4396175 0.8792351 0.6594264
0.5610422 0.8976676 0.6732508
0.6870750 0.9161001 0.6870752
0.8177160 0.9345326 0.7008995
0.9529650 0.9529651 0.7147239
0.0240450 0.0240422 0.6594224
0.1165794 0.0217318 0.6856468
0.2164899 0.0189454 0.7103426
0.3235602 0.0160482 0.7335714
0.4374442 0.0133944 0.7554785
0.5577067 0.0112717 0.7762786
0.6838849 0.0098763 0.7962180
0.8155311 0.0093385 0.8155297
0.9120821 -0.0000000 0.7980719
0.0213639 0.1148175 0.6755533
0.1154750 0.1154729 0.7008099
0.2171661 0.1157021 0.7244756
0.3261530 0.1158967 0.7466617
0.4419925 0.1163980 0.7675849
0.5641651 0.1174235 0.7875347
0.6921851 0.1190464 0.8068122
0.8256671 0.1212531 0.8256666
0.9201321 0.1150165 0.8051157
0.0183953 0.2102820 0.6900037
0.1140986 0.2141181 0.7142237
0.2175882 0.2175871 0.7368156
0.3284708 0.2210976 0.7579601
0.4461611 0.2249594 0.7779627
0.5700338 0.2292975 0.7971909
0.6995939 0.2340620 0.8159768
0.8345463 0.2391339 0.8345463
0.9281822 0.2320455 0.8121595
0.0154614 0.3100728 0.7028899
0.1127994 0.3172192 0.7260609
0.2181271 0.3240237 0.7476128
0.3308937 0.3308934 0.7678162
0.4503317 0.3380839 0.7870748
0.5757169 0.3456229 0.8058110
0.7065948 0.3533858 0.8243313
0.8427847 0.3612475 0.8427849
0.9362322 0.3510871 0.8192033
0.0128557 0.4137425 0.7144084
0.1118634 0.4242271 0.7365914
0.2190459 0.4343191 0.7572296
0.3336452 0.4444074 0.7766945
0.4546931 0.4546931 0.7954717
0.5814244 0.4651488 0.8139757
0.7135006 0.4756687 0.8324166
0.8508496 0.4862003 0.8508498
0.9442823 0.4721411 0.8262471
0.0108030 0.5208106 0.7248139
0.1114589 0.5345807 0.7461419
0.2204364 0.5478143 0.7660664
0.3367370 0.5608917 0.7850465
0.4592170 0.5740090 0.8035931
0.5871679 0.5871679 0.8220348
0.7204005 0.6003338 0.8404674
0.8588998 0.6134999 0.8588999
0.9523323 0.5952077 0.8332909
0.0094458 0.6308191 0.7343813
0.1116302 0.6477987 0.7550325
0.2222398 0.6640212 0.7744666
0.3400470 0.6798999 0.7931843
0.4638034 0.6957022 0.8116517
0.5929177 0.7115013 0.8300850
0.7273006 0.7273006 0.8485175
0.8669498 0.7430999 0.8669500
0.9603824 0.7202868 0.8403347
0.0088717 0.7433649 0.7433647
0.1123521 0.7635226 0.7635226
0.2243424 0.7826578 0.7826578
0.3434566 0.8012560 0.8012561
0.4684019 0.8197023 0.8197024
0.5986678 0.8381349 0.8381351
0.7342006 0.8565674 0.8565676
0.8749999 0.8749999 0.8750000
0.9684324 0.8473784 0.8473785
-0.0000000 0.8290225 0.7253948
0.1059318 0.8474550 0.7415233
0.2164718 0.8658875 0.7576517
0.3316200 0.8843200 0.7737801
0.4513762 0.9027525 0.7899086
0.5757406 0.9211850 0.8060370
0.7047131 0.9396175 0.8221655
0.8382937 0.9580500 0.8382939
0.9764825 0.9764825 0.8544223
0.0016350 0.0016348 0.7860672
0.1012734 0.0006090 0.8059239
0.2063373 0.0001641 0.8248572
0.3162992 0.0000303 0.8434141
0.4309354 0.0000037 0.8618672
0.5501888 0.0000003 0.8803020
0.6740509 -0.0000000 0.8987346
0.8025211 -0.0000000 0.9171671
0.9355995 -0.0000000 0.9355996
0.0006179 0.0999817 0.7955291
0.1019328 0.1019328 0.8144981
0.2082733 0.1041453 0.8330416
0.3193080 0.1064367 0.8514865
0.4349598 0.1087399 0.8699197
0.5552200 0.1110440 0.8883522
0.6800884 0.1133480 0.9067847
0.8095649 0.1156521 0.9252172
0.9436495 0.1179562 0.9436497
0.0001736 0.2011509 0.8040830
0.1028482 0.2056782 0.8226584
0.2102765 0.2102765 0.8411043
0.3223264 0.2148843 0.8595373
0.4389848 0.2194924 0.8779698
0.5602513 0.2241005 0.8964022
0.6861259 0.2287086 0.9148347
0.8166087 0.2333167 0.9332672
0.9516996 0.2379249 0.9516997
0.0000347 0.3046204 0.8122633
0.1038412 0.3115213 0.8307215
0.2122886 0.3184330 0.8491548
0.3253452 0.3253452 0.8675873
0.4430098 0.3322574 0.8860198
0.5652826 0.3391695 0.9044523
0.6921635 0.3460817 0.9228848
0.8236525 0.3529939 0.9413173
0.9597496 0.3599061 0.9597498
0.0000049 0.4101708 0.8203367
0.1048465 0.4193861 0.8387724
0.2143011 0.4286024 0.8572049
0.3283639 0.4378186 0.8756374
0.4470348 0.4470348 0.8940699
0.5703139 0.4562511 0.9125024
0.6982010 0.4654673 0.9309349
0.8306963 0.4746836 0.9493673
0.9677997 0.4838998 0.9677998
0.0000005 0.5177436 0.8283896
0.1058527 0.5292639 0.8468224
0.2163137 0.5407842 0.8652549
0.3313827 0.5523045 0.8836874
0.4510599 0.5638249 0.9021199
0.5753451 0.5753452 0.9205524
0.7042385 0.5868655 0.9389849
0.8377401 0.5983858 0.9574174
0.9758497 0.6099061 0.9758499
0.0000000 0.6273299 0.8364400
0.1068590 0.6411543 0.8548725
0.2183262 0.6549786 0.8733050
0.3344015 0.6688030 0.8917375
0.4550849 0.6826274 0.9101700
0.5803764 0.6964517 0.9286025
0.7102761 0.7102761 0.9470350
0.8447839 0.7241005 0.9654675
0.9838998 0.7379248 0.9838999
-0.0000000 0.7389287 0.8444900
0.1078653 0.7550571 0.8629225
0.2203387 0.7711855 0.8813550
0.3374202 0.7873140 0.8997875
0.4591099 0.8034424 0.9182200
0.5854077 0.8195708 0.9366525
0.7163136 0.8356993 0.9550850
0.8518277 0.8518277 0.9735175
0.9919498 0.8679561 0.9919500
-0.0000000 0.8525400 0.8525401
0.1088715 0.8709725 0.8709726
0.2223512 0.8894049 0.8894051
0.3404390 0.9078374 0.9078376
0.4631349 0.9262699 0.9262701
0.5904390 0.9447024 0.9447026
0.7223511 0.9631349 0.9631351
0.8588714 0.9815674 0.9815676
0.9999999 0.9999999 1.0000001
