LUTs/post_formation_compression_p3.cube
TITLE "Post Formation Compression P3  Compress lower intensity chroma by lowRMix=0.6 Compress Intensity with luminance coefficient by mixFactor=0.35"
# Compress post-formation lower intensity chroma and intensity with luminance coefficient. Resolution 33. This LUT expects BT.2020 with Illuminant D65 white point and power encoding of 2.4.
LUT_3D_SIZE 5
0.0000000 0.0000000 0.0000000
0.1628577 0.0129838 0.0129833
0.3558197 0.0085303 0.0085300
0.5554442 0.0005666 0.0005666
0.7419450 0.0000000 0.0000000
0.0136301 0.1900347 0.0136280
0.2203528 0.2203482 0.0390102
0.4122828 0.2151986 0.0181159
0.6140294 0.2056552 0.0014682
0.8012700 0.2003175 0.0000000
0.0089211 0.4227094 0.0089198
0.2317863 0.4448977 0.0186699
0.4663229 0.4663186 0.0370854
0.6711746 0.4489944 0.0046349
0.8605950 0.4302975 0.0000000
0.0005437 0.6641954 0.0005437
0.2297511 0.6863651 0.0014437
0.4729139 0.7070455 0.0046490
0.7263849 0.7263834 0.0127944
0.9199200 0.6899400 0.0000000
0.0000000 0.8873000 0.0000000
0.2275716 0.9102862 0.0000000
0.4666362 0.9332725 0.0000000
0.7171940 0.9562587 0.0000000
0.9792450 0.9792450 0.0000000
0.0183657 0.0183636 0.1495656
0.1880288 0.0302419 0.1880241
0.3722690 0.0064165 0.1893421
0.5616230 0.0000276 0.1872261
0.7471337 -0.0000000 0.1867834
0.0336038 0.2148989 0.2148976
0.2500000 0.2500000 0.2500000
0.4336728 0.2193002 0.2193001
0.6209620 0.2069985 0.2069985
0.8064587 0.2016147 0.2016147
0.0071670 0.4420389 0.2246023
0.2371796 0.4693554 0.2371789
0.4909020 0.4909001 0.2537736
0.6802328 0.4535358 0.2268388
0.8657837 0.4328919 0.2164460
0.0000269 0.6706295 0.2235612
0.2312223 0.6936380 0.2312224
0.4777541 0.7165643 0.2389439
0.7390749 0.7390747 0.2474247
0.9251087 0.6938316 0.2312772
-0.0000000 0.8924887 0.2231222
0.2288687 0.9154750 0.2288688
0.4692306 0.9384612 0.2346153
0.7210856 0.9614475 0.2403619
0.9844337 0.9844337 0.2461085
0.0169334 0.0169314 0.3181118
0.1845761 0.0180794 0.3510680
0.3796068 0.0192722 0.3796039
0.5668237 0.0000316 0.3778930
0.7523225 -0.0000000 0.3761613
0.0194644 0.2013915 0.3833203
0.2135337 0.2135323 0.4147897
0.4404696 0.2233480 0.4404687
0.6261612 0.2087204 0.4174409
0.8116475 0.2029119 0.4058238
0.0222672 0.4459136 0.4459128
0.2414642 0.4760416 0.4760414
0.5000000 0.5000000 0.5000000
0.6854862 0.4569908 0.4569909
0.8709725 0.4354862 0.4354863
0.0000407 0.6758236 0.4505627
0.2329462 0.6988387 0.4658925
0.4812166 0.7218250 0.4812167
0.7448112 0.7448112 0.4965409
0.9302975 0.6977231 0.4651488
-0.0000000 0.8976775 0.4488388
0.2301659 0.9206637 0.4603319
0.4718250 0.9436500 0.4718250
0.7249772 0.9666362 0.4833182
0.9896225 0.9896225 0.4948113
0.0057345 0.0057339 0.4971002
0.1769953 0.0034524 0.5240797
0.3662839 0.0017776 0.5485367
0.5719184 0.0011604 0.5719183
0.7575112 -0.0000000 0.5681335
0.0037165 0.1890665 0.5597672
0.1956743 0.1956741 0.5849711
0.4056019 0.2028642 0.6083396
0.6313489 0.2104632 0.6313490
0.8168362 0.2042090 0.6126272
0.0020980 0.4144764 0.6206656
0.2149840 0.4298227 0.6446615
0.4451258 0.4451258 0.6676887
0.6906749 0.4604500 0.6906750
0.8761612 0.4380806 0.6571210
0.0014851 0.6804975 0.6804975
0.2346923 0.7040218 0.7040219
0.4846758 0.7270137 0.7270138
0.7499999 0.7499999 0.7500000
0.9354862 0.7016147 0.7016147
-0.0000000 0.9028662 0.6771497
0.2314631 0.9258525 0.6943894
0.4744193 0.9488387 0.7116291
0.7288687 0.9718250 0.7288688
0.9948112 0.9948112 0.7461085
-0.0000000 -0.0000000 0.6707550
0.1734353 -0.0000000 0.6937413
0.3583637 -0.0000000 0.7167275
0.5547853 -0.0000000 0.7397138
0.7626999 -0.0000000 0.7627000
-0.0000000 0.1825200 0.7300800
0.1882665 0.1882665 0.7530663
0.3880262 0.1940131 0.7760525
0.5992790 0.1997597 0.7990388
0.8220249 0.2055062 0.8220250
-0.0000000 0.3947025 0.7894050
0.2030978 0.4061956 0.8123913
0.4176887 0.4176887 0.8353775
0.6437727 0.4291818 0.8583638
0.8813499 0.4406750 0.8813500
-0.0000000 0.6365474 0.8487300
0.2179290 0.6537871 0.8717163
0.4473512 0.6710268 0.8947025
0.6882665 0.6882665 0.9176888
0.9406749 0.7055062 0.9406750
-0.0000000 0.9080549 0.9080550
0.2327603 0.9310412 0.9310413
0.4770137 0.9540274 0.9540275
0.7327602 0.9770137 0.9770138
0.9999999 0.9999999 1.0000000
