LUTs/post_formation_compression_p3.cube
TITLE "Post Formation Compression P3  Compress lower intensity chroma by lowRMix=0.6 Compress Intensity with luminance coefficient by mixFactor=0.35"
# Compress post-formation lower intensity chroma and intensity with luminance coefficient. Resolution 33. This LUT expects BT.2020 with Illuminant D65 white point and power encoding of 2.4.
LUT_3D_SIZE 9
0.0000000 0.0000000 0.0000000
0.0755935 0.0100158 0.0100154
0.1628577 0.0129838 0.0129833
0.2570525 0.0120151 0.0120147
0.3558197 0.0085303 0.0085300
0.4566059 0.0039814 0.0039812
0.5554442 0.0005666 0.0005666
0.6492019 0.0000000 0.0000000
0.7419450 0.0000000 0.0000000
0.0104372 0.0867174 0.0104356
0.1055690 0.1055658 0.0268978
0.1920090 0.1077858 0.0235646
0.2858808 0.1077420 0.0186730
0.3845716 0.1053879 0.0123267
0.4855521 0.1016202 0.0056371
0.5848713 0.0981976 0.0008628
0.6788643 0.0969806 0.0000000
0.7716075 0.0964509 0.0000000
0.0136301 0.1900347 0.0136280
0.1147418 0.2051729 0.0243040
0.2203528 0.2203482 0.0390102
0.3135816 0.2185544 0.0285057
0.4122828 0.2151986 0.0181159
0.5137605 0.2105275 0.0083724
0.6140294 0.2056552 0.0014682
0.7085267 0.2024363 0.0000002
0.8012700 0.2003175 0.0000000
0.0126302 0.3031674 0.0126283
0.1183493 0.3161443 0.0194476
0.2285534 0.3282547 0.0291396
0.3410374 0.3410325 0.0417069
0.4394011 0.3361265 0.0263110
0.5413354 0.3298343 0.0125843
0.6428271 0.3227219 0.0026170
0.7381879 0.3163670 0.0000014
0.8309325 0.3115997 0.0000000
0.0089211 0.4227094 0.0089198
0.1182083 0.4343257 0.0128333
0.2317863 0.4448977 0.0186699
0.3481901 0.4553351 0.0267416
0.4663229 0.4663186 0.0370854
0.5684287 0.4584656 0.0186209
0.6711746 0.4489944 0.0046349
0.7678418 0.4387714 0.0000108
0.8605950 0.4302975 0.0000000
0.0040882 0.5449497 0.0040876
0.1158249 0.5559653 0.0057888
0.2316126 0.5661568 0.0085811
0.3506460 0.5758513 0.0128339
0.4721027 0.5854177 0.0188308
0.5952201 0.5952170 0.0267333
0.6990227 0.5838353 0.0079022
0.7974598 0.5696333 0.0000672
0.8902575 0.5564109 0.0000000
0.0005437 0.6641954 0.0005437
0.1132700 0.6754377 0.0008364
0.2297511 0.6863651 0.0014437
0.3497592 0.6969117 0.0026061
0.4729139 0.7070455 0.0046490
0.5986733 0.7168198 0.0079347
0.7263849 0.7263834 0.0127944
0.8269551 0.7088631 0.0003112
0.9199200 0.6899400 0.0000000
0.0000000 0.7763875 0.0000000
0.1125544 0.7878806 0.0000000
0.2283925 0.7993736 0.0000001
0.3475144 0.8108656 0.0000010
0.4699183 0.8223502 0.0000092
0.5955874 0.8337975 0.0000623
0.7244309 0.8451187 0.0003036
0.8561573 0.8561572 0.0010839
0.9495825 0.8308847 0.0000000
0.0000000 0.8873000 0.0000000
0.1123491 0.8987931 0.0000000
0.2275716 0.9102862 0.0000000
0.3456673 0.9217794 0.0000000
0.4666362 0.9332725 0.0000000
0.5904785 0.9447656 0.0000000
0.7171940 0.9562587 0.0000000
0.8467829 0.9677519 0.0000000
0.9792450 0.9792450 0.0000000
0.0129888 0.0129872 0.0713691
0.0933236 0.0236475 0.0933199
0.1783012 0.0165196 0.0974088
0.2704105 0.0119128 0.0980778
0.3662830 0.0069223 0.0967620
0.4635216 0.0023752 0.0946044
0.5588773 0.0001395 0.0932624
0.6517962 0.0000000 0.0931138
0.7445394 0.0000000 0.0930674
0.0256947 0.1043257 0.1043247
0.1250000 0.1250000 0.1250000
0.2105674 0.1151518 0.1151510
0.3013158 0.1103259 0.1103254
0.3964278 0.1054742 0.1054739
0.4932796 0.1009554 0.1009553
0.5885376 0.0982322 0.0982322
0.6814587 0.0973512 0.0973513
0.7742019 0.0967752 0.0967752
0.0181504 0.2073374 0.1127422
0.1231632 0.2258593 0.1231600
0.2390738 0.2390696 0.1372964
0.3298857 0.2274706 0.1250574
0.4252125 0.2187447 0.1155110
0.5224360 0.2114942 0.1078470
0.6181223 0.2062367 0.1032653
0.7111212 0.2031775 0.1015888
0.8038644 0.2009661 0.1004831
0.0129546 0.3189566 0.1149538
0.1217193 0.3340635 0.1217169
0.2383185 0.3458939 0.1307369
0.3574973 0.3574930 0.1431780
0.4530337 0.3445517 0.1275917
0.5509978 0.3333346 0.1156718
0.6475820 0.3241022 0.1084490
0.7407837 0.3174787 0.1058263
0.8335269 0.3125726 0.1041909
0.0074208 0.4353488 0.1144019
0.1187497 0.4483883 0.1187483
0.2360843 0.4595383 0.1243546
0.3572513 0.4698631 0.1320200
0.4803920 0.4803885 0.1420807
0.5790029 0.4654702 0.1248756
0.6768199 0.4516806 0.1139718
0.7704462 0.4402550 0.1100638
0.8631894 0.4315947 0.1078987
0.0024739 0.5531774 0.1126143
0.1153583 0.5650491 0.1153579
0.2329979 0.5761029 0.1186287
0.3546875 0.5865253 0.1228478
0.4795411 0.5965639 0.1284670
0.6065676 0.6065654 0.1358468
0.7057167 0.5886031 0.1201501
0.8001085 0.5715062 0.1143015
0.8928519 0.5580324 0.1116065
0.0001318 0.6678439 0.1114172
0.1133570 0.6793462 0.1133570
0.2304355 0.6907535 0.1153560
0.3513091 0.7020177 0.1175032
0.4758268 0.7130489 0.1199933
0.6036454 0.7237681 0.1231529
0.7341795 0.7341788 0.1273990
0.8297675 0.7112303 0.1185440
0.9225144 0.6918858 0.1153143
-0.0000000 0.7789819 0.1112832
0.1129250 0.7904750 0.1129250
0.2291337 0.8019681 0.1145669
0.3486262 0.8134612 0.1162088
0.4714025 0.8249544 0.1178507
0.5974624 0.8364473 0.1194928
0.7268040 0.8479369 0.1211392
0.8594004 0.8594005 0.1228295
0.9521769 0.8331548 0.1190221
-0.0000000 0.8898944 0.1112368
0.1126734 0.9013875 0.1126735
0.2282201 0.9128806 0.1141101
0.3466401 0.9243737 0.1155468
0.4679334 0.9358669 0.1169834
0.5921000 0.9473600 0.1184200
0.7191398 0.9588531 0.1198567
0.8490529 0.9703462 0.1212933
0.9818393 0.9818394 0.1227300
0.0183657 0.0183636 0.1495656
0.0969881 0.0242329 0.1697368
0.1880288 0.0302419 0.1880241
0.2774126 0.0153993 0.1900731
0.3722690 0.0064165 0.1893421
0.4677852 0.0014609 0.1879905
0.5616230 0.0000276 0.1872261
0.6543906 -0.0000000 0.1869688
0.7471337 -0.0000000 0.1867834
0.0255859 0.1041583 0.1827327
0.1146745 0.1146713 0.2026679
0.2195017 0.1225954 0.2194977
0.3101177 0.1104989 0.2103073
0.4035887 0.1044726 0.2041776
0.4979074 0.1004326 0.1998013
0.5912989 0.0985622 0.1971096
0.6840531 0.0977219 0.1954438
0.7767962 0.0970995 0.1941991
0.0336038 0.2148989 0.2148976
0.1310126 0.2346633 0.2346623
0.2500000 0.2500000 0.2500000
0.3410249 0.2302237 0.2302234
0.4336728 0.2193002 0.2193001
0.5276404 0.2117515 0.2117515
0.6209620 0.2069985 0.2069985
0.7137156 0.2039187 0.2039188
0.8064587 0.2016147 0.2016147
0.0173756 0.3256914 0.2229182
0.1224269 0.3442417 0.2333332
0.2419325 0.3585385 0.2419312
0.3696463 0.3696441 0.2528083
0.4626667 0.3491214 0.2355769
0.5570494 0.3350295 0.2240196
0.6506137 0.3253269 0.2168980
0.7433781 0.3185906 0.2123938
0.8361212 0.3135455 0.2090303
0.0071670 0.4420389 0.2246023
0.1180065 0.4568641 0.2309585
0.2371796 0.4693554 0.2371789
0.3623964 0.4803446 0.2444459
0.4909020 0.4909001 0.2537736
0.5860623 0.4696963 0.2369653
0.6802328 0.4535358 0.2268388
0.7730406 0.4417375 0.2208688
0.8657837 0.4328919 0.2164460
0.0015820 0.5579628 0.2241342
0.1149302 0.5702952 0.2287714
0.2334737 0.5819641 0.2334736
0.3567126 0.5931997 0.2384687
0.4840812 0.6040421 0.2441577
0.6146222 0.6146211 0.2510898
0.7097570 0.5915499 0.2369290
0.8027031 0.5733594 0.2293438
0.8954462 0.5596539 0.2238616
0.0000269 0.6706295 0.2235612
0.1137016 0.6821433 0.2273900
0.2312223 0.6936380 0.2312224
0.3525775 0.7051192 0.2350636
0.4777541 0.7165643 0.2389439
0.6066769 0.7279110 0.2429742
0.7390749 0.7390747 0.2474247
0.8323656 0.7134562 0.2378188
0.9251087 0.6938316 0.2312772
-0.0000000 0.7815762 0.2233075
0.1132956 0.7930694 0.2265913
0.2298750 0.8045625 0.2298750
0.3497381 0.8160556 0.2331588
0.4728850 0.8275487 0.2364425
0.5993156 0.8390419 0.2397263
0.7290300 0.8505350 0.2430100
0.8620280 0.8620280 0.2462939
0.9547712 0.8354248 0.2386929
-0.0000000 0.8924887 0.2231222
0.1129977 0.9039819 0.2259955
0.2288687 0.9154750 0.2288688
0.3476130 0.9269681 0.2317421
0.4692306 0.9384612 0.2346153
0.5937215 0.9499544 0.2374886
0.7210856 0.9614475 0.2403619
0.8513230 0.9729406 0.2432352
0.9844337 0.9844337 0.2461085
0.0192976 0.0192954 0.2321342
0.0984343 0.0222867 0.2507210
0.1867261 0.0245773 0.2677953
0.2835510 0.0276012 0.2835468
0.3756741 0.0100906 0.2842770
0.4707080 0.0016631 0.2830899
0.5642343 0.0000124 0.2821234
0.6569850 -0.0000000 0.2815650
0.7497281 -0.0000000 0.2811481
0.0232447 0.1038998 0.2652147
0.1102314 0.1102286 0.2835617
0.2074082 0.1147991 0.3000114
0.3146133 0.1195367 0.3146099
0.4071466 0.1058841 0.3067252
0.5009368 0.1006533 0.3007950
0.5939037 0.0989850 0.2969525
0.6866475 0.0980925 0.2942775
0.7793906 0.0974238 0.2922715
0.0267700 0.2073813 0.2976876
0.1208035 0.2183334 0.3158651
0.2264874 0.2264855 0.3317973
0.3451403 0.2333969 0.3451388
0.4377864 0.2197192 0.3287527
0.5307678 0.2124136 0.3185317
0.6235668 0.2078557 0.3117835
0.7163100 0.2046600 0.3069900
0.8090531 0.2022633 0.3033949
0.0312574 0.3291823 0.3291811
0.1317984 0.3471021 0.3471013
0.2452501 0.3625855 0.3625851
0.3750000 0.3750000 0.3750000
0.4676493 0.3509089 0.3509089
0.5604515 0.3363244 0.3363244
0.6532293 0.3266147 0.3266148
0.7459725 0.3197025 0.3197025
0.8387156 0.3145183 0.3145184
0.0116540 0.4443680 0.3361887
0.1196709 0.4602986 0.3467556
0.2378295 0.4739047 0.3558670
0.3645070 0.4857876 0.3645069
0.4970652 0.4970649 0.3736166
0.5900577 0.4721308 0.3542040
0.6828916 0.4552613 0.3414463
0.7756350 0.4432200 0.3324150
0.8683781 0.4341891 0.3256418
0.0019273 0.5608087 0.3372560
0.1152015 0.5734463 0.3443239
0.2342061 0.5852488 0.3512203
0.3581186 0.5967810 0.3581187
0.4866523 0.6082126 0.3650919
0.6194839 0.6194837 0.3724227
0.7125512 0.5937946 0.3562814
0.8052975 0.5752125 0.3451275
0.8980406 0.5612754 0.3367653
0.0000139 0.6732449 0.3366294
0.1141260 0.6847503 0.3423758
0.2320815 0.6962443 0.3481222
0.3538688 0.7077374 0.3538688
0.4794871 0.7192303 0.3596156
0.6089355 0.7307204 0.3653657
0.7421900 0.7421900 0.3711523
0.8349600 0.7156800 0.3578400
0.9277031 0.6957773 0.3478887
-0.0000000 0.7841706 0.3360732
0.1136662 0.7956637 0.3409988
0.2306162 0.8071569 0.3459244
0.3508500 0.8186500 0.3508500
0.4743675 0.8301431 0.3557757
0.6011687 0.8416362 0.3607013
0.7312537 0.8531294 0.3656269
0.8646225 0.8646225 0.3705525
0.9573656 0.8376949 0.3590122
-0.0000000 0.8950831 0.3356562
0.1133220 0.9065762 0.3399661
0.2295173 0.9180694 0.3442761
0.3485859 0.9295625 0.3485860
0.4705278 0.9410556 0.3528959
0.5953429 0.9525487 0.3572058
0.7230314 0.9640419 0.3615157
0.8535931 0.9755350 0.3658257
0.9870281 0.9870281 0.3701356
0.0169334 0.0169314 0.3181118
0.0971791 0.0178326 0.3352095
0.1845761 0.0180794 0.3510680
0.2788945 0.0182585 0.3657696
0.3796068 0.0192722 0.3796039
0.4731490 0.0036514 0.3792490
0.5668237 0.0000316 0.3778930
0.6595793 -0.0000000 0.3769025
0.7523225 -0.0000000 0.3761613
0.0184836 0.1016023 0.3509641
0.1051661 0.1051640 0.3677686
0.1995031 0.1076717 0.3831598
0.3014019 0.1098032 0.3971983
0.4102345 0.1126799 0.4102324
0.5034872 0.1017419 0.4030507
0.5964983 0.0994174 0.3976660
0.6892418 0.0984631 0.3938525
0.7819850 0.0977481 0.3909925
0.0194644 0.2013915 0.3833203
0.1123293 0.2081674 0.3998467
0.2135337 0.2135323 0.4147897
0.3231829 0.2181804 0.4281832
0.4404696 0.2233480 0.4404687
0.5333876 0.2134666 0.4267473
0.6261612 0.2087204 0.4174409
0.7189043 0.2054012 0.4108025
0.8116475 0.2029119 0.4058238
0.0204130 0.3163627 0.4150127
0.1192271 0.3272495 0.4312611
0.2271926 0.3364866 0.4457813
0.3446561 0.3446558 0.4585914
0.4703271 0.3529273 0.4703270
0.5630801 0.3378496 0.4504649
0.6558237 0.3279119 0.4372159
0.7485668 0.3208144 0.4277525
0.8413100 0.3154912 0.4206550
0.0222672 0.4459136 0.4459128
0.1268893 0.4618774 0.4618769
0.2414642 0.4760416 0.4760414
0.3665425 0.4884564 0.4884564
0.5000000 0.5000000 0.5000000
0.5927431 0.4741945 0.4741945
0.6854862 0.4569908 0.4569909
0.7782293 0.4447025 0.4447025
0.8709725 0.4354862 0.4354863
0.0043629 0.5625287 0.4508953
0.1163887 0.5757928 0.4609417
0.2352731 0.5878603 0.4703313
0.3596527 0.5994185 0.4795356
0.4887300 0.6109125 0.4887300
0.6224043 0.6224043 0.4979266
0.7151487 0.5959573 0.4767659
0.8078918 0.5770656 0.4616525
0.9006350 0.5628969 0.4503175
0.0000407 0.6758236 0.4505627
0.1145587 0.6873447 0.4582304
0.2329462 0.6988387 0.4658925
0.3551659 0.7103319 0.4735546
0.4812166 0.7218250 0.4812167
0.6110984 0.7333181 0.4888788
0.7448112 0.7448112 0.4965409
0.8375543 0.7179037 0.4786025
0.9302975 0.6977231 0.4651488
-0.0000000 0.7867650 0.4495800
0.1140369 0.7982581 0.4561475
0.2313575 0.8097512 0.4627150
0.3519618 0.8212443 0.4692825
0.4758500 0.8327375 0.4758500
0.6030218 0.8442306 0.4824175
0.7334775 0.8557237 0.4889850
0.8672168 0.8672169 0.4955525
0.9599600 0.8399650 0.4799800
-0.0000000 0.8976775 0.4488388
0.1136463 0.9091706 0.4545853
0.2301659 0.9206637 0.4603319
0.3495588 0.9321568 0.4660785
0.4718250 0.9436500 0.4718250
0.5969644 0.9551431 0.4775716
0.7249772 0.9666362 0.4833182
0.8558632 0.9781293 0.4890647
0.9896225 0.9896225 0.4948113
0.0120789 0.0120775 0.4067656
0.0937014 0.0115344 0.4223621
0.1811279 0.0105974 0.4369201
0.2741663 0.0095807 0.4505546
0.3725384 0.0088467 0.4634597
0.4758872 0.0087599 0.4758859
0.5693835 0.0002060 0.4745206
0.6621737 -0.0000000 0.4729813
0.7549168 -0.0000000 0.4718231
0.0119214 0.0973738 0.4391883
0.0991418 0.0991405 0.4544066
0.1924421 0.1004178 0.4685107
0.2916111 0.1015727 0.4816478
0.3962945 0.1029852 0.4940633
0.5060502 0.1049638 0.5060496
0.5990899 0.0998627 0.4992445
0.6918362 0.0988337 0.4941688
0.7845793 0.0980724 0.4903621
0.0113520 0.1952617 0.4711278
0.1041643 0.1996125 0.4859597
0.2034073 0.2034066 0.4996088
0.3088026 0.2070671 0.5122722
0.4198389 0.2109712 0.5242723
0.5359481 0.2152950 0.5359479
0.6287556 0.2095853 0.5239630
0.7214987 0.2061425 0.5153563
0.8142418 0.2035605 0.5089012
0.0106552 0.3057813 0.5025326
0.1090737 0.3130287 0.5169844
0.2143423 0.3196279 0.5301997
0.3260457 0.3260456 0.5424457
0.4433963 0.3326461 0.5541464
0.5656713 0.3394616 0.5656713
0.6584181 0.3292090 0.5486818
0.7511612 0.3219262 0.5365438
0.8439043 0.3164641 0.5274403
0.0102038 0.4287523 0.5333894
0.1142184 0.4391805 0.5475013
0.2255414 0.4487492 0.5603532
0.3435474 0.4579204 0.5722935
0.4670775 0.4670775 0.5838434
0.5953374 0.4762700 0.5953375
0.6880806 0.4587204 0.5734006
0.7808237 0.4461850 0.5577313
0.8735668 0.4367834 0.5459793
0.0104169 0.5637265 0.5637262
0.1199160 0.5775845 0.5775844
0.2371475 0.5902047 0.5902047
0.3612662 0.6019950 0.6019951
0.4908055 0.6135068 0.6135069
0.6249999 0.6250000 0.6250000
0.7177431 0.5981192 0.5981193
0.8104862 0.5789187 0.5789188
0.9032293 0.5645183 0.5645184
0.0002717 0.6783059 0.5653003
0.1150079 0.6899304 0.5749460
0.2338111 0.7014330 0.5845276
0.3564631 0.7129262 0.5941052
0.4829462 0.7244193 0.6036828
0.6132604 0.7359125 0.6132605
0.7474056 0.7474056 0.6228381
0.8401487 0.7201275 0.6001063
0.9328918 0.6996689 0.5830575
-0.0000000 0.7893593 0.5638282
0.1144075 0.8008525 0.5720375
0.2320987 0.8123456 0.5802469
0.3530737 0.8238387 0.5884563
0.4773325 0.8353318 0.5966657
0.6048750 0.8468250 0.6048750
0.7357012 0.8583181 0.6130844
0.8698112 0.8698112 0.6212938
0.9625543 0.8422351 0.6015965
-0.0000000 0.9002718 0.5626700
0.1139706 0.9117650 0.5698532
0.2308145 0.9232581 0.5770364
0.3505317 0.9347512 0.5842196
0.4731222 0.9462443 0.5914028
0.5985859 0.9577375 0.5985860
0.7269229 0.9692306 0.6057692
0.8581332 0.9807237 0.6129524
0.9922168 0.9922168 0.6201356
0.0057345 0.0057339 0.4971002
0.0889913 0.0045885 0.5110019
0.1769953 0.0034524 0.5240797
0.2695052 0.0024857 0.5365240
0.3662839 0.0017776 0.5485367
0.4671348 0.0013437 0.5602928
0.5719184 0.0011604 0.5719183
0.6647681 -0.0000000 0.5698013
0.7575112 -0.0000000 0.5681335
0.0047488 0.0920712 0.5286859
0.0931015 0.0931011 0.5421096
0.1862872 0.0941741 0.5547380
0.2839898 0.0954430 0.5668097
0.3859139 0.0969529 0.5785544
0.4918461 0.0986606 0.5901424
0.6016694 0.1004984 0.6016695
0.6944306 0.0992044 0.5952263
0.7871737 0.0983967 0.5903803
0.0037165 0.1890665 0.5597672
0.0972473 0.1923449 0.5727363
0.1956743 0.1956741 0.5849711
0.2985765 0.1991824 0.5967587
0.4056019 0.2028642 0.6083396
0.5165503 0.2066449 0.6198522
0.6313489 0.2104632 0.6313490
0.7240931 0.2068837 0.6206513
0.8168362 0.2042090 0.6126272
0.0027973 0.2965975 0.5903979
0.1015647 0.3021267 0.6029698
0.2052454 0.3076592 0.6149007
0.3132986 0.3132986 0.6265131
0.4253530 0.3190171 0.6380248
0.5412662 0.3247600 0.6495193
0.6610124 0.3305063 0.6610125
0.7537556 0.3230381 0.6460763
0.8464987 0.3174370 0.6348741
0.0020980 0.4144764 0.6206656
0.1061025 0.4221980 0.6329285
0.2149840 0.4298227 0.6446615
0.3281020 0.4374658 0.6561935
0.4451258 0.4451258 0.6676887
0.5659848 0.4527879 0.6791819
0.6906749 0.4604500 0.6906750
0.7834181 0.4476675 0.6715013
0.8761612 0.4380806 0.6571210
0.0016598 0.5425018 0.6506703
0.1108305 0.5523462 0.6627252
0.2248188 0.5619691 0.6743526
0.3429294 0.5715484 0.6858580
0.4649008 0.5811260 0.6973513
0.5907036 0.5907036 0.7088444
0.7203374 0.6002812 0.7203375
0.8130806 0.5807719 0.6969263
0.9058237 0.5661398 0.6793679
0.0014851 0.6804975 0.6804975
0.1156923 0.6924388 0.6924389
0.2346923 0.7040218 0.7040219
0.3577604 0.7155205 0.7155206
0.4846758 0.7270137 0.7270138
0.6154223 0.7385068 0.7385069
0.7499999 0.7499999 0.7500000
0.8427431 0.7223512 0.7223513
0.9354862 0.7016147 0.7016147
-0.0000000 0.7919537 0.6788175
0.1147781 0.8034468 0.6886688
0.2328400 0.8149400 0.6985200
0.3541856 0.8264331 0.7083713
0.4788150 0.8379262 0.7182225
0.6067281 0.8494193 0.7280738
0.7379250 0.8609125 0.7379250
0.8724056 0.8724056 0.7477763
0.9651487 0.8445051 0.7238616
-0.0000000 0.9028662 0.6771497
0.1142949 0.9143593 0.6857696
0.2314631 0.9258525 0.6943894
0.3515046 0.9373456 0.7030093
0.4744193 0.9488387 0.7116291
0.6002074 0.9603318 0.7202490
0.7288687 0.9718250 0.7288688
0.8604033 0.9833181 0.7374886
0.9948112 0.9948112 0.7461085
0.0004839 0.0004838 0.5864045
0.0856114 0.0001689 0.5982666
0.1742793 0.0000430 0.6098699
0.2663128 0.0000078 0.6213863
0.3616477 0.0000010 0.6328828
0.4602687 0.0000001 0.6443762
0.5621737 -0.0000000 0.6558694
0.6673624 -0.0000000 0.6673625
0.7601056 -0.0000000 0.6650924
0.0001791 0.0882129 0.6164158
0.0897510 0.0897510 0.6280415
0.1827335 0.0913688 0.6395572
0.2790226 0.0930077 0.6510524
0.3785975 0.0946494 0.6625456
0.4814562 0.0962912 0.6740388
0.5875987 0.0979331 0.6855319
0.6970249 0.0995750 0.6970250
0.7897681 0.0987210 0.6910471
0.0000496 0.1846636 0.6461986
0.0939647 0.1879249 0.6577261
0.1912063 0.1912063 0.6692218
0.2917350 0.1944900 0.6807150
0.3955475 0.1977737 0.6922081
0.5026437 0.2010575 0.7037013
0.6130237 0.2043412 0.7151944
0.7266874 0.2076250 0.7266875
0.8194306 0.2048576 0.7170018
0.0000102 0.2896736 0.6758916
0.0981989 0.2945963 0.6873911
0.1996812 0.2995218 0.6988844
0.3044475 0.3044475 0.7103775
0.4124975 0.3093731 0.7218706
0.5238312 0.3142987 0.7333638
0.6384487 0.3192243 0.7448569
0.7563499 0.3241500 0.7563500
0.8490931 0.3184099 0.7429565
0.0000016 0.4031776 0.7055597
0.1024362 0.4097450 0.7170538
0.2081562 0.4163125 0.7285469
0.3171600 0.4228800 0.7400400
0.4294474 0.4294475 0.7515331
0.5450187 0.4360150 0.7630263
0.6638737 0.4425825 0.7745194
0.7860124 0.4491500 0.7860125
0.8787556 0.4393778 0.7689112
0.0000002 0.5251593 0.7352230
0.1066737 0.5333687 0.7467163
0.2166312 0.5415781 0.7582094
0.3298725 0.5497875 0.7697025
0.4463974 0.5579968 0.7811956
0.5662062 0.5662062 0.7926888
0.6892987 0.5744156 0.8041819
0.8156749 0.5826250 0.8156750
0.9084181 0.5677613 0.7948659
0.0000000 0.6556162 0.7648856
0.1109112 0.6654674 0.7763788
0.2251062 0.6753187 0.7878719
0.3425850 0.6851699 0.7993650
0.4633474 0.6950212 0.8108581
0.5873937 0.7048724 0.8223513
0.7147237 0.7147237 0.8338444
0.8453374 0.7245749 0.8453375
0.9380806 0.7035604 0.8208206
-0.0000000 0.7945481 0.7945481
0.1151487 0.8060412 0.8060413
0.2335812 0.8175343 0.8175344
0.3552974 0.8290274 0.8290275
0.4802974 0.8405206 0.8405206
0.6085812 0.8520137 0.8520138
0.7401487 0.8635068 0.8635069
0.8749999 0.8749999 0.8750000
0.9677431 0.8467752 0.8467753
-0.0000000 0.9054606 0.7922781
0.1146192 0.9169537 0.8023346
0.2321117 0.9284468 0.8123911
0.3524775 0.9399400 0.8224475
0.4757165 0.9514331 0.8325040
0.6018289 0.9629262 0.8425605
0.7308145 0.9744193 0.8526170
0.8626734 0.9859125 0.8626735
0.9974056 0.9974056 0.8727300
-0.0000000 -0.0000000 0.6707550
0.0852810 -0.0000000 0.6822481
0.1734353 -0.0000000 0.6937413
0.2644629 -0.0000000 0.7052344
0.3583637 -0.0000000 0.7167275
0.4551378 -0.0000000 0.7282206
0.5547853 -0.0000000 0.7397138
0.6573060 -0.0000000 0.7512069
0.7626999 -0.0000000 0.7627000
-0.0000000 0.0875522 0.7004175
0.0889888 0.0889888 0.7119106
0.1808509 0.0904254 0.7234038
0.2755863 0.0918621 0.7348969
0.3731950 0.0932987 0.7463900
0.4736769 0.0947354 0.7578831
0.5770321 0.0961720 0.7693763
0.6832606 0.0976086 0.7808694
0.7923624 0.0990453 0.7923625
-0.0000000 0.1825200 0.7300800
0.0926966 0.1853933 0.7415731
0.1882665 0.1882665 0.7530663
0.2867097 0.1911398 0.7645594
0.3880262 0.1940131 0.7760525
0.4922160 0.1968864 0.7875456
0.5992790 0.1997597 0.7990388
0.7092153 0.2026329 0.8105319
0.8220249 0.2055062 0.8220250
-0.0000000 0.2849034 0.7597425
0.0964044 0.2892133 0.7712356
0.1956821 0.2935232 0.7827288
0.2978332 0.2978332 0.7942219
0.4028574 0.3021431 0.8057150
0.5107550 0.3064530 0.8172081
0.6215259 0.3107629 0.8287013
0.7351700 0.3150729 0.8401944
0.8516874 0.3193828 0.8516875
-0.0000000 0.3947025 0.7894050
0.1001122 0.4004490 0.8008981
0.2030978 0.4061956 0.8123913
0.3089566 0.4119421 0.8238844
0.4176887 0.4176887 0.8353775
0.5292941 0.4234353 0.8468706
0.6437727 0.4291818 0.8583638
0.7611247 0.4349284 0.8698569
0.8813499 0.4406750 0.8813500
-0.0000000 0.5119171 0.8190675
0.1038200 0.5191003 0.8305606
0.2105134 0.5262835 0.8420538
0.3200800 0.5334667 0.8535469
0.4325199 0.5406500 0.8650400
0.5478331 0.5478332 0.8765331
0.6660196 0.5550164 0.8880263
0.7870794 0.5621996 0.8995194
0.9110124 0.5693828 0.9110125
-0.0000000 0.6365474 0.8487300
0.1075279 0.6451673 0.8602231
0.2179290 0.6537871 0.8717163
0.3312035 0.6624070 0.8832094
0.4473512 0.6710268 0.8947025
0.5663722 0.6796467 0.9061956
0.6882665 0.6882665 0.9176888
0.8130341 0.6968863 0.9291819
0.9406749 0.7055062 0.9406750
-0.0000000 0.7685934 0.8783925
0.1112357 0.7786499 0.8898856
0.2253446 0.7887063 0.9013788
0.3423269 0.7987628 0.9128719
0.4621824 0.8088193 0.9243650
0.5849113 0.8188758 0.9358581
0.7105134 0.8289323 0.9473513
0.8389887 0.8389888 0.9588444
0.9703374 0.8490452 0.9703375
-0.0000000 0.9080549 0.9080550
0.1149435 0.9195481 0.9195481
0.2327603 0.9310412 0.9310413
0.3534503 0.9425343 0.9425344
0.4770137 0.9540274 0.9540275
0.6034503 0.9655206 0.9655206
0.7327602 0.9770137 0.9770138
0.8649434 0.9885068 0.9885069
0.9999999 0.9999999 1.0000000
