LUTs/Spherical_Compression.cube
TITLE "Spherical Chroma Compression"
# Spherically compress chroma by a gentle curve such that very high chroma values are reduced by 25.0%
# At a spherical chroma of 1.0, the compression is 22.0%
LUT_3D_SIZE 33
0.0000000 0.0000000 0.0000000
0.0312500 0.0000000 0.0000000
0.0625000 0.0000000 0.0000000
0.0937500 0.0000001 0.0000001
0.1250000 0.0000005 0.0000005
0.1562499 0.0000023 0.0000023
0.1874998 0.0000105 0.0000105
0.2187495 0.0000484 0.0000484
0.2499990 0.0002211 0.0002211
0.2812478 0.0009999 0.0009999
0.3124953 0.0043743 0.0043743
0.3437400 0.0169872 0.0169872
0.3749786 0.0494789 0.0494789
0.4062044 0.1008589 0.1008589
0.4374030 0.1602878 0.1602878
0.4685447 0.2217151 0.2217151
0.4995697 0.2831996 0.2831996
0.5303663 0.3438588 0.3438588
0.5607566 0.4026800 0.4026800
0.5905641 0.4580660 0.4580660
0.6198931 0.5078211 0.5078211
0.6494672 0.5499510 0.5499510
0.6800472 0.5847587 0.5847587
0.7112351 0.6163208 0.6163208
0.7424847 0.6475725 0.6475725
0.7737347 0.6788225 0.6788225
0.8049847 0.7100725 0.7100725
0.8362347 0.7413225 0.7413225
0.8674847 0.7725725 0.7725725
0.8987347 0.8038225 0.8038225
0.9299847 0.8350725 0.8350725
0.9612347 0.8663225 0.8663225
0.9924847 0.8975725 0.8975725
0.0000000 0.0312500 0.0000000
0.0312500 0.0312500 0.0000000
0.0625000 0.0312500 0.0000000
0.0937500 0.0312500 0.0000001
0.1250000 0.0312502 0.0000005
0.1562499 0.0312510 0.0000023
0.1874998 0.0312548 0.0000106
0.2187495 0.0312724 0.0000485
0.2499990 0.0313531 0.0002214
0.2812478 0.0317201 0.0010005
0.3124953 0.0333545 0.0043755
0.3437400 0.0400768 0.0169891
0.3749786 0.0615824 0.0494807
0.4062044 0.1047146 0.1008600
0.4374030 0.1612313 0.1602883
0.4685447 0.2219289 0.2217154
0.4995697 0.2832475 0.2831998
0.5303663 0.3438696 0.3438588
0.5607566 0.4026826 0.4026801
0.5905641 0.4580666 0.4580660
0.6198931 0.5078213 0.5078212
0.6494672 0.5499511 0.5499510
0.6800472 0.5847587 0.5847587
0.7112351 0.6163208 0.6163208
0.7424847 0.6475725 0.6475725
0.7737347 0.6788225 0.6788225
0.8049847 0.7100725 0.7100725
0.8362347 0.7413225 0.7413225
0.8674847 0.7725725 0.7725725
0.8987347 0.8038225 0.8038225
0.9299847 0.8350725 0.8350725
0.9612347 0.8663225 0.8663225
0.9924847 0.8975725 0.8975725
0.0000000 0.0625000 0.0000000
0.0312500 0.0625000 0.0000000
0.0625000 0.0625000 0.0000000
0.0937500 0.0625000 0.0000001
0.1250000 0.0625001 0.0000005
0.1562499 0.0625004 0.0000023
0.1874998 0.0625021 0.0000107
0.2187495 0.0625102 0.0000488
0.2499990 0.0625476 0.0002220
0.2812478 0.0627195 0.0010018
0.3124953 0.0634964 0.0043780
0.3437400 0.0668657 0.0169931
0.3749786 0.0794625 0.0494846
0.4062044 0.1119053 0.1008624
0.4374030 0.1631757 0.1602896
0.4685447 0.2223816 0.2217160
0.4995697 0.2833495 0.2832001
0.5303663 0.3438928 0.3438590
0.5607566 0.4026880 0.4026801
0.5905641 0.4580680 0.4580661
0.6198931 0.5078217 0.5078212
0.6494672 0.5499512 0.5499510
0.6800472 0.5847588 0.5847587
0.7112351 0.6163209 0.6163208
0.7424847 0.6475725 0.6475725
0.7737347 0.6788225 0.6788225
0.8049847 0.7100725 0.7100725
0.8362347 0.7413225 0.7413225
0.8674847 0.7725725 0.7725725
0.8987347 0.8038225 0.8038225
0.9299847 0.8350725 0.8350725
0.9612347 0.8663225 0.8663225
0.9924847 0.8975725 0.8975725
0.0000001 0.0937500 0.0000001
0.0312500 0.0937500 0.0000001
0.0625000 0.0937500 0.0000001
0.0937500 0.0937500 0.0000002
0.1250000 0.0937500 0.0000006
0.1562499 0.0937501 0.0000025
0.1874998 0.0937508 0.0000110
0.2187495 0.0937545 0.0000494
0.2499990 0.0937717 0.0002233
0.2812478 0.0938515 0.0010046
0.3124953 0.0942168 0.0043835
0.3437400 0.0958468 0.0170017
0.3749786 0.1025566 0.0494930
0.4062044 0.1240198 0.1008676
0.4374030 0.1670420 0.1602921
0.4685447 0.2233313 0.2217172
0.4995698 0.2835664 0.2832007
0.5303663 0.3439421 0.3438593
0.5607566 0.4026996 0.4026803
0.5905641 0.4580709 0.4580661
0.6198931 0.5078225 0.5078212
0.6494672 0.5499515 0.5499510
0.6800472 0.5847589 0.5847587
0.7112351 0.6163209 0.6163208
0.7424847 0.6475726 0.6475725
0.7737347 0.6788225 0.6788225
0.8049847 0.7100725 0.7100725
0.8362347 0.7413225 0.7413225
0.8674847 0.7725725 0.7725725
0.8987347 0.8038225 0.8038225
0.9299847 0.8350725 0.8350725
0.9612347 0.8663225 0.8663225
0.9924847 0.8975725 0.8975725
0.0000005 0.1250000 0.0000005
0.0312502 0.1250000 0.0000005
0.0625001 0.1250000 0.0000005
0.0937500 0.1250000 0.0000006
0.1250000 0.1250000 0.0000009
0.1562499 0.1250000 0.0000028
0.1874998 0.1250003 0.0000116
0.2187496 0.1250018 0.0000507
0.2499990 0.1250095 0.0002261
0.2812478 0.1250462 0.0010105
0.3124953 0.1252163 0.0043951
0.3437400 0.1259893 0.0170201
0.3749786 0.1293484 0.0495108
0.4062044 0.1419113 0.1008785
0.4374030 0.1742501 0.1602977
0.4685447 0.2252879 0.2217199
0.4995698 0.2840254 0.2832019
0.5303663 0.3440473 0.3438599
0.5607567 0.4027242 0.4026806
0.5905641 0.4580771 0.4580663
0.6198931 0.5078243 0.5078213
0.6494673 0.5499521 0.5499511
0.6800472 0.5847592 0.5847587
0.7112351 0.6163210 0.6163208
0.7424847 0.6475726 0.6475725
0.7737347 0.6788226 0.6788225
0.8049847 0.7100725 0.7100725
0.8362347 0.7413225 0.7413225
0.8674847 0.7725725 0.7725725
0.8987347 0.8038225 0.8038225
0.9299847 0.8350725 0.8350725
0.9612347 0.8663225 0.8663225
0.9924847 0.8975725 0.8975725
0.0000023 0.1562499 0.0000023
0.0312510 0.1562499 0.0000023
0.0625004 0.1562499 0.0000023
0.0937501 0.1562499 0.0000025
0.1250000 0.1562499 0.0000028
0.1562499 0.1562499 0.0000045
0.1874999 0.1562500 0.0000133
0.2187496 0.1562506 0.0000536
0.2499991 0.1562538 0.0002320
0.2812479 0.1562702 0.0010230
0.3124954 0.1563484 0.0044199
0.3437401 0.1567099 0.0170591
0.3749787 0.1583311 0.0495487
0.4062045 0.1650144 0.1009018
0.4374031 0.1863879 0.1603094
0.4685448 0.2291770 0.2217256
0.4995698 0.2849884 0.2832046
0.5303664 0.3442708 0.3438612
0.5607567 0.4027769 0.4026813
0.5905642 0.4580903 0.4580667
0.6198931 0.5078281 0.5078215
0.6494673 0.5499534 0.5499512
0.6800472 0.5847597 0.5847588
0.7112351 0.6163213 0.6163209
0.7424847 0.6475727 0.6475725
0.7737347 0.6788226 0.6788225
0.8049847 0.7100726 0.7100725
0.8362347 0.7413225 0.7413225
0.8674847 0.7725725 0.7725725
0.8987347 0.8038225 0.8038225
0.9299847 0.8350725 0.8350725
0.9612347 0.8663225 0.8663225
0.9924847 0.8975725 0.8975725
0.0000105 0.1874998 0.0000105
0.0312548 0.1874998 0.0000106
0.0625021 0.1874998 0.0000107
0.0937508 0.1874998 0.0000110
0.1250003 0.1874998 0.0000116
0.1562500 0.1874999 0.0000133
0.1874999 0.1874999 0.0000210
0.2187497 0.1875000 0.0000615
0.2499992 0.1875012 0.0002451
0.2812480 0.1875081 0.0010496
0.3124955 0.1875431 0.0044723
0.3437402 0.1877096 0.0171419
0.3749788 0.1884744 0.0496293
0.4062046 0.1918120 0.1009514
0.4374032 0.2043033 0.1603345
0.4685449 0.2364221 0.2217376
0.4995700 0.2869714 0.2832104
0.5303665 0.3447438 0.3438640
0.5607568 0.4028889 0.4026827
0.5905642 0.4581185 0.4580674
0.6198932 0.5078361 0.5078219
0.6494673 0.5499562 0.5499514
0.6800472 0.5847609 0.5847589
0.7112351 0.6163218 0.6163209
0.7424847 0.6475730 0.6475726
0.7737347 0.6788227 0.6788225
0.8049847 0.7100726 0.7100725
0.8362347 0.7413226 0.7413225
0.8674847 0.7725725 0.7725725
0.8987347 0.8038225 0.8038225
0.9299847 0.8350725 0.8350725
0.9612347 0.8663225 0.8663225
0.9924847 0.8975725 0.8975725
0.0000484 0.2187495 0.0000484
0.0312724 0.2187495 0.0000485
0.0625102 0.2187495 0.0000488
0.0937545 0.2187495 0.0000494
0.1250018 0.2187496 0.0000507
0.1562506 0.2187496 0.0000536
0.1875000 0.2187497 0.0000615
0.2187498 0.2187498 0.0000967
0.2499993 0.2187501 0.0002809
0.2812482 0.2187526 0.0011082
0.3124957 0.2187673 0.0045835
0.3437404 0.2188419 0.0173170
0.3749790 0.2191956 0.0498003
0.4062048 0.2207980 0.1010570
0.4374034 0.2274255 0.1603880
0.4685451 0.2486094 0.2217634
0.4995702 0.2909092 0.2832228
0.5303667 0.3457355 0.3438701
0.5607570 0.4031271 0.4026857
0.5905644 0.4581785 0.4580690
0.6198933 0.5078532 0.5078228
0.6494674 0.5499622 0.5499519
0.6800473 0.5847634 0.5847591
0.7112351 0.6163230 0.6163210
0.7424847 0.6475735 0.6475726
0.7737347 0.6788230 0.6788226
0.8049847 0.7100727 0.7100725
0.8362347 0.7413226 0.7413225
0.8674847 0.7725726 0.7725725
0.8987347 0.8038225 0.8038225
0.9299847 0.8350725 0.8350725
0.9612347 0.8663225 0.8663225
0.9924847 0.8975725 0.8975725
0.0002211 0.2499990 0.0002211
0.0313531 0.2499990 0.0002214
0.0625476 0.2499990 0.0002220
0.0937717 0.2499990 0.0002233
0.1250095 0.2499990 0.0002261
0.1562538 0.2499991 0.0002320
0.1875012 0.2499992 0.0002451
0.2187501 0.2499993 0.0002809
0.2499995 0.2499995 0.0004410
0.2812485 0.2500001 0.0012680
0.3124962 0.2500055 0.0048282
0.3437409 0.2500370 0.0176868
0.3749796 0.2501958 0.0501607
0.4062054 0.2509432 0.1012805
0.4374040 0.2542353 0.1605017
0.4685457 0.2665758 0.2218183
0.4995707 0.2982337 0.2832492
0.5303672 0.3477755 0.3438829
0.5607575 0.4036309 0.4026922
0.5905648 0.4583064 0.4580724
0.6198935 0.5078898 0.5078246
0.6494675 0.5499749 0.5499529
0.6800473 0.5847689 0.5847597
0.7112351 0.6163255 0.6163213
0.7424848 0.6475747 0.6475727
0.7737347 0.6788235 0.6788226
0.8049847 0.7100730 0.7100725
0.8362347 0.7413227 0.7413225
0.8674847 0.7725726 0.7725725
0.8987347 0.8038226 0.8038225
0.9299847 0.8350725 0.8350725
0.9612347 0.8663225 0.8663225
0.9924847 0.8975725 0.8975725
0.0009999 0.2812478 0.0009999
0.0317201 0.2812478 0.0010005
0.0627195 0.2812478 0.0010018
0.0938515 0.2812478 0.0010046
0.1250462 0.2812478 0.0010105
0.1562702 0.2812479 0.0010230
0.1875081 0.2812480 0.0010496
0.2187526 0.2812482 0.0011082
0.2500001 0.2812485 0.0012680
0.2812489 0.2812489 0.0019762
0.3124969 0.2812503 0.0054899
0.3437419 0.2812617 0.0184928
0.3749806 0.2813288 0.0509167
0.4062065 0.2816658 0.1017508
0.4374051 0.2832285 0.1607423
0.4685468 0.2897385 0.2219349
0.4995718 0.3105267 0.2833053
0.5303683 0.3518187 0.3439104
0.5607584 0.4046860 0.4027061
0.5905655 0.4585781 0.4580797
0.6198941 0.5079677 0.5078286
0.6494677 0.5500020 0.5499551
0.6800474 0.5847804 0.5847608
0.7112352 0.6163309 0.6163218
0.7424848 0.6475772 0.6475730
0.7737348 0.6788247 0.6788227
0.8049847 0.7100735 0.7100726
0.8362347 0.7413230 0.7413225
0.8674847 0.7725727 0.7725725
0.8987347 0.8038226 0.8038225
0.9299847 0.8350726 0.8350725
0.9612347 0.8663225 0.8663225
0.9924847 0.8975725 0.8975725
0.0043743 0.3124953 0.0043743
0.0333545 0.3124953 0.0043755
0.0634964 0.3124953 0.0043780
0.0942168 0.3124953 0.0043835
0.1252163 0.3124953 0.0043951
0.1563484 0.3124954 0.0044199
0.1875431 0.3124955 0.0044723
0.2187673 0.3124957 0.0045835
0.2500055 0.3124962 0.0048282
0.2812503 0.3124969 0.0054899
0.3124976 0.3124976 0.0083286
0.3437433 0.3125006 0.0206188
0.3749826 0.3125249 0.0525400
0.4062087 0.3126675 0.1027331
0.4374075 0.3133784 0.1612483
0.4685492 0.3165750 0.2221818
0.4995742 0.3286021 0.2834247
0.5303705 0.3593141 0.3439689
0.5607604 0.4068515 0.4027356
0.5905672 0.4591520 0.4580953
0.6198951 0.5081335 0.5078371
0.6494683 0.5500599 0.5499598
0.6800477 0.5848051 0.5847632
0.7112353 0.6163424 0.6163230
0.7424848 0.6475826 0.6475735
0.7737348 0.6788272 0.6788230
0.8049848 0.7100747 0.7100727
0.8362347 0.7413235 0.7413226
0.8674847 0.7725730 0.7725725
0.8987347 0.8038227 0.8038225
0.9299847 0.8350726 0.8350725
0.9612347 0.8663226 0.8663225
0.9924847 0.8975725 0.8975725
0.0169872 0.3437400 0.0169872
0.0400768 0.3437400 0.0169891
0.0668657 0.3437400 0.0169931
0.0958468 0.3437400 0.0170017
0.1259893 0.3437400 0.0170201
0.1567099 0.3437401 0.0170591
0.1877096 0.3437402 0.0171419
0.2188419 0.3437404 0.0173170
0.2500370 0.3437409 0.0176868
0.2812617 0.3437419 0.0184928
0.3125006 0.3437433 0.0206188
0.3437450 0.3437450 0.0289818
0.3749858 0.3437512 0.0566750
0.4062130 0.3438031 0.1048240
0.4374123 0.3441052 0.1623037
0.4685542 0.3455849 0.2227007
0.4995792 0.3518520 0.2836775
0.5303753 0.3718335 0.3440932
0.5607647 0.4111251 0.4027984
0.5905706 0.4603508 0.4581284
0.6198975 0.5084851 0.5078553
0.6494695 0.5501830 0.5499697
0.6800482 0.5848577 0.5847684
0.7112355 0.6163669 0.6163254
0.7424849 0.6475941 0.6475747
0.7737348 0.6788326 0.6788235
0.8049848 0.7100772 0.7100730
0.8362348 0.7413247 0.7413227
0.8674847 0.7725735 0.7725726
0.8987347 0.8038230 0.8038225
0.9299847 0.8350727 0.8350725
0.9612347 0.8663226 0.8663225
0.9924847 0.8975726 0.8975725
0.0494789 0.3749786 0.0494789
0.0615824 0.3749786 0.0494807
0.0794625 0.3749786 0.0494846
0.1025566 0.3749786 0.0494930
0.1293484 0.3749786 0.0495108
0.1583311 0.3749787 0.0495487
0.1884744 0.3749788 0.0496293
0.2191956 0.3749790 0.0498003
0.2501958 0.3749796 0.0501607
0.2813288 0.3749806 0.0509167
0.3125249 0.3749826 0.0525400
0.3437512 0.3749858 0.0566750
0.3749893 0.3749893 0.0713250
0.4062197 0.3750027 0.1100455
0.4374213 0.3751127 0.1645429
0.4685643 0.3757473 0.2237823
0.4995896 0.3787475 0.2842085
0.5303854 0.3901415 0.3443562
0.5607738 0.4189903 0.4029320
0.5905780 0.4627987 0.4581990
0.6199024 0.5092258 0.5078939
0.6494721 0.5504447 0.5499909
0.6800494 0.5849699 0.5847793
0.7112361 0.6164192 0.6163307
0.7424852 0.6476186 0.6475771
0.7737349 0.6788441 0.6788247
0.8049848 0.7100826 0.7100735
0.8362348 0.7413272 0.7413230
0.8674848 0.7725747 0.7725727
0.8987347 0.8038235 0.8038226
0.9299847 0.8350730 0.8350725
0.9612347 0.8663227 0.8663225
0.9924847 0.8975726 0.8975725
0.1008589 0.4062044 0.1008589
0.1047146 0.4062044 0.1008600
0.1119053 0.4062044 0.1008624
0.1240198 0.4062044 0.1008676
0.1419113 0.4062044 0.1008785
0.1650144 0.4062045 0.1009018
0.1918120 0.4062046 0.1009514
0.2207980 0.4062048 0.1010570
0.2509432 0.4062054 0.1012805
0.2816658 0.4062065 0.1017508
0.3126675 0.4062087 0.1027331
0.3438031 0.4062130 0.1048240
0.3750027 0.4062197 0.1100455
0.4062272 0.4062272 0.1276065
0.4374356 0.4062556 0.1700917
0.4685834 0.4064879 0.2260723
0.4996106 0.4077980 0.2853143
0.5304064 0.4135794 0.3449086
0.5607931 0.4319941 0.4032147
0.5905936 0.4675839 0.4583490
0.6199130 0.5107636 0.5079762
0.6494777 0.5509977 0.5500362
0.6800518 0.5852081 0.5848027
0.7112372 0.6165305 0.6163418
0.7424857 0.6476709 0.6475824
0.7737352 0.6788686 0.6788271
0.8049849 0.7100941 0.7100747
0.8362348 0.7413326 0.7413235
0.8674848 0.7725772 0.7725730
0.8987348 0.8038247 0.8038227
0.9299847 0.8350735 0.8350726
0.9612347 0.8663230 0.8663225
0.9924847 0.8975727 0.8975725
0.1602878 0.4374030 0.1602878
0.1612313 0.4374030 0.1602883
0.1631757 0.4374030 0.1602896
0.1670420 0.4374030 0.1602921
0.1742501 0.4374030 0.1602977
0.1863879 0.4374031 0.1603094
0.2043033 0.4374032 0.1603345
0.2274255 0.4374034 0.1603880
0.2542353 0.4374040 0.1605017
0.2832285 0.4374051 0.1607423
0.3133784 0.4374075 0.1612483
0.3441052 0.4374123 0.1623037
0.3751127 0.4374213 0.1645429
0.4062556 0.4374356 0.1700917
0.4374515 0.4374515 0.1884351
0.4686135 0.4375119 0.2317145
0.4996504 0.4379966 0.2876480
0.5304491 0.4406084 0.3460569
0.5608334 0.4507958 0.4038077
0.5906268 0.4762533 0.4586662
0.6199354 0.5138666 0.5081512
0.6494895 0.5521538 0.5501325
0.6800570 0.5857121 0.5848526
0.7112396 0.6167670 0.6163656
0.7424868 0.6477821 0.6475935
0.7737357 0.6789209 0.6788323
0.8049852 0.7101186 0.7100771
0.8362349 0.7413441 0.7413247
0.8674848 0.7725826 0.7725735
0.8987348 0.8038272 0.8038230
0.9299848 0.8350747 0.8350727
0.9612347 0.8663235 0.8663226
0.9924847 0.8975730 0.8975725
0.2217151 0.4685447 0.2217151
0.2219289 0.4685447 0.2217154
0.2223816 0.4685447 0.2217160
0.2233313 0.4685447 0.2217172
0.2252879 0.4685447 0.2217199
0.2291770 0.4685448 0.2217256
0.2364221 0.4685449 0.2217376
0.2486094 0.4685451 0.2217634
0.2665758 0.4685457 0.2218183
0.2897385 0.4685468 0.2219349
0.3165750 0.4685492 0.2221818
0.3455849 0.4685542 0.2227007
0.3757473 0.4685643 0.2237823
0.4064879 0.4685834 0.2260723
0.4375119 0.4686135 0.2317145
0.4686475 0.4686475 0.2501914
0.4997135 0.4687750 0.2933445
0.5305300 0.4697618 0.3484660
0.5609153 0.4746367 0.4050369
0.5906962 0.4902804 0.4593309
0.6199831 0.5198019 0.5085210
0.6495147 0.5545183 0.5503373
0.6800682 0.5867674 0.5849589
0.7112446 0.6172673 0.6164164
0.7424892 0.6480187 0.6476173
0.7737368 0.6790321 0.6788435
0.8049857 0.7101709 0.7100823
0.8362352 0.7413686 0.7413271
0.8674849 0.7725941 0.7725747
0.8987348 0.8038326 0.8038235
0.9299848 0.8350772 0.8350730
0.9612348 0.8663247 0.8663227
0.9924847 0.8975735 0.8975726
0.2831996 0.4995697 0.2831996
0.2832475 0.4995697 0.2831998
0.2833495 0.4995697 0.2832001
0.2835664 0.4995698 0.2832007
0.2840254 0.4995698 0.2832019
0.2849884 0.4995698 0.2832046
0.2869714 0.4995700 0.2832104
0.2909092 0.4995702 0.2832228
0.2982337 0.4995707 0.2832492
0.3105267 0.4995718 0.2833053
0.3286021 0.4995742 0.2834247
0.3518520 0.4995792 0.2836775
0.3787475 0.4995896 0.2842085
0.4077980 0.4996106 0.2853143
0.4379966 0.4996504 0.2876480
0.4687750 0.4997135 0.2933445
0.4997854 0.4997854 0.3117497
0.5306593 0.5000514 0.3542425
0.5610718 0.5019668 0.4075898
0.5908383 0.5100982 0.4607037
0.6200833 0.5301906 0.5092952
0.6495683 0.5591538 0.5507701
0.6800919 0.5889335 0.5851848
0.7112555 0.6183152 0.6165246
0.7424943 0.6485190 0.6476681
0.7737392 0.6792687 0.6788673
0.8049868 0.7102821 0.7100935
0.8362357 0.7414209 0.7413323
0.8674852 0.7726186 0.7725771
0.8987349 0.8038441 0.8038247
0.9299848 0.8350826 0.8350735
0.9612348 0.8663272 0.8663230
0.9924848 0.8975747 0.8975727
0.3438588 0.5303663 0.3438588
0.3438696 0.5303663 0.3438588
0.3438928 0.5303663 0.3438590
0.3439421 0.5303663 0.3438593
0.3440473 0.5303663 0.3438599
0.3442708 0.5303664 0.3438612
0.3447438 0.5303665 0.3438640
0.3457355 0.5303667 0.3438701
0.3477755 0.5303672 0.3438829
0.3518187 0.5303683 0.3439104
0.3593141 0.5303705 0.3439689
0.3718335 0.5303753 0.3440932
0.3901415 0.5303854 0.3443562
0.4135794 0.5304064 0.3449086
0.4406084 0.5304491 0.3460569
0.4697618 0.5305300 0.3484660
0.5000514 0.5306593 0.3542425
0.5308105 0.5308105 0.3724253
0.5613257 0.5313514 0.4135161
0.5911132 0.5347616 0.4635125
0.6202906 0.5462649 0.5108877
0.6496818 0.5675931 0.5516761
0.6801426 0.5932078 0.5856626
0.7112787 0.6204664 0.6167545
0.7425052 0.6495668 0.6477763
0.7737443 0.6797690 0.6789181
0.8049892 0.7105187 0.7101173
0.8362368 0.7415321 0.7413435
0.8674857 0.7726709 0.7725823
0.8987352 0.8038686 0.8038271
0.9299849 0.8350941 0.8350747
0.9612348 0.8663326 0.8663235
0.9924848 0.8975772 0.8975730
0.4026800 0.5607566 0.4026800
0.4026826 0.5607566 0.4026801
0.4026880 0.5607566 0.4026801
0.4026996 0.5607566 0.4026803
0.4027242 0.5607567 0.4026806
0.4027769 0.5607567 0.4026813
0.4028889 0.5607568 0.4026827
0.4031271 0.5607570 0.4026857
0.4036309 0.5607575 0.4026922
0.4046860 0.5607584 0.4027061
0.4068515 0.5607604 0.4027356
0.4111251 0.5607647 0.4027984
0.4189903 0.5607738 0.4029320
0.4319941 0.5607931 0.4032147
0.4507958 0.5608334 0.4038077
0.4746367 0.5609153 0.4050369
0.5019668 0.5610718 0.4075898
0.5313514 0.5613257 0.4135161
0.5616375 0.5616375 0.4312503
0.5915733 0.5626855 0.4697064
0.6207010 0.5679780 0.5140920
0.6499202 0.5813400 0.5535349
0.6802504 0.6010737 0.5866633
0.7113281 0.6247134 0.6172410
0.7425283 0.6517180 0.6480063
0.7737552 0.6808168 0.6790263
0.8049943 0.7110190 0.7101681
0.8362392 0.7417687 0.7413673
0.8674868 0.7727821 0.7725935
0.8987357 0.8039209 0.8038323
0.9299852 0.8351186 0.8350771
0.9612349 0.8663441 0.8663247
0.9924848 0.8975826 0.8975735
0.4580660 0.5905641 0.4580660
0.4580666 0.5905641 0.4580660
0.4580680 0.5905641 0.4580661
0.4580709 0.5905641 0.4580661
0.4580771 0.5905641 0.4580663
0.4580903 0.5905642 0.4580667
0.4581185 0.5905642 0.4580674
0.4581785 0.5905644 0.4580690
0.4583064 0.5905648 0.4580724
0.4585781 0.5905655 0.4580797
0.4591520 0.5905672 0.4580953
0.4603508 0.5905706 0.4581284
0.4627987 0.5905780 0.4581990
0.4675839 0.5905936 0.4583490
0.4762533 0.5906268 0.4586662
0.4902804 0.5906962 0.4593309
0.5100982 0.5908383 0.4607037
0.5347616 0.5911132 0.4635125
0.5626855 0.5915733 0.4697064
0.5921878 0.5921878 0.4866371
0.6214261 0.5940491 0.5207039
0.6504084 0.6009073 0.5572254
0.6804795 0.6140767 0.5887176
0.7114333 0.6325351 0.6182605
0.7425777 0.6559649 0.6484929
0.7737783 0.6829680 0.6792563
0.8050052 0.7120668 0.7102763
0.8362443 0.7422690 0.7414181
0.8674892 0.7730187 0.7726173
0.8987368 0.8040321 0.8038435
0.9299857 0.8351709 0.8350823
0.9612352 0.8663686 0.8663271
0.9924849 0.8975941 0.8975747
0.5078211 0.6198931 0.5078211
0.5078213 0.6198931 0.5078212
0.5078217 0.6198931 0.5078212
0.5078225 0.6198931 0.5078212
0.5078243 0.6198931 0.5078213
0.5078281 0.6198931 0.5078215
0.5078361 0.6198932 0.5078219
0.5078532 0.6198933 0.5078228
0.5078898 0.6198935 0.5078246
0.5079677 0.6198941 0.5078286
0.5081335 0.6198951 0.5078371
0.5084851 0.6198975 0.5078553
0.5092258 0.6199024 0.5078939
0.5107636 0.6199130 0.5079762
0.5138666 0.6199354 0.5081512
0.5198019 0.6199831 0.5085210
0.5301906 0.6200833 0.5092952
0.5462649 0.6202906 0.5108877
0.5679780 0.6207010 0.5140920
0.5940491 0.6214261 0.5207039
0.6225256 0.6225256 0.5363925
0.6513436 0.6254036 0.5643607
0.6809621 0.6328739 0.5927778
0.7116571 0.6454781 0.6203555
0.7426829 0.6637864 0.6495127
0.7738277 0.6872149 0.6797429
0.8050283 0.7142180 0.7105063
0.8362552 0.7433168 0.7415263
0.8674943 0.7735190 0.7726681
0.8987392 0.8042687 0.8038673
0.9299868 0.8352821 0.8350935
0.9612357 0.8664209 0.8663323
0.9924852 0.8976186 0.8975771
0.5499510 0.6494672 0.5499510
0.5499511 0.6494672 0.5499510
0.5499512 0.6494672 0.5499510
0.5499515 0.6494672 0.5499510
0.5499521 0.6494673 0.5499511
0.5499534 0.6494673 0.5499512
0.5499562 0.6494673 0.5499514
0.5499622 0.6494674 0.5499519
0.5499749 0.6494675 0.5499529
0.5500020 0.6494677 0.5499551
0.5500599 0.6494683 0.5499598
0.5501830 0.6494695 0.5499697
0.5504447 0.6494721 0.5499909
0.5509977 0.6494777 0.5500362
0.5521538 0.6494895 0.5501325
0.5545183 0.6495147 0.5503373
0.5591538 0.6495683 0.5507701
0.5675931 0.6496818 0.5516761
0.5813400 0.6499202 0.5535349
0.6009073 0.6504084 0.5572254
0.6254036 0.6513436 0.5643607
0.6529980 0.6529980 0.5785224
0.6819567 0.6567023 0.6003295
0.7121306 0.6642063 0.6244992
0.7429066 0.6767291 0.6516082
0.7739329 0.6950364 0.6807627
0.8050777 0.7184649 0.7109929
0.8362783 0.7454680 0.7417563
0.8675052 0.7745668 0.7727763
0.8987443 0.8047690 0.8039181
0.9299892 0.8355187 0.8351173
0.9612368 0.8665321 0.8663435
0.9924857 0.8976709 0.8975823
0.5847587 0.6800472 0.5847587
0.5847587 0.6800472 0.5847587
0.5847588 0.6800472 0.5847587
0.5847589 0.6800472 0.5847587
0.5847592 0.6800472 0.5847587
0.5847597 0.6800472 0.5847588
0.5847609 0.6800472 0.5847589
0.5847634 0.6800473 0.5847591
0.5847689 0.6800473 0.5847597
0.5847804 0.6800474 0.5847608
0.5848051 0.6800477 0.5847632
0.5848577 0.6800482 0.5847684
0.5849699 0.6800494 0.5847793
0.5852081 0.6800518 0.5848027
0.5857121 0.6800570 0.5848526
0.5867674 0.6800682 0.5849589
0.5889335 0.6800919 0.5851848
0.5932078 0.6801426 0.5856626
0.6010737 0.6802504 0.5866633
0.6140767 0.6804795 0.5887176
0.6328739 0.6809621 0.5927778
0.6567023 0.6819567 0.6003295
0.6839418 0.6839418 0.6133301
0.7131231 0.6879586 0.6321558
0.7433798 0.6954570 0.6557533
0.7741566 0.7079791 0.6828582
0.8051829 0.7262864 0.7120127
0.8363277 0.7497149 0.7422429
0.8675283 0.7767180 0.7730063
0.8987552 0.8058168 0.8040263
0.9299943 0.8360190 0.8351681
0.9612392 0.8667687 0.8663673
0.9924868 0.8977821 0.8975935
0.6163208 0.7112351 0.6163208
0.6163208 0.7112351 0.6163208
0.6163209 0.7112351 0.6163208
0.6163209 0.7112351 0.6163208
0.6163210 0.7112351 0.6163208
0.6163213 0.7112351 0.6163209
0.6163218 0.7112351 0.6163209
0.6163230 0.7112351 0.6163210
0.6163255 0.7112351 0.6163213
0.6163309 0.7112352 0.6163218
0.6163424 0.7112353 0.6163230
0.6163669 0.7112355 0.6163254
0.6164192 0.7112361 0.6163307
0.6165305 0.7112372 0.6163418
0.6167670 0.7112396 0.6163656
0.6172673 0.7112446 0.6164164
0.6183152 0.7112555 0.6165246
0.6204664 0.7112787 0.6167545
0.6247134 0.7113281 0.6172410
0.6325351 0.7114333 0.6182605
0.6454781 0.7116571 0.6203555
0.6642063 0.7121306 0.6244992
0.6879586 0.7131231 0.6321558
0.7151636 0.7151636 0.6448922
0.7443722 0.7192087 0.6634121
0.7746298 0.7267070 0.6870033
0.8054066 0.7392291 0.7141082
0.8364329 0.7575364 0.7432627
0.8675777 0.7809649 0.7734929
0.8987783 0.8079680 0.8042563
0.9300052 0.8370668 0.8352763
0.9612443 0.8672690 0.8664181
0.9924892 0.8980187 0.8976173
