LUTs/Spherical_Compression.cube
TITLE "Spherical Chroma Compression"
# Spherically compress chroma by a gentle curve such that very high chroma values are reduced by 25.0%
# At a spherical chroma of 1.0, the compression is 22.0%
LUT_3D_SIZE 9
0.0000000 0.0000000 0.0000000
0.1250000 0.0000005 0.0000005
0.2499990 0.0002211 0.0002211
0.3749786 0.0494789 0.0494789
0.4995697 0.2831996 0.2831996
0.6198931 0.5078211 0.5078211
0.7424847 0.6475725 0.6475725
0.8674847 0.7725725 0.7725725
0.9924847 0.8975725 0.8975725
0.0000005 0.1250000 0.0000005
0.1250000 0.1250000 0.0000009
0.2499990 0.1250095 0.0002261
0.3749786 0.1293484 0.0495108
0.4995698 0.2840254 0.2832019
0.6198931 0.5078243 0.5078213
0.7424847 0.6475726 0.6475725
0.8674847 0.7725725 0.7725725
0.9924847 0.8975725 0.8975725
0.0002211 0.2499990 0.0002211
0.1250095 0.2499990 0.0002261
0.2499995 0.2499995 0.0004410
0.3749796 0.2501958 0.0501607
0.4995707 0.2982337 0.2832492
0.6198935 0.5078898 0.5078246
0.7424848 0.6475747 0.6475727
0.8674847 0.7725726 0.7725725
0.9924847 0.8975725 0.8975725
0.0494789 0.3749786 0.0494789
0.1293484 0.3749786 0.0495108
0.2501958 0.3749796 0.0501607
0.3749893 0.3749893 0.0713250
0.4995896 0.3787475 0.2842085
0.6199024 0.5092258 0.5078939
0.7424852 0.6476186 0.6475771
0.8674848 0.7725747 0.7725727
0.9924847 0.8975726 0.8975725
0.2831996 0.4995697 0.2831996
0.2840254 0.4995698 0.2832019
0.2982337 0.4995707 0.2832492
0.3787475 0.4995896 0.2842085
0.4997854 0.4997854 0.3117497
0.6200833 0.5301906 0.5092952
0.7424943 0.6485190 0.6476681
0.8674852 0.7726186 0.7725771
0.9924848 0.8975747 0.8975727
0.5078211 0.6198931 0.5078211
0.5078243 0.6198931 0.5078213
0.5078898 0.6198935 0.5078246
0.5092258 0.6199024 0.5078939
0.5301906 0.6200833 0.5092952
0.6225256 0.6225256 0.5363925
0.7426829 0.6637864 0.6495127
0.8674943 0.7735190 0.7726681
0.9924852 0.8976186 0.8975771
0.6475725 0.7424847 0.6475725
0.6475726 0.7424847 0.6475725
0.6475747 0.7424848 0.6475727
0.6476186 0.7424852 0.6475771
0.6485190 0.7424943 0.6476681
0.6637864 0.7426829 0.6495127
0.7464134 0.7464134 0.6761439
0.8676829 0.7887864 0.7745127
0.9924943 0.8985190 0.8976681
0.7725725 0.8674847 0.7725725
0.7725725 0.8674847 0.7725725
0.7725726 0.8674847 0.7725725
0.7725747 0.8674848 0.7725727
0.7726186 0.8674852 0.7725771
0.7735190 0.8674943 0.7726681
0.7887864 0.8676829 0.7745127
0.8714134 0.8714134 0.8011439
0.9926829 0.9137864 0.8995127
0.8975725 0.9924847 0.8975725
0.8975725 0.9924847 0.8975725
0.8975725 0.9924847 0.8975725
0.8975726 0.9924847 0.8975725
0.8975747 0.9924848 0.8975727
0.8976186 0.9924852 0.8975771
0.8985190 0.9924943 0.8976681
0.9137864 0.9926829 0.8995127
0.9964134 0.9964134 0.9261439
0.0000005 0.0000005 0.1250000
0.1250000 0.0000009 0.1250000
0.2499990 0.0002261 0.1250095
0.3749786 0.0495108 0.1293484
0.4995698 0.2832019 0.2840254
0.6198931 0.5078213 0.5078243
0.7424847 0.6475725 0.6475726
0.8674847 0.7725725 0.7725725
0.9924847 0.8975725 0.8975725
0.0000009 0.1250000 0.1250000
0.1250000 0.1250000 0.1250000
0.2499991 0.1250097 0.1250097
0.3749787 0.1293529 0.1293529
0.4995698 0.2840277 0.2840277
0.6198931 0.5078245 0.5078245
0.7424847 0.6475726 0.6475726
0.8674847 0.7725725 0.7725725
0.9924847 0.8975725 0.8975725
0.0002261 0.2499990 0.1250095
0.1250097 0.2499991 0.1250097
0.2499995 0.2499995 0.1250194
0.3749796 0.2501960 0.1294471
0.4995708 0.2982353 0.2840740
0.6198936 0.5078900 0.5078278
0.7424848 0.6475747 0.6475728
0.8674847 0.7725726 0.7725725
0.9924847 0.8975725 0.8975725
0.0495108 0.3749786 0.1293484
0.1293529 0.3749787 0.1293529
0.2501960 0.3749796 0.1294471
0.3749893 0.3749893 0.1332898
0.4995896 0.3787477 0.2850145
0.6199024 0.5092259 0.5078971
0.7424852 0.6476186 0.6475772
0.8674848 0.7725747 0.7725727
0.9924847 0.8975726 0.8975725
0.2832019 0.4995698 0.2840254
0.2840277 0.4995698 0.2840277
0.2982353 0.4995708 0.2840740
0.3787477 0.4995896 0.2850145
0.4997855 0.4997855 0.3121617
0.6200833 0.5301907 0.5092983
0.7424943 0.6485190 0.6476682
0.8674852 0.7726186 0.7725771
0.9924848 0.8975747 0.8975727
0.5078213 0.6198931 0.5078243
0.5078245 0.6198931 0.5078245
0.5078900 0.6198936 0.5078278
0.5092259 0.6199024 0.5078971
0.5301907 0.6200833 0.5092983
0.6225256 0.6225256 0.5363940
0.7426829 0.6637864 0.6495128
0.8674943 0.7735190 0.7726681
0.9924852 0.8976186 0.8975771
0.6475725 0.7424847 0.6475726
0.6475726 0.7424847 0.6475726
0.6475747 0.7424848 0.6475728
0.6476186 0.7424852 0.6475772
0.6485190 0.7424943 0.6476682
0.6637864 0.7426829 0.6495128
0.7464134 0.7464134 0.6761440
0.8676829 0.7887864 0.7745127
0.9924943 0.8985190 0.8976681
0.7725725 0.8674847 0.7725725
0.7725725 0.8674847 0.7725725
0.7725726 0.8674847 0.7725725
0.7725747 0.8674848 0.7725727
0.7726186 0.8674852 0.7725771
0.7735190 0.8674943 0.7726681
0.7887864 0.8676829 0.7745127
0.8714134 0.8714134 0.8011439
0.9926829 0.9137864 0.8995127
0.8975725 0.9924847 0.8975725
0.8975725 0.9924847 0.8975725
0.8975725 0.9924847 0.8975725
0.8975726 0.9924847 0.8975725
0.8975747 0.9924848 0.8975727
0.8976186 0.9924852 0.8975771
0.8985190 0.9924943 0.8976681
0.9137864 0.9926829 0.8995127
0.9964134 0.9964134 0.9261439
0.0002211 0.0002211 0.2499990
0.1250095 0.0002261 0.2499990
0.2499995 0.0004410 0.2499995
0.3749796 0.0501607 0.2501958
0.4995707 0.2832492 0.2982337
0.6198935 0.5078246 0.5078898
0.7424848 0.6475727 0.6475747
0.8674847 0.7725725 0.7725726
0.9924847 0.8975725 0.8975725
0.0002261 0.1250095 0.2499990
0.1250097 0.1250097 0.2499991
0.2499995 0.1250194 0.2499995
0.3749796 0.1294471 0.2501960
0.4995708 0.2840740 0.2982353
0.6198936 0.5078278 0.5078900
0.7424848 0.6475728 0.6475747
0.8674847 0.7725725 0.7725726
0.9924847 0.8975725 0.8975725
0.0004410 0.2499995 0.2499995
0.1250194 0.2499995 0.2499995
0.2500000 0.2500000 0.2500000
0.3749806 0.2502009 0.2502009
0.4995717 0.2982681 0.2982681
0.6198940 0.5078933 0.5078933
0.7424848 0.6475749 0.6475749
0.8674847 0.7725726 0.7725726
0.9924847 0.8975725 0.8975725
0.0501607 0.3749796 0.2501958
0.1294471 0.3749796 0.2501960
0.2502009 0.3749806 0.2502009
0.3749903 0.3749903 0.2504009
0.4995906 0.3787523 0.2989358
0.6199029 0.5092292 0.5079624
0.7424852 0.6476188 0.6475793
0.8674848 0.7725747 0.7725728
0.9924847 0.8975726 0.8975725
0.2832492 0.4995707 0.2982337
0.2840740 0.4995708 0.2982353
0.2982681 0.4995717 0.2982681
0.3787523 0.4995906 0.2989358
0.4997864 0.4997864 0.3198959
0.6200838 0.5301926 0.5093614
0.7424943 0.6485192 0.6476703
0.8674852 0.7726186 0.7725772
0.9924848 0.8975747 0.8975727
0.5078246 0.6198935 0.5078898
0.5078278 0.6198936 0.5078900
0.5078933 0.6198940 0.5078933
0.5092292 0.6199029 0.5079624
0.5301926 0.6200838 0.5093614
0.6225260 0.6225260 0.5364252
0.7426829 0.6637866 0.6495148
0.8674943 0.7735190 0.7726682
0.9924852 0.8976186 0.8975771
0.6475727 0.7424848 0.6475747
0.6475728 0.7424848 0.6475747
0.6475749 0.7424848 0.6475749
0.6476188 0.7424852 0.6475793
0.6485192 0.7424943 0.6476703
0.6637866 0.7426829 0.6495148
0.7464134 0.7464134 0.6761450
0.8676829 0.7887864 0.7745128
0.9924943 0.8985190 0.8976681
0.7725725 0.8674847 0.7725726
0.7725725 0.8674847 0.7725726
0.7725726 0.8674847 0.7725726
0.7725747 0.8674848 0.7725728
0.7726186 0.8674852 0.7725772
0.7735190 0.8674943 0.7726682
0.7887864 0.8676829 0.7745128
0.8714134 0.8714134 0.8011440
0.9926829 0.9137864 0.8995127
0.8975725 0.9924847 0.8975725
0.8975725 0.9924847 0.8975725
0.8975725 0.9924847 0.8975725
0.8975726 0.9924847 0.8975725
0.8975747 0.9924848 0.8975727
0.8976186 0.9924852 0.8975771
0.8985190 0.9924943 0.8976681
0.9137864 0.9926829 0.8995127
0.9964134 0.9964134 0.9261439
0.0494789 0.0494789 0.3749786
0.1293484 0.0495108 0.3749786
0.2501958 0.0501607 0.3749796
0.3749893 0.0713250 0.3749893
0.4995896 0.2842085 0.3787475
0.6199024 0.5078939 0.5092258
0.7424852 0.6475771 0.6476186
0.8674848 0.7725727 0.7725747
0.9924847 0.8975725 0.8975726
0.0495108 0.1293484 0.3749786
0.1293529 0.1293529 0.3749787
0.2501960 0.1294471 0.3749796
0.3749893 0.1332898 0.3749893
0.4995896 0.2850145 0.3787477
0.6199024 0.5078971 0.5092259
0.7424852 0.6475772 0.6476186
0.8674848 0.7725727 0.7725747
0.9924847 0.8975725 0.8975726
0.0501607 0.2501958 0.3749796
0.1294471 0.2501960 0.3749796
0.2502009 0.2502009 0.3749806
0.3749903 0.2504009 0.3749903
0.4995906 0.2989358 0.3787523
0.6199029 0.5079624 0.5092292
0.7424852 0.6475793 0.6476188
0.8674848 0.7725728 0.7725747
0.9924847 0.8975725 0.8975726
0.0713250 0.3749893 0.3749893
0.1332898 0.3749893 0.3749893
0.2504009 0.3749903 0.3749903
0.3750000 0.3750000 0.3750000
0.4996097 0.3788455 0.3788455
0.6199117 0.5092961 0.5092961
0.7424857 0.6476232 0.6476232
0.8674848 0.7725749 0.7725749
0.9924847 0.8975726 0.8975726
0.2842085 0.4995896 0.3787475
0.2850145 0.4995896 0.3787477
0.2989358 0.4995906 0.3787523
0.3788455 0.4996097 0.3788455
0.4998053 0.4998053 0.3823626
0.6200928 0.5302323 0.5106500
0.7424948 0.6485235 0.6477141
0.8674852 0.7726188 0.7725793
0.9924848 0.8975747 0.8975728
0.5078939 0.6199024 0.5092258
0.5078971 0.6199024 0.5092259
0.5079624 0.6199029 0.5092292
0.5092961 0.6199117 0.5092961
0.5302323 0.6200928 0.5106500
0.6225343 0.6225343 0.5370670
0.7426834 0.6637896 0.6495567
0.8674943 0.7735192 0.7726703
0.9924852 0.8976186 0.8975772
0.6475771 0.7424852 0.6476186
0.6475772 0.7424852 0.6476186
0.6475793 0.7424852 0.6476188
0.6476232 0.7424857 0.6476232
0.6485235 0.7424948 0.6477141
0.6637896 0.7426834 0.6495567
0.7464138 0.7464138 0.6761670
0.8676829 0.7887866 0.7745148
0.9924943 0.8985190 0.8976682
0.7725727 0.8674848 0.7725747
0.7725727 0.8674848 0.7725747
0.7725728 0.8674848 0.7725747
0.7725749 0.8674848 0.7725749
0.7726188 0.8674852 0.7725793
0.7735192 0.8674943 0.7726703
0.7887866 0.8676829 0.7745148
0.8714134 0.8714134 0.8011450
0.9926829 0.9137864 0.8995128
0.8975725 0.9924847 0.8975726
0.8975725 0.9924847 0.8975726
0.8975725 0.9924847 0.8975726
0.8975726 0.9924847 0.8975726
0.8975747 0.9924848 0.8975728
0.8976186 0.9924852 0.8975772
0.8985190 0.9924943 0.8976682
0.9137864 0.9926829 0.8995128
0.9964134 0.9964134 0.9261440
0.2831996 0.2831996 0.4995697
0.2840254 0.2832019 0.4995698
0.2982337 0.2832492 0.4995707
0.3787475 0.2842085 0.4995896
0.4997854 0.3117497 0.4997854
0.6200833 0.5092952 0.5301906
0.7424943 0.6476681 0.6485190
0.8674852 0.7725771 0.7726186
0.9924848 0.8975727 0.8975747
0.2832019 0.2840254 0.4995698
0.2840277 0.2840277 0.4995698
0.2982353 0.2840740 0.4995708
0.3787477 0.2850145 0.4995896
0.4997855 0.3121617 0.4997855
0.6200833 0.5092983 0.5301907
0.7424943 0.6476682 0.6485190
0.8674852 0.7725771 0.7726186
0.9924848 0.8975727 0.8975747
0.2832492 0.2982337 0.4995707
0.2840740 0.2982353 0.4995708
0.2982681 0.2982681 0.4995717
0.3787523 0.2989358 0.4995906
0.4997864 0.3198959 0.4997864
0.6200838 0.5093614 0.5301926
0.7424943 0.6476703 0.6485192
0.8674852 0.7725772 0.7726186
0.9924848 0.8975727 0.8975747
0.2842085 0.3787475 0.4995896
0.2850145 0.3787477 0.4995896
0.2989358 0.3787523 0.4995906
0.3788455 0.3788455 0.4996097
0.4998053 0.3823626 0.4998053
0.6200928 0.5106500 0.5302323
0.7424948 0.6477141 0.6485235
0.8674852 0.7725793 0.7726188
0.9924848 0.8975728 0.8975747
0.3117497 0.4997854 0.4997854
0.3121617 0.4997855 0.4997855
0.3198959 0.4997864 0.4997864
0.3823626 0.4998053 0.4998053
0.5000000 0.5000000 0.5000000
0.6202760 0.5310390 0.5310390
0.7425039 0.6486124 0.6486124
0.8674857 0.7726232 0.7726232
0.9924848 0.8975749 0.8975749
0.5092952 0.6200833 0.5301906
0.5092983 0.6200833 0.5301907
0.5093614 0.6200838 0.5301926
0.5106500 0.6200928 0.5302323
0.5310390 0.6202760 0.5310390
0.6227056 0.6227056 0.5485430
0.7426924 0.6638510 0.6504161
0.8674948 0.7735235 0.7727141
0.9924852 0.8976188 0.8975793
0.6476681 0.7424943 0.6485190
0.6476682 0.7424943 0.6485190
0.6476703 0.7424943 0.6485192
0.6477141 0.7424948 0.6485235
0.6486124 0.7425039 0.6486124
0.6638510 0.7426924 0.6504161
0.7464221 0.7464221 0.6766199
0.8676834 0.7887896 0.7745567
0.9924943 0.8985192 0.8976703
0.7725771 0.8674852 0.7726186
0.7725771 0.8674852 0.7726186
0.7725772 0.8674852 0.7726186
0.7725793 0.8674852 0.7726188
0.7726232 0.8674857 0.7726232
0.7735235 0.8674948 0.7727141
0.7887896 0.8676834 0.7745567
0.8714138 0.8714138 0.8011670
0.9926829 0.9137866 0.8995148
0.8975727 0.9924848 0.8975747
0.8975727 0.9924848 0.8975747
0.8975727 0.9924848 0.8975747
0.8975728 0.9924848 0.8975747
0.8975749 0.9924848 0.8975749
0.8976188 0.9924852 0.8975793
0.8985192 0.9924943 0.8976703
0.9137866 0.9926829 0.8995148
0.9964134 0.9964134 0.9261450
0.5078211 0.5078211 0.6198931
0.5078243 0.5078213 0.6198931
0.5078898 0.5078246 0.6198935
0.5092258 0.5078939 0.6199024
0.5301906 0.5092952 0.6200833
0.6225256 0.5363925 0.6225256
0.7426829 0.6495127 0.6637864
0.8674943 0.7726681 0.7735190
0.9924852 0.8975771 0.8976186
0.5078213 0.5078243 0.6198931
0.5078245 0.5078245 0.6198931
0.5078900 0.5078278 0.6198936
0.5092259 0.5078971 0.6199024
0.5301907 0.5092983 0.6200833
0.6225256 0.5363940 0.6225256
0.7426829 0.6495128 0.6637864
0.8674943 0.7726681 0.7735190
0.9924852 0.8975771 0.8976186
0.5078246 0.5078898 0.6198935
0.5078278 0.5078900 0.6198936
0.5078933 0.5078933 0.6198940
0.5092292 0.5079624 0.6199029
0.5301926 0.5093614 0.6200838
0.6225260 0.5364252 0.6225260
0.7426829 0.6495148 0.6637866
0.8674943 0.7726682 0.7735190
0.9924852 0.8975771 0.8976186
0.5078939 0.5092258 0.6199024
0.5078971 0.5092259 0.6199024
0.5079624 0.5092292 0.6199029
0.5092961 0.5092961 0.6199117
0.5302323 0.5106500 0.6200928
0.6225343 0.5370670 0.6225343
0.7426834 0.6495567 0.6637896
0.8674943 0.7726703 0.7735192
0.9924852 0.8975772 0.8976186
0.5092952 0.5301906 0.6200833
0.5092983 0.5301907 0.6200833
0.5093614 0.5301926 0.6200838
0.5106500 0.5302323 0.6200928
0.5310390 0.5310390 0.6202760
0.6227056 0.5485430 0.6227056
0.7426924 0.6504161 0.6638510
0.8674948 0.7727141 0.7735235
0.9924852 0.8975793 0.8976188
0.5363925 0.6225256 0.6225256
0.5363940 0.6225256 0.6225256
0.5364252 0.6225260 0.6225260
0.5370670 0.6225343 0.6225343
0.5485430 0.6227056 0.6227056
0.6250000 0.6250000 0.6250000
0.7428801 0.6651056 0.6651056
0.8675039 0.7736124 0.7736124
0.9924857 0.8976232 0.8976232
0.6495127 0.7426829 0.6637864
0.6495128 0.7426829 0.6637864
0.6495148 0.7426829 0.6637866
0.6495567 0.7426834 0.6637896
0.6504161 0.7426924 0.6638510
0.6651056 0.7428801 0.6651056
0.7465936 0.7465936 0.6850430
0.8676924 0.7888510 0.7754161
0.9924948 0.8985235 0.8977141
0.7726681 0.8674943 0.7735190
0.7726681 0.8674943 0.7735190
0.7726682 0.8674943 0.7735190
0.7726703 0.8674943 0.7735192
0.7727141 0.8674948 0.7735235
0.7736124 0.8675039 0.7736124
0.7888510 0.8676924 0.7754161
0.8714221 0.8714221 0.8016199
0.9926834 0.9137896 0.8995567
0.8975771 0.9924852 0.8976186
0.8975771 0.9924852 0.8976186
0.8975771 0.9924852 0.8976186
0.8975772 0.9924852 0.8976186
0.8975793 0.9924852 0.8976188
0.8976232 0.9924857 0.8976232
0.8985235 0.9924948 0.8977141
0.9137896 0.9926834 0.8995567
0.9964138 0.9964138 0.9261670
0.6475725 0.6475725 0.7424847
0.6475726 0.6475725 0.7424847
0.6475747 0.6475727 0.7424848
0.6476186 0.6475771 0.7424852
0.6485190 0.6476681 0.7424943
0.6637864 0.6495127 0.7426829
0.7464134 0.6761439 0.7464134
0.8676829 0.7745127 0.7887864
0.9924943 0.8976681 0.8985190
0.6475725 0.6475726 0.7424847
0.6475726 0.6475726 0.7424847
0.6475747 0.6475728 0.7424848
0.6476186 0.6475772 0.7424852
0.6485190 0.6476682 0.7424943
0.6637864 0.6495128 0.7426829
0.7464134 0.6761440 0.7464134
0.8676829 0.7745127 0.7887864
0.9924943 0.8976681 0.8985190
0.6475727 0.6475747 0.7424848
0.6475728 0.6475747 0.7424848
0.6475749 0.6475749 0.7424848
0.6476188 0.6475793 0.7424852
0.6485192 0.6476703 0.7424943
0.6637866 0.6495148 0.7426829
0.7464134 0.6761450 0.7464134
0.8676829 0.7745128 0.7887864
0.9924943 0.8976681 0.8985190
0.6475771 0.6476186 0.7424852
0.6475772 0.6476186 0.7424852
0.6475793 0.6476188 0.7424852
0.6476232 0.6476232 0.7424857
0.6485235 0.6477141 0.7424948
0.6637896 0.6495567 0.7426834
0.7464138 0.6761670 0.7464138
0.8676829 0.7745148 0.7887866
0.9924943 0.8976682 0.8985190
0.6476681 0.6485190 0.7424943
0.6476682 0.6485190 0.7424943
0.6476703 0.6485192 0.7424943
0.6477141 0.6485235 0.7424948
0.6486124 0.6486124 0.7425039
0.6638510 0.6504161 0.7426924
0.7464221 0.6766199 0.7464221
0.8676834 0.7745567 0.7887896
0.9924943 0.8976703 0.8985192
0.6495127 0.6637864 0.7426829
0.6495128 0.6637864 0.7426829
0.6495148 0.6637866 0.7426829
0.6495567 0.6637896 0.7426834
0.6504161 0.6638510 0.7426924
0.6651056 0.6651056 0.7428801
0.7465936 0.6850430 0.7465936
0.8676924 0.7754161 0.7888510
0.9924948 0.8977141 0.8985235
0.6761439 0.7464134 0.7464134
0.6761440 0.7464134 0.7464134
0.6761450 0.7464134 0.7464134
0.6761670 0.7464138 0.7464138
0.6766199 0.7464221 0.7464221
0.6850430 0.7465936 0.7465936
0.7500000 0.7500000 0.7500000
0.8678801 0.7901056 0.7901056
0.9925039 0.8986124 0.8986124
0.7745127 0.8676829 0.7887864
0.7745127 0.8676829 0.7887864
0.7745128 0.8676829 0.7887864
0.7745148 0.8676829 0.7887866
0.7745567 0.8676834 0.7887896
0.7754161 0.8676924 0.7888510
0.7901056 0.8678801 0.7901056
0.8715936 0.8715936 0.8100430
0.9926924 0.9138510 0.9004161
0.8976681 0.9924943 0.8985190
0.8976681 0.9924943 0.8985190
0.8976681 0.9924943 0.8985190
0.8976682 0.9924943 0.8985190
0.8976703 0.9924943 0.8985192
0.8977141 0.9924948 0.8985235
0.8986124 0.9925039 0.8986124
0.9138510 0.9926924 0.9004161
0.9964221 0.9964221 0.9266199
0.7725725 0.7725725 0.8674847
0.7725725 0.7725725 0.8674847
0.7725726 0.7725725 0.8674847
0.7725747 0.7725727 0.8674848
0.7726186 0.7725771 0.8674852
0.7735190 0.7726681 0.8674943
0.7887864 0.7745127 0.8676829
0.8714134 0.8011439 0.8714134
0.9926829 0.8995127 0.9137864
0.7725725 0.7725725 0.8674847
0.7725725 0.7725725 0.8674847
0.7725726 0.7725725 0.8674847
0.7725747 0.7725727 0.8674848
0.7726186 0.7725771 0.8674852
0.7735190 0.7726681 0.8674943
0.7887864 0.7745127 0.8676829
0.8714134 0.8011439 0.8714134
0.9926829 0.8995127 0.9137864
0.7725725 0.7725726 0.8674847
0.7725725 0.7725726 0.8674847
0.7725726 0.7725726 0.8674847
0.7725747 0.7725728 0.8674848
0.7726186 0.7725772 0.8674852
0.7735190 0.7726682 0.8674943
0.7887864 0.7745128 0.8676829
0.8714134 0.8011440 0.8714134
0.9926829 0.8995127 0.9137864
0.7725727 0.7725747 0.8674848
0.7725727 0.7725747 0.8674848
0.7725728 0.7725747 0.8674848
0.7725749 0.7725749 0.8674848
0.7726188 0.7725793 0.8674852
0.7735192 0.7726703 0.8674943
0.7887866 0.7745148 0.8676829
0.8714134 0.8011450 0.8714134
0.9926829 0.8995128 0.9137864
0.7725771 0.7726186 0.8674852
0.7725771 0.7726186 0.8674852
0.7725772 0.7726186 0.8674852
0.7725793 0.7726188 0.8674852
0.7726232 0.7726232 0.8674857
0.7735235 0.7727141 0.8674948
0.7887896 0.7745567 0.8676834
0.8714138 0.8011670 0.8714138
0.9926829 0.8995148 0.9137866
0.7726681 0.7735190 0.8674943
0.7726681 0.7735190 0.8674943
0.7726682 0.7735190 0.8674943
0.7726703 0.7735192 0.8674943
0.7727141 0.7735235 0.8674948
0.7736124 0.7736124 0.8675039
0.7888510 0.7754161 0.8676924
0.8714221 0.8016199 0.8714221
0.9926834 0.8995567 0.9137896
0.7745127 0.7887864 0.8676829
0.7745127 0.7887864 0.8676829
0.7745128 0.7887864 0.8676829
0.7745148 0.7887866 0.8676829
0.7745567 0.7887896 0.8676834
0.7754161 0.7888510 0.8676924
0.7901056 0.7901056 0.8678801
0.8715936 0.8100430 0.8715936
0.9926924 0.9004161 0.9138510
0.8011439 0.8714134 0.8714134
0.8011439 0.8714134 0.8714134
0.8011440 0.8714134 0.8714134
0.8011450 0.8714134 0.8714134
0.8011670 0.8714138 0.8714138
0.8016199 0.8714221 0.8714221
0.8100430 0.8715936 0.8715936
0.8750000 0.8750000 0.8750000
0.9928801 0.9151056 0.9151056
0.8995127 0.9926829 0.9137864
0.8995127 0.9926829 0.9137864
0.8995127 0.9926829 0.9137864
0.8995128 0.9926829 0.9137864
0.8995148 0.9926829 0.9137866
0.8995567 0.9926834 0.9137896
0.9004161 0.9926924 0.9138510
0.9151056 0.9928801 0.9151056
0.9965936 0.9965936 0.9350430
0.8975725 0.8975725 0.9924847
0.8975725 0.8975725 0.9924847
0.8975725 0.8975725 0.9924847
0.8975726 0.8975725 0.9924847
0.8975747 0.8975727 0.9924848
0.8976186 0.8975771 0.9924852
0.8985190 0.8976681 0.9924943
0.9137864 0.8995127 0.9926829
0.9964134 0.9261439 0.9964134
0.8975725 0.8975725 0.9924847
0.8975725 0.8975725 0.9924847
0.8975725 0.8975725 0.9924847
0.8975726 0.8975725 0.9924847
0.8975747 0.8975727 0.9924848
0.8976186 0.8975771 0.9924852
0.8985190 0.8976681 0.9924943
0.9137864 0.8995127 0.9926829
0.9964134 0.9261439 0.9964134
0.8975725 0.8975725 0.9924847
0.8975725 0.8975725 0.9924847
0.8975725 0.8975725 0.9924847
0.8975726 0.8975725 0.9924847
0.8975747 0.8975727 0.9924848
0.8976186 0.8975771 0.9924852
0.8985190 0.8976681 0.9924943
0.9137864 0.8995127 0.9926829
0.9964134 0.9261439 0.9964134
0.8975725 0.8975726 0.9924847
0.8975725 0.8975726 0.9924847
0.8975725 0.8975726 0.9924847
0.8975726 0.8975726 0.9924847
0.8975747 0.8975728 0.9924848
0.8976186 0.8975772 0.9924852
0.8985190 0.8976682 0.9924943
0.9137864 0.8995128 0.9926829
0.9964134 0.9261440 0.9964134
0.8975727 0.8975747 0.9924848
0.8975727 0.8975747 0.9924848
0.8975727 0.8975747 0.9924848
0.8975728 0.8975747 0.9924848
0.8975749 0.8975749 0.9924848
0.8976188 0.8975793 0.9924852
0.8985192 0.8976703 0.9924943
0.9137866 0.8995148 0.9926829
0.9964134 0.9261450 0.9964134
0.8975771 0.8976186 0.9924852
0.8975771 0.8976186 0.9924852
0.8975771 0.8976186 0.9924852
0.8975772 0.8976186 0.9924852
0.8975793 0.8976188 0.9924852
0.8976232 0.8976232 0.9924857
0.8985235 0.8977141 0.9924948
0.9137896 0.8995567 0.9926834
0.9964138 0.9261670 0.9964138
0.8976681 0.8985190 0.9924943
0.8976681 0.8985190 0.9924943
0.8976681 0.8985190 0.9924943
0.8976682 0.8985190 0.9924943
0.8976703 0.8985192 0.9924943
0.8977141 0.8985235 0.9924948
0.8986124 0.8986124 0.9925039
0.9138510 0.9004161 0.9926924
0.9964221 0.9266199 0.9964221
0.8995127 0.9137864 0.9926829
0.8995127 0.9137864 0.9926829
0.8995127 0.9137864 0.9926829
0.8995128 0.9137864 0.9926829
0.8995148 0.9137866 0.9926829
0.8995567 0.9137896 0.9926834
0.9004161 0.9138510 0.9926924
0.9151056 0.9151056 0.9928801
0.9965936 0.9350430 0.9965936
0.9261439 0.9964134 0.9964134
0.9261439 0.9964134 0.9964134
0.9261439 0.9964134 0.9964134
0.9261440 0.9964134 0.9964134
0.9261450 0.9964134 0.9964134
0.9261670 0.9964138 0.9964138
0.9266199 0.9964221 0.9964221
0.9350430 0.9965936 0.9965936
1.0000000 1.0000000 1.0000000
