LUTs/Spherical_Compression.cube
TITLE "Spherical Chroma Compression"
# Spherically compress chroma by a gentle curve such that very high chroma values are reduced by 25.0%
# At a spherical chroma of 1.0, the compression is 22.0%
LUT_3D_SIZE 5
0.0000000 0.0000000 0.0000000
0.2499990 0.0002211 0.0002211
0.4995697 0.2831996 0.2831996
0.7424847 0.6475725 0.6475725
0.9924847 0.8975725 0.8975725
0.0002211 0.2499990 0.0002211
0.2499995 0.2499995 0.0004410
0.4995707 0.2982337 0.2832492
0.7424848 0.6475747 0.6475727
0.9924847 0.8975725 0.8975725
0.2831996 0.4995697 0.2831996
0.2982337 0.4995707 0.2832492
0.4997854 0.4997854 0.3117497
0.7424943 0.6485190 0.6476681
0.9924848 0.8975747 0.8975727
0.6475725 0.7424847 0.6475725
0.6475747 0.7424848 0.6475727
0.6485190 0.7424943 0.6476681
0.7464134 0.7464134 0.6761439
0.9924943 0.8985190 0.8976681
0.8975725 0.9924847 0.8975725
0.8975725 0.9924847 0.8975725
0.8975747 0.9924848 0.8975727
0.8985190 0.9924943 0.8976681
0.9964134 0.9964134 0.9261439
0.0002211 0.0002211 0.2499990
0.2499995 0.0004410 0.2499995
0.4995707 0.2832492 0.2982337
0.7424848 0.6475727 0.6475747
0.9924847 0.8975725 0.8975725
0.0004410 0.2499995 0.2499995
0.2500000 0.2500000 0.2500000
0.4995717 0.2982681 0.2982681
0.7424848 0.6475749 0.6475749
0.9924847 0.8975725 0.8975725
0.2832492 0.4995707 0.2982337
0.2982681 0.4995717 0.2982681
0.4997864 0.4997864 0.3198959
0.7424943 0.6485192 0.6476703
0.9924848 0.8975747 0.8975727
0.6475727 0.7424848 0.6475747
0.6475749 0.7424848 0.6475749
0.6485192 0.7424943 0.6476703
0.7464134 0.7464134 0.6761450
0.9924943 0.8985190 0.8976681
0.8975725 0.9924847 0.8975725
0.8975725 0.9924847 0.8975725
0.8975747 0.9924848 0.8975727
0.8985190 0.9924943 0.8976681
0.9964134 0.9964134 0.9261439
0.2831996 0.2831996 0.4995697
0.2982337 0.2832492 0.4995707
0.4997854 0.3117497 0.4997854
0.7424943 0.6476681 0.6485190
0.9924848 0.8975727 0.8975747
0.2832492 0.2982337 0.4995707
0.2982681 0.2982681 0.4995717
0.4997864 0.3198959 0.4997864
0.7424943 0.6476703 0.6485192
0.9924848 0.8975727 0.8975747
0.3117497 0.4997854 0.4997854
0.3198959 0.4997864 0.4997864
0.5000000 0.5000000 0.5000000
0.7425039 0.6486124 0.6486124
0.9924848 0.8975749 0.8975749
0.6476681 0.7424943 0.6485190
0.6476703 0.7424943 0.6485192
0.6486124 0.7425039 0.6486124
0.7464221 0.7464221 0.6766199
0.9924943 0.8985192 0.8976703
0.8975727 0.9924848 0.8975747
0.8975727 0.9924848 0.8975747
0.8975749 0.9924848 0.8975749
0.8985192 0.9924943 0.8976703
0.9964134 0.9964134 0.9261450
0.6475725 0.6475725 0.7424847
0.6475747 0.6475727 0.7424848
0.6485190 0.6476681 0.7424943
0.7464134 0.6761439 0.7464134
0.9924943 0.8976681 0.8985190
0.6475727 0.6475747 0.7424848
0.6475749 0.6475749 0.7424848
0.6485192 0.6476703 0.7424943
0.7464134 0.6761450 0.7464134
0.9924943 0.8976681 0.8985190
0.6476681 0.6485190 0.7424943
0.6476703 0.6485192 0.7424943
0.6486124 0.6486124 0.7425039
0.7464221 0.6766199 0.7464221
0.9924943 0.8976703 0.8985192
0.6761439 0.7464134 0.7464134
0.6761450 0.7464134 0.7464134
0.6766199 0.7464221 0.7464221
0.7500000 0.7500000 0.7500000
0.9925039 0.8986124 0.8986124
0.8976681 0.9924943 0.8985190
0.8976681 0.9924943 0.8985190
0.8976703 0.9924943 0.8985192
0.8986124 0.9925039 0.8986124
0.9964221 0.9964221 0.9266199
0.8975725 0.8975725 0.9924847
0.8975725 0.8975725 0.9924847
0.8975747 0.8975727 0.9924848
0.8985190 0.8976681 0.9924943
0.9964134 0.9261439 0.9964134
0.8975725 0.8975725 0.9924847
0.8975725 0.8975725 0.9924847
0.8975747 0.8975727 0.9924848
0.8985190 0.8976681 0.9924943
0.9964134 0.9261439 0.9964134
0.8975727 0.8975747 0.9924848
0.8975727 0.8975747 0.9924848
0.8975749 0.8975749 0.9924848
0.8985192 0.8976703 0.9924943
0.9964134 0.9261450 0.9964134
0.8976681 0.8985190 0.9924943
0.8976681 0.8985190 0.9924943
0.8976703 0.8985192 0.9924943
0.8986124 0.8986124 0.9925039
0.9964221 0.9266199 0.9964221
0.9261439 0.9964134 0.9964134
0.9261439 0.9964134 0.9964134
0.9261450 0.9964134 0.9964134
0.9266199 0.9964221 0.9964221
1.0000000 1.0000000 1.0000000
